(Exported by FreeCAD)
(Post Processor: PathScripts.post.linuxcnc_post)
(Output Time:2023-10-14 21:46:33.790637)
(begin preamble)
G17 G54 G40 G49 G80 G90
G21
(begin operation: Contour)
(machine: not set, mm/min)
(Contour)
(Compensated Tool Path. Diameter: 6.0)
G0 Z26.000
G0 X26.162 Y26.162
G0 Z24.000
G1 X26.162 Y26.162 Z18.000 F18000.000
G2 X2.752 Y-36.897 Z18.000 I-26.162 J-26.162 F18000.000
G2 X-36.898 Y-2.738 Z18.000 I-2.752 J36.897 F18000.000
G2 X-2.724 Y36.899 Z18.000 I36.898 J2.738 F18000.000
G2 X26.162 Y26.162 Z18.000 I2.724 J-36.899 F18000.000
G1 X26.162 Y26.162 Z15.000 F18000.000
G2 X2.752 Y-36.897 Z15.000 I-26.162 J-26.162 F18000.000
G2 X-36.898 Y-2.738 Z15.000 I-2.752 J36.897 F18000.000
G2 X-2.724 Y36.899 Z15.000 I36.898 J2.738 F18000.000
G2 X26.162 Y26.162 Z15.000 I2.724 J-36.899 F18000.000
G1 X26.162 Y26.162 Z12.000 F18000.000
G2 X2.752 Y-36.897 Z12.000 I-26.162 J-26.162 F18000.000
G2 X-36.898 Y-2.738 Z12.000 I-2.752 J36.897 F18000.000
G2 X-2.724 Y36.899 Z12.000 I36.898 J2.738 F18000.000
G2 X26.162 Y26.162 Z12.000 I2.724 J-36.899 F18000.000
G1 X26.162 Y26.162 Z9.000 F18000.000
G2 X2.752 Y-36.897 Z9.000 I-26.162 J-26.162 F18000.000
G2 X-36.898 Y-2.738 Z9.000 I-2.752 J36.897 F18000.000
G2 X-2.724 Y36.899 Z9.000 I36.898 J2.738 F18000.000
G2 X26.162 Y26.162 Z9.000 I2.724 J-36.899 F18000.000
G1 X26.162 Y26.162 Z6.000 F18000.000
G2 X2.752 Y-36.897 Z6.000 I-26.162 J-26.162 F18000.000
G2 X-36.898 Y-2.738 Z6.000 I-2.752 J36.897 F18000.000
G2 X-2.724 Y36.899 Z6.000 I36.898 J2.738 F18000.000
G2 X26.162 Y26.162 Z6.000 I2.724 J-36.899 F18000.000
G1 X26.162 Y26.162 Z3.000 F18000.000
G2 X2.752 Y-36.897 Z3.000 I-26.162 J-26.162 F18000.000
G2 X-36.898 Y-2.738 Z3.000 I-2.752 J36.897 F18000.000
G2 X-2.724 Y36.899 Z3.000 I36.898 J2.738 F18000.000
G2 X26.162 Y26.162 Z3.000 I2.724 J-36.899 F18000.000
G1 X26.162 Y26.162 Z0.000 F18000.000
G2 X2.752 Y-36.897 Z0.000 I-26.162 J-26.162 F18000.000
G2 X-36.898 Y-2.738 Z0.000 I-2.752 J36.897 F18000.000
G2 X-2.724 Y36.899 Z0.000 I36.898 J2.738 F18000.000
G2 X26.162 Y26.162 Z0.000 I2.724 J-36.899 F18000.000
G1 X26.162 Y26.162 Z-1.000 F18000.000
G2 X2.752 Y-36.897 Z-1.000 I-26.162 J-26.162 F18000.000
G2 X-36.898 Y-2.738 Z-1.000 I-2.752 J36.897 F18000.000
G2 X-2.724 Y36.899 Z-1.000 I36.898 J2.738 F18000.000
G2 X26.162 Y26.162 Z-1.000 I2.724 J-36.899 F18000.000
G0 Z26.000
(finish operation: Contour)
(begin postamble)
M05
G17 G54 G90 G80 G40
M2
