%
(1)
(T1  D=6. CR=0. - ZMIN=-6.499 - FLAT END MILL)
N10 G90 G94 G17 G91.1
N15 G21
N20 G53 G0 Z0.
(ADAPTIVE1)
N25 M9
N30 T1 M6
N35 S2500 M3
N40 G54
N45 M8
N55 G0 X-0.411 Y-5.462
N60 G43 Z15. H1
N65 G0 Z5.
N70 Z0.2
N75 G1 Z-0.4 F100.
N80 X-0.41 Y-5.454 Z-0.494
N85 X-0.404 Y-5.433 Z-0.585
N90 X-0.395 Y-5.398 Z-0.672
N95 X-0.383 Y-5.351 Z-0.753
N100 X-0.368 Y-5.291 Z-0.824
N105 X-0.35 Y-5.222 Z-0.885
N110 X-0.33 Y-5.144 Z-0.935
N115 X-0.309 Y-5.06 Z-0.971
N120 X-0.286 Y-4.971 Z-0.993
N125 X-0.263 Y-4.88 Z-1.
N130 G3 X0.006 Y-3.015 I-8.476 J2.171
N135 G1 Y-2.993
N140 X-0.049 Y-2.567
N145 X-0.096 Y-2.14
N150 X-0.137 Y-1.713
N155 X-0.171 Y-1.285
N160 X-0.201 Y-0.856
N165 X-0.227 Y-0.427
N170 X-0.248 Y0.002
N175 X-0.267 Y0.431
N180 X-0.283 Y0.86
N185 X-0.297 Y1.289
N190 X-0.309 Y1.719
N195 X-0.319 Y2.148
N200 X-0.327 Y2.577
N205 X-0.335 Y3.007
N210 X-0.341 Y3.436
N215 X-0.346 Y3.866
N220 X-0.351 Y4.295
N225 X-0.355 Y4.725
N230 X-0.358 Y5.154
N235 X-0.361 Y5.584
N240 X-0.364 Y6.013
N245 X-0.366 Y6.443
N250 X-0.367 Y6.872
N255 X-0.369 Y7.302
N260 X-0.371 Y8.161
N265 X-0.373 Y9.02
N270 X-0.375 Y10.309
N275 X-0.376 Y11.597
N280 X-0.377 Y13.745
N285 X-0.378 Y17.181
N290 Y27.49
N295 Y47.248
N300 Y47.677
N305 X-0.41 Y48.106
N310 X-0.436 Y48.534
N315 X-0.459 Y48.963
N320 X-0.469 Y49.178
N325 X-0.446 Y49.391
N330 X-0.335 Y49.806
N335 X-0.11 Y50.172
N340 X0.172 Y50.496
N345 X0.494 Y50.78
N350 X0.844 Y51.029
N355 X1.215 Y51.246
N360 X1.601 Y51.434
N365 X1.999 Y51.597
N370 X2.404 Y51.738
N375 X2.816 Y51.86
N380 X3.233 Y51.964
N385 X3.653 Y52.054
N390 X4.075 Y52.132
N395 X4.5 Y52.198
N400 X4.925 Y52.255
N405 X5.352 Y52.304
N410 X5.78 Y52.346
N415 X6.208 Y52.382
N420 X6.636 Y52.413
N425 X7.065 Y52.439
N430 X7.494 Y52.462
N435 X7.923 Y52.481
N440 X8.352 Y52.498
N445 X8.781 Y52.512
N450 X9.211 Y52.524
N455 X9.64 Y52.534
N460 X10.07 Y52.543
N465 X10.499 Y52.55
N470 X10.928 Y52.557
N475 X11.358 Y52.562
N480 X11.787 Y52.567
N485 X12.217 Y52.571
N490 X12.646 Y52.574
N495 X13.076 Y52.577
N500 X13.506 Y52.58
N505 X13.935 Y52.582
N510 X14.365 Y52.584
N515 X14.794 Y52.585
N520 X15.653 Y52.588
N525 X16.512 Y52.589
N530 X17.801 Y52.591
N535 X19.089 Y52.592
N540 X21.237 Y52.593
N545 X24.673 Y52.594
N550 X35.411
N555 X46.579
N560 X79.223
N565 X79.645 Y52.512
N570 X80.028 Y52.318
N575 X80.368 Y52.056
N580 X80.669 Y51.749
N585 X80.932 Y51.41
N590 X81.161 Y51.047
N595 X81.36 Y50.666
N600 X81.533 Y50.273
N605 X81.683 Y49.87
N610 X81.812 Y49.461
N615 X81.923 Y49.046
N620 X82.019 Y48.627
N625 X82.102 Y48.206
N630 X82.172 Y47.782
N635 X82.233 Y47.357
N640 X82.285 Y46.93
N645 X82.33 Y46.503
N650 X82.368 Y46.075
N655 X82.401 Y45.647
N660 X82.429 Y45.219
N665 X82.453 Y44.79
N670 X82.474 Y44.361
N675 X82.491 Y43.931
N680 X82.506 Y43.502
N685 X82.519 Y43.073
N690 X82.53 Y42.643
N695 X82.539 Y42.214
N700 X82.547 Y41.785
N705 X82.554 Y41.355
N710 X82.56 Y40.926
N715 X82.565 Y40.496
N720 X82.569 Y40.067
N725 X82.573 Y39.637
N730 X82.576 Y39.208
N735 X82.579 Y38.778
N740 X82.581 Y38.349
N745 X82.583 Y37.919
N750 X82.585 Y37.49
N755 X82.586 Y37.06
N760 X82.588 Y36.201
N765 X82.59 Y35.342
N770 X82.591 Y34.053
N775 X82.593 Y32.765
N780 Y30.617
N785 X82.594 Y27.181
N790 Y14.725
N795 Y2.698
N800 X82.486 Y2.282
N805 X82.277 Y1.907
N810 X82.006 Y1.574
N815 X81.692 Y1.281
N820 X81.347 Y1.024
N825 X80.981 Y0.8
N830 X80.598 Y0.606
N835 X80.202 Y0.438
N840 X79.798 Y0.292
N845 X79.388 Y0.166
N850 X78.972 Y0.058
N855 X78.553 Y-0.035
N860 X78.131 Y-0.115
N865 X77.707 Y-0.184
N870 X77.281 Y-0.243
N875 X76.855 Y-0.294
N880 X76.427 Y-0.337
N885 X75.999 Y-0.375
N890 X75.571 Y-0.406
N895 X75.142 Y-0.434
N900 X74.714 Y-0.457
N905 X74.285 Y-0.477
N910 X73.855 Y-0.494
N915 X73.426 Y-0.509
N920 X72.997 Y-0.521
N925 X72.567 Y-0.532
N930 X72.138 Y-0.541
N935 X71.708 Y-0.549
N940 X71.279 Y-0.555
N945 X70.849 Y-0.561
N950 X70.42 Y-0.566
N955 X69.99 Y-0.57
N960 X69.561 Y-0.573
N965 X69.131 Y-0.577
N970 X68.702 Y-0.579
N975 X68.272 Y-0.581
N980 X67.843 Y-0.583
N985 X67.413 Y-0.585
N990 X66.984 Y-0.586
N995 X66.125 Y-0.588
N1000 X65.266 Y-0.59
N1005 X63.977 Y-0.592
N1010 X62.259 Y-0.593
N1015 X60.111 Y-0.594
N1020 X55.816
N1025 X16.729
N1030 X5.562
N1035 X5.136 Y-0.534
N1040 X4.745 Y-0.356
N1045 X4.394 Y-0.109
N1050 X4.083 Y0.187
N1055 X3.809 Y0.518
N1060 X3.569 Y0.874
N1065 X3.359 Y1.249
N1070 X3.176 Y1.637
N1075 X3.017 Y2.037
N1080 X2.879 Y2.443
N1085 X2.76 Y2.856
N1090 X2.657 Y3.273
N1095 X2.568 Y3.693
N1100 X2.491 Y4.116
N1105 X2.425 Y4.54
N1110 X2.368 Y4.966
N1115 X2.319 Y5.393
N1120 X2.277 Y5.82
N1125 X2.241 Y6.248
N1130 X2.21 Y6.677
N1135 X2.183 Y7.105
N1140 X2.16 Y7.534
N1145 X2.14 Y7.963
N1150 X2.124 Y8.392
N1155 X2.109 Y8.822
N1160 X2.097 Y9.251
N1165 X2.086 Y9.68
N1170 X2.077 Y10.11
N1175 X2.069 Y10.539
N1180 X2.062 Y10.969
N1185 X2.056 Y11.398
N1190 X2.051 Y11.828
N1195 X2.047 Y12.257
N1200 X2.044 Y12.687
N1205 X2.04 Y13.116
N1210 X2.038 Y13.546
N1215 X2.035 Y13.975
N1220 X2.034 Y14.405
N1225 X2.032 Y14.834
N1230 X2.03 Y15.264
N1235 X2.028 Y16.123
N1240 X2.026 Y16.982
N1245 X2.025 Y18.271
N1250 X2.024 Y19.559
N1255 X2.023 Y21.707
N1260 X2.022 Y25.143
N1265 Y35.881
N1270 Y37.17
N1275 Y44.901
N1280 X2.021 Y45.331
N1285 X2.016 Y45.76
N1290 X2.038 Y46.189
N1295 X2.144 Y46.605
N1300 X2.321 Y46.997
N1305 X2.553 Y47.358
N1310 X2.829 Y47.687
N1315 X2.969 Y47.821
N1320 X3.027 Y47.88
N1325 X3.083 Y47.942
N1330 X3.135 Y48.007
N1335 X3.233 Y48.135
N1340 X3.376 Y48.315
N1345 X3.495 Y48.439
N1350 X3.551 Y48.495
N1355 X3.675 Y48.615
N1360 X3.748 Y48.675
N1365 X3.978 Y48.855
N1370 X4.034 Y48.893
N1375 X4.259 Y49.035
N1380 X4.394 Y49.11
N1385 X4.574 Y49.194
N1390 X4.754 Y49.268
N1395 X4.934 Y49.33
N1400 X5.114 Y49.385
N1405 X5.155 Y49.395
N1410 X5.294 Y49.428
N1415 X5.473 Y49.457
N1420 X5.895 Y49.538
N1425 X6.317 Y49.62
N1430 X6.74 Y49.693
N1435 X7.165 Y49.756
N1440 X7.591 Y49.812
N1445 X8.018 Y49.861
N1450 X8.445 Y49.904
N1455 X8.873 Y49.942
N1460 X9.301 Y49.974
N1465 X9.73 Y50.003
N1470 X10.159 Y50.028
N1475 X10.587 Y50.05
N1480 X11.017 Y50.068
N1485 X11.446 Y50.085
N1490 X11.875 Y50.099
N1495 X12.304 Y50.112
N1500 X12.734 Y50.123
N1505 X13.163 Y50.132
N1510 X13.593 Y50.14
N1515 X14.022 Y50.148
N1520 X14.452 Y50.154
N1525 X14.881 Y50.159
N1530 X15.311 Y50.164
N1535 X15.74 Y50.168
N1540 X16.17 Y50.171
N1545 X16.599 Y50.174
N1550 X17.029 Y50.177
N1555 X17.458 Y50.179
N1560 X17.888 Y50.181
N1565 X18.317 Y50.183
N1570 X19.176 Y50.186
N1575 X20.035 Y50.188
N1580 X20.894 Y50.19
N1585 X22.183 Y50.191
N1590 X23.901 Y50.193
N1595 X26.049
N1600 X29.914 Y50.194
N1605 X44.089
N1610 X55.686
N1615 X75.874
N1620 X76.3 Y50.14
N1625 X76.709 Y50.009
N1630 X77.091 Y49.814
N1635 X77.443 Y49.567
N1640 X77.763 Y49.281
N1645 X78.051 Y48.962
N1650 X78.31 Y48.619
N1655 X78.54 Y48.257
N1660 X78.744 Y47.879
N1665 X78.925 Y47.489
N1670 X79.085 Y47.091
N1675 X79.226 Y46.685
N1680 X79.349 Y46.273
N1685 X79.458 Y45.858
N1690 X79.553 Y45.439
N1695 X79.636 Y45.018
N1700 X79.709 Y44.594
N1705 X79.772 Y44.169
N1710 X79.828 Y43.743
N1715 X79.876 Y43.317
N1720 X79.918 Y42.889
N1725 X79.955 Y42.461
N1730 X79.986 Y42.033
N1735 X80.014 Y41.604
N1740 X80.038 Y41.175
N1745 X80.059 Y40.746
N1750 X80.077 Y40.317
N1755 X80.093 Y39.888
N1760 X80.106 Y39.459
N1765 X80.118 Y39.029
N1770 X80.128 Y38.6
N1775 X80.137 Y38.17
N1780 X80.145 Y37.741
N1785 X80.152 Y37.312
N1790 X80.157 Y36.882
N1795 X80.162 Y36.453
N1800 X80.167 Y36.023
N1805 X80.17 Y35.594
N1810 X80.174 Y35.164
N1815 X80.176 Y34.735
N1820 X80.179 Y34.305
N1825 X80.181 Y33.875
N1830 X80.183 Y33.446
N1835 X80.184 Y33.016
N1840 X80.187 Y32.157
N1845 X80.189 Y31.298
N1850 X80.191 Y30.01
N1855 X80.192 Y28.721
N1860 X80.193 Y27.003
N1865 X80.194 Y24.426
N1870 Y21.849
N1875 Y7.674
N1880 Y6.386
N1885 X80.19 Y5.956
N1890 X80.104 Y5.536
N1895 X79.945 Y5.136
N1900 X79.728 Y4.766
N1905 X79.465 Y4.427
N1910 X79.164 Y4.119
N1915 X78.836 Y3.843
N1920 X78.484 Y3.596
N1925 X78.115 Y3.376
N1930 X77.732 Y3.182
N1935 X77.339 Y3.009
N1940 X76.937 Y2.857
N1945 X76.529 Y2.724
N1950 X76.116 Y2.606
N1955 X75.699 Y2.503
N1960 X75.279 Y2.413
N1965 X74.857 Y2.334
N1970 X74.433 Y2.265
N1975 X74.007 Y2.205
N1980 X73.581 Y2.153
N1985 X73.154 Y2.107
N1990 X72.726 Y2.067
N1995 X72.298 Y2.032
N2000 X71.87 Y2.002
N2005 X71.441 Y1.976
N2010 X71.012 Y1.953
N2015 X70.583 Y1.934
N2020 X70.154 Y1.917
N2025 X69.725 Y1.902
N2030 X69.295 Y1.889
N2035 X68.866 Y1.878
N2040 X68.436 Y1.868
N2045 X68.007 Y1.86
N2050 X67.577 Y1.852
N2055 X67.148 Y1.846
N2060 X66.718 Y1.841
N2065 X66.289 Y1.836
N2070 X65.859 Y1.832
N2075 X65.43 Y1.828
N2080 X65. Y1.825
N2085 X64.571 Y1.823
N2090 X64.141 Y1.82
N2095 X63.712 Y1.818
N2100 X63.282 Y1.817
N2105 X62.853 Y1.815
N2110 X61.994 Y1.813
N2115 X61.135 Y1.811
N2120 X59.846 Y1.809
N2125 X58.558 Y1.808
N2130 X56.84 Y1.807
N2135 X53.833 Y1.806
N2140 X47.39
N2145 X8.733
N2150 X8.308 Y1.872
N2155 X7.902 Y2.012
N2160 X7.523 Y2.214
N2165 X7.491 Y2.237
N2170 X7.239 Y2.381
N2175 X6.962 Y2.47
N2180 X6.674 Y2.5
N2185 X6.193
N2190 X6.013 Y2.501
N2195 X5.833 Y2.507
N2200 X5.653 Y2.518
N2205 X5.473 Y2.543
N2210 X5.294 Y2.572
N2215 X5.151 Y2.605
N2220 X5.114 Y2.614
N2225 X4.934 Y2.67
N2230 X4.754 Y2.732
N2235 X4.574 Y2.806
N2240 X4.394 Y2.89
N2245 X4.258 Y2.965
N2250 X4.214 Y2.991
N2255 X4.034 Y3.104
N2260 X3.978 Y3.145
N2265 X3.748 Y3.325
N2270 X3.675 Y3.384
N2275 X3.546 Y3.505
N2280 X3.495 Y3.557
N2285 X3.376 Y3.685
N2290 X3.233 Y3.865
N2295 X3.135 Y3.99
N2300 X3.097 Y4.045
N2305 X2.984 Y4.225
N2310 X2.955 Y4.275
N2315 X2.885 Y4.404
N2320 X2.802 Y4.584
N2325 X2.727 Y4.764
N2330 X2.667 Y4.944
N2335 X2.612 Y5.124
N2340 X2.595 Y5.191
N2345 X2.571 Y5.304
N2350 X2.542 Y5.484
N2355 X2.518 Y5.664
N2360 X2.506 Y5.844
N2365 X2.501 Y6.024
N2370 X2.5 Y6.204
N2375 Y45.976
N2380 X2.506 Y46.156
N2385 X2.518 Y46.336
N2390 X2.542 Y46.516
N2395 Y46.525
N2400 G2 X2.728 Y47.707 I2.76 J0.171
N2405 X2.861 Y47.911 I0.558 J-0.219
N2410 G1 X3.161 Y48.211
N2415 X3.78 Y48.833
N2420 X4.079 Y49.133
N2425 G2 X4.282 Y49.267 I0.425 J-0.424
N2430 X5.464 Y49.457 I1.02 J-2.571
N2435 G1 X5.473
N2440 X5.653 Y49.482
N2445 X5.833 Y49.493
N2450 X6.013 Y49.499
N2455 X6.193 Y49.5
N2460 X6.912
N2465 X30.837
N2470 X31.017
N2475 X31.196 Y49.494
N2480 X31.376 Y49.476
N2485 X31.556 Y49.455
N2490 X31.736 Y49.422
N2495 X31.839 Y49.395
N2500 X31.916 Y49.374
N2505 X32.096 Y49.322
N2510 X32.276 Y49.257
N2515 X32.382 Y49.215
N2520 X32.456 Y49.183
N2525 X32.636 Y49.092
N2530 X32.734 Y49.035
N2535 X33.059 Y48.87
N2540 X33.456 Y48.706
N2545 X33.863 Y48.568
N2550 X34.276 Y48.452
N2555 X34.694 Y48.353
N2560 X35.116 Y48.27
N2565 X35.539 Y48.199
N2570 X35.965 Y48.139
N2575 X36.391 Y48.088
N2580 X36.818 Y48.045
N2585 X37.246 Y48.008
N2590 X37.675 Y47.976
N2595 X38.103 Y47.95
N2600 X38.532 Y47.927
N2605 X38.961 Y47.907
N2610 X39.391 Y47.891
N2615 X39.82 Y47.877
N2620 X40.249 Y47.864
N2625 X40.679 Y47.854
N2630 X41.108 Y47.845
N2635 X41.538 Y47.838
N2640 X41.967 Y47.832
N2645 X42.397 Y47.826
N2650 X42.826 Y47.821
N2655 X43.256 Y47.817
N2660 X43.685 Y47.814
N2665 X44.115 Y47.811
N2670 X44.544 Y47.809
N2675 X44.974 Y47.807
N2680 X45.403 Y47.805
N2685 X45.833 Y47.803
N2690 X46.692 Y47.801
N2695 X47.551 Y47.799
N2700 X48.839 Y47.797
N2705 X50.128 Y47.796
N2710 X52.276 Y47.795
N2715 X55.712 Y47.794
N2720 X66.879
N2725 X72.893
N2730 X73.321 Y47.764
N2735 X73.74 Y47.67
N2740 X74.141 Y47.516
N2745 X74.518 Y47.309
N2750 X74.866 Y47.058
N2755 X75.186 Y46.771
N2760 X75.476 Y46.455
N2765 X75.739 Y46.115
N2770 X75.975 Y45.756
N2775 X76.187 Y45.382
N2780 X76.376 Y44.997
N2785 X76.545 Y44.602
N2790 X76.694 Y44.199
N2795 X76.827 Y43.79
N2800 X76.944 Y43.377
N2805 X77.048 Y42.96
N2810 X77.139 Y42.541
N2815 X77.22 Y42.119
N2820 X77.291 Y41.695
N2825 X77.354 Y41.27
N2830 X77.409 Y40.844
N2835 X77.457 Y40.418
N2840 X77.499 Y39.99
N2845 X77.536 Y39.562
N2850 X77.569 Y39.134
N2855 X77.597 Y38.705
N2860 X77.622 Y38.277
N2865 X77.644 Y37.848
N2870 X77.663 Y37.418
N2875 X77.68 Y36.989
N2880 X77.695 Y36.56
N2885 X77.707 Y36.131
N2890 X77.718 Y35.701
N2895 X77.728 Y35.272
N2900 X77.737 Y34.842
N2905 X77.744 Y34.413
N2910 X77.751 Y33.983
N2915 X77.756 Y33.554
N2920 X77.761 Y33.124
N2925 X77.765 Y32.695
N2930 X77.769 Y32.265
N2935 X77.772 Y31.836
N2940 X77.775 Y31.406
N2945 X77.778 Y30.977
N2950 X77.78 Y30.547
N2955 X77.782 Y30.118
N2960 X77.783 Y29.688
N2965 X77.786 Y28.829
N2970 X77.788 Y27.97
N2975 X77.79 Y27.111
N2980 X77.791 Y25.823
N2985 X77.792 Y24.105
N2990 X77.793 Y21.957
N2995 X77.794 Y18.091
N3000 Y9.071
N3005 X77.759 Y8.643
N3010 X77.661 Y8.225
N3015 X77.502 Y7.826
N3020 X77.291 Y7.452
N3025 X77.037 Y7.106
N3030 X76.747 Y6.788
N3035 X76.428 Y6.5
N3040 X76.087 Y6.24
N3045 X75.727 Y6.006
N3050 X75.352 Y5.796
N3055 X74.965 Y5.609
N3060 X74.57 Y5.442
N3065 X74.166 Y5.294
N3070 X73.757 Y5.162
N3075 X73.344 Y5.046
N3080 X72.927 Y4.944
N3085 X72.507 Y4.853
N3090 X72.085 Y4.773
N3095 X71.661 Y4.703
N3100 X71.236 Y4.641
N3105 X70.81 Y4.587
N3110 X70.383 Y4.539
N3115 X69.956 Y4.497
N3120 X69.528 Y4.461
N3125 X69.099 Y4.429
N3130 X68.671 Y4.4
N3135 X68.242 Y4.376
N3140 X67.813 Y4.354
N3145 X67.384 Y4.335
N3150 X66.955 Y4.319
N3155 X66.525 Y4.304
N3160 X66.096 Y4.292
N3165 X65.667 Y4.281
N3170 X65.237 Y4.271
N3175 X64.808 Y4.263
N3180 X64.378 Y4.255
N3185 X63.949 Y4.249
N3190 X63.519 Y4.243
N3195 X63.09 Y4.239
N3200 X62.66 Y4.234
N3205 X62.231 Y4.231
N3210 X61.801 Y4.227
N3215 X61.372 Y4.225
N3220 X60.942 Y4.222
N3225 X60.513 Y4.22
N3230 X60.083 Y4.218
N3235 X59.654 Y4.217
N3240 X58.795 Y4.214
N3245 X57.936 Y4.212
N3250 X57.077 Y4.21
N3255 X55.788 Y4.209
N3260 X54.07 Y4.208
N3265 X51.922 Y4.207
N3270 X48.056 Y4.206
N3275 X35.6
N3280 X34.714
N3285 X34.413 Y4.173
N3290 X34.126 Y4.076
N3295 X33.867 Y3.92
N3300 X33.647 Y3.711
N3305 X33.624 Y3.685
N3310 X33.452 Y3.505
N3315 X33.355 Y3.411
N3320 X33.175 Y3.259
N3325 X33.023 Y3.145
N3330 X32.995 Y3.125
N3335 X32.815 Y3.011
N3340 X32.636 Y2.908
N3345 X32.456 Y2.819
N3350 X32.379 Y2.785
N3355 X32.276 Y2.743
N3360 X32.096 Y2.678
N3365 X31.916 Y2.626
N3370 X31.839 Y2.605
N3375 X31.736 Y2.578
N3380 X31.556 Y2.546
N3385 X31.376 Y2.524
N3390 X31.196 Y2.507
N3395 X31.017 Y2.502
N3400 X30.837 Y2.5
N3405 X6.674
N3410 G3 X6.095 Y1.879 I0.021 J-0.6
N3415 X6.716 Y1.301 I0.6 J0.021
N3420 G1 X6.809 Y1.304 Z-0.993
N3425 X6.901 Y1.307 Z-0.971
N3430 X6.988 Y1.31 Z-0.935
N3435 X7.068 Y1.313 Z-0.885
N3440 X7.14 Y1.316 Z-0.824
N3445 X7.201 Y1.318 Z-0.753
N3450 X7.25 Y1.319 Z-0.672
N3455 X7.286 Y1.321 Z-0.585
N3460 X7.308 Z-0.494
N3465 X7.315 Y1.322 Z-0.4
N3470 G0 Z5.
N3475 X30.82 Y50.616
N3480 Z0.2
N3485 G1 Z-0.4 F100.
N3490 X30.826 Y50.611 Z-0.494
N3495 X30.842 Y50.596 Z-0.585
N3500 X30.867 Y50.571 Z-0.672
N3505 X30.903 Y50.536 Z-0.753
N3510 X30.946 Y50.494 Z-0.824
N3515 X30.998 Y50.444 Z-0.885
N3520 X31.055 Y50.388 Z-0.935
N3525 X31.117 Y50.327 Z-0.971
N3530 X31.183 Y50.263 Z-0.993
N3535 X31.25 Y50.198 Z-1.
N3540 G3 X32.734 Y49.035 I6.106 J6.267
N3545 G1 X32.815 Y48.989
N3550 X32.995 Y48.876
N3555 X33.024 Y48.855
N3560 X33.175 Y48.741
N3565 X33.257 Y48.675
N3570 X33.355 Y48.589
N3575 X33.454 Y48.495
N3580 X33.535 Y48.413
N3585 X33.625 Y48.315
N3590 X33.715 Y48.209
N3595 X33.773 Y48.135
N3600 X33.895 Y47.966
N3605 X33.902 Y47.955
N3610 X33.992 Y47.828
N3615 X34.132 Y47.661
N3620 X34.311 Y47.478
N3625 X34.536 Y47.282
N3630 X34.819 Y47.075
N3635 X35.173 Y46.855
N3640 X35.555 Y46.659
N3645 X35.95 Y46.49
N3650 X36.354 Y46.344
N3655 X36.764 Y46.217
N3660 X37.179 Y46.108
N3665 X37.598 Y46.013
N3670 X38.02 Y45.93
N3675 X38.443 Y45.859
N3680 X38.869 Y45.797
N3685 X39.295 Y45.744
N3690 X39.722 Y45.697
N3695 X40.149 Y45.657
N3700 X40.577 Y45.622
N3705 X41.006 Y45.591
N3710 X41.435 Y45.565
N3715 X41.864 Y45.542
N3720 X42.293 Y45.523
N3725 X42.722 Y45.505
N3730 X43.151 Y45.49
N3735 X43.58 Y45.478
N3740 X44.01 Y45.466
N3745 X44.439 Y45.457
N3750 X44.869 Y45.448
N3755 X45.298 Y45.441
N3760 X45.728 Y45.435
N3765 X46.157 Y45.429
N3770 X46.587 Y45.425
N3775 X47.016 Y45.42
N3780 X47.446 Y45.417
N3785 X47.875 Y45.414
N3790 X48.305 Y45.411
N3795 X48.734 Y45.409
N3800 X49.164 Y45.407
N3805 X49.593 Y45.405
N3810 X50.023 Y45.404
N3815 X50.882 Y45.401
N3820 X51.741 Y45.399
N3825 X53.029 Y45.398
N3830 X54.318 Y45.396
N3835 X56.036 Y45.395
N3840 X59.043
N3845 X65.486 Y45.394
N3850 X70.21
N3855 X70.639 Y45.366
N3860 X71.06 Y45.282
N3865 X71.466 Y45.142
N3870 X71.851 Y44.951
N3875 X72.21 Y44.715
N3880 X72.542 Y44.442
N3885 X72.846 Y44.139
N3890 X73.123 Y43.811
N3895 X73.373 Y43.462
N3900 X73.599 Y43.096
N3905 X73.802 Y42.718
N3910 X73.984 Y42.329
N3915 X74.147 Y41.931
N3920 X74.291 Y41.527
N3925 X74.42 Y41.117
N3930 X74.535 Y40.703
N3935 X74.637 Y40.286
N3940 X74.727 Y39.866
N3945 X74.806 Y39.444
N3950 X74.877 Y39.02
N3955 X74.939 Y38.595
N3960 X74.994 Y38.169
N3965 X75.042 Y37.742
N3970 X75.085 Y37.315
N3975 X75.123 Y36.887
N3980 X75.156 Y36.459
N3985 X75.185 Y36.03
N3990 X75.211 Y35.601
N3995 X75.233 Y35.172
N4000 X75.253 Y34.743
N4005 X75.27 Y34.314
N4010 X75.286 Y33.885
N4015 X75.299 Y33.456
N4020 X75.311 Y33.026
N4025 X75.321 Y32.597
N4030 X75.33 Y32.167
N4035 X75.338 Y31.738
N4040 X75.345 Y31.309
N4045 X75.351 Y30.879
N4050 X75.357 Y30.45
N4055 X75.361 Y30.02
N4060 X75.366 Y29.591
N4065 X75.369 Y29.161
N4070 X75.372 Y28.732
N4075 X75.375 Y28.302
N4080 X75.377 Y27.873
N4085 X75.38 Y27.443
N4090 X75.381 Y27.013
N4095 X75.383 Y26.584
N4100 X75.386 Y25.725
N4105 X75.388 Y24.866
N4110 X75.39 Y23.577
N4115 X75.391 Y22.289
N4120 X75.393 Y20.571
N4125 X75.394 Y17.993
N4130 Y13.698
N4135 Y11.98
N4140 X75.387 Y11.551
N4145 X75.328 Y11.125
N4150 X75.213 Y10.711
N4155 X75.043 Y10.317
N4160 X74.826 Y9.946
N4165 X74.569 Y9.602
N4170 X74.279 Y9.286
N4175 X73.961 Y8.997
N4180 X73.621 Y8.735
N4185 X73.262 Y8.498
N4190 X72.889 Y8.285
N4195 X72.504 Y8.094
N4200 X72.11 Y7.923
N4205 X71.709 Y7.771
N4210 X71.301 Y7.635
N4215 X70.889 Y7.514
N4220 X70.473 Y7.407
N4225 X70.054 Y7.312
N4230 X69.633 Y7.228
N4235 X69.21 Y7.153
N4240 X68.786 Y7.088
N4245 X68.36 Y7.03
N4250 X67.934 Y6.978
N4255 X67.506 Y6.933
N4260 X67.079 Y6.893
N4265 X66.651 Y6.858
N4270 X66.222 Y6.828
N4275 X65.794 Y6.8
N4280 X65.365 Y6.777
N4285 X64.936 Y6.756
N4290 X64.507 Y6.737
N4295 X64.077 Y6.721
N4300 X63.648 Y6.707
N4305 X63.219 Y6.694
N4310 X62.789 Y6.683
N4315 X62.36 Y6.674
N4320 X61.93 Y6.665
N4325 X61.501 Y6.658
N4330 X61.071 Y6.651
N4335 X60.642 Y6.646
N4340 X60.212 Y6.641
N4345 X59.783 Y6.636
N4350 X59.353 Y6.632
N4355 X58.924 Y6.629
N4360 X58.494 Y6.626
N4365 X58.065 Y6.624
N4370 X57.635 Y6.621
N4375 X57.206 Y6.619
N4380 X56.776 Y6.618
N4385 X55.917 Y6.615
N4390 X55.058 Y6.613
N4395 X54.199 Y6.611
N4400 X52.911 Y6.609
N4405 X51.193 Y6.608
N4410 X49.904 Y6.607
N4415 X46.897 Y6.606
N4420 X41.313
N4425 X37.448
N4430 X37.018 Y6.605
N4435 X36.589 Y6.597
N4440 X36.16 Y6.578
N4445 X35.732 Y6.541
N4450 X35.631 Y6.528
N4455 X35.342 Y6.456
N4460 X35.075 Y6.325
N4465 X34.841 Y6.14
N4470 X34.652 Y5.91
N4475 X34.516 Y5.646
N4480 X34.439 Y5.358
N4485 G3 X35.628 Y5.198 I0.596 J-0.073
N4490 X35.63 Y5.213 I-0.594 J0.087
N4495 G1 X35.641 Y5.306 Z-0.993
N4500 X35.652 Y5.397 Z-0.971
N4505 X35.663 Y5.484 Z-0.935
N4510 X35.673 Y5.563 Z-0.885
N4515 X35.681 Y5.634 Z-0.824
N4520 X35.689 Y5.695 Z-0.753
N4525 X35.695 Y5.744 Z-0.672
N4530 X35.699 Y5.78 Z-0.585
N4535 X35.702 Y5.801 Z-0.494
N4540 Y5.809 Z-0.4
N4545 G0 Z5.
N4550 X32.944 Y50.246
N4555 Z0.2
N4560 G1 Z-0.4 F100.
N4565 X32.947 Y50.239 Z-0.494
N4570 X32.953 Y50.218 Z-0.585
N4575 X32.965 Y50.183 Z-0.672
N4580 X32.98 Y50.137 Z-0.753
N4585 X32.999 Y50.078 Z-0.824
N4590 X33.021 Y50.01 Z-0.885
N4595 X33.046 Y49.934 Z-0.935
N4600 X33.073 Y49.851 Z-0.971
N4605 X33.101 Y49.764 Z-0.993
N4610 X33.13 Y49.675 Z-1.
N4615 G3 X33.902 Y47.955 I8.321 J2.704
N4620 G1 X34.016 Y47.775
N4625 X34.111 Y47.596
N4630 X34.2 Y47.416
N4635 X34.254 Y47.288
N4640 X34.275 Y47.236
N4645 X34.333 Y47.056
N4650 X34.386 Y46.876
N4655 X34.409 Y46.777
N4660 X34.45 Y46.635
N4665 X34.507 Y46.482
N4670 X34.588 Y46.309
N4675 X34.695 Y46.122
N4680 X34.832 Y45.922
N4685 X35.006 Y45.707
N4690 X35.225 Y45.477
N4695 X35.493 Y45.237
N4700 X35.824 Y44.985
N4705 X36.186 Y44.754
N4710 X36.563 Y44.549
N4715 X36.952 Y44.367
N4720 X37.351 Y44.206
N4725 X37.756 Y44.064
N4730 X38.167 Y43.938
N4735 X38.581 Y43.826
N4740 X38.999 Y43.728
N4745 X39.42 Y43.64
N4750 X39.843 Y43.564
N4755 X40.267 Y43.496
N4760 X40.692 Y43.436
N4765 X41.118 Y43.383
N4770 X41.545 Y43.336
N4775 X41.973 Y43.295
N4780 X42.401 Y43.258
N4785 X42.829 Y43.226
N4790 X43.258 Y43.198
N4795 X43.687 Y43.173
N4800 X44.116 Y43.151
N4805 X44.545 Y43.132
N4810 X44.974 Y43.115
N4815 X45.403 Y43.1
N4820 X45.832 Y43.087
N4825 X46.262 Y43.076
N4830 X46.691 Y43.066
N4835 X47.121 Y43.057
N4840 X47.55 Y43.049
N4845 X47.98 Y43.042
N4850 X48.409 Y43.036
N4855 X48.838 Y43.031
N4860 X49.268 Y43.026
N4865 X49.698 Y43.022
N4870 X50.127 Y43.019
N4875 X50.557 Y43.016
N4880 X50.986 Y43.013
N4885 X51.416 Y43.011
N4890 X51.845 Y43.008
N4895 X52.275 Y43.007
N4900 X53.134 Y43.004
N4905 X53.993 Y43.001
N4910 X54.852 Y43.
N4915 X56.14 Y42.998
N4920 X57.429 Y42.997
N4925 X59.147 Y42.996
N4930 X61.724 Y42.995
N4935 X66.878 Y42.994
N4940 X67.308
N4945 X67.738 Y42.993
N4950 X68.165 Y42.954
N4955 X68.585 Y42.863
N4960 X68.989 Y42.718
N4965 X69.373 Y42.525
N4970 X69.732 Y42.289
N4975 X70.064 Y42.017
N4980 X70.37 Y41.715
N4985 X70.648 Y41.388
N4990 X70.901 Y41.041
N4995 X71.13 Y40.677
N5000 X71.336 Y40.3
N5005 X71.522 Y39.913
N5010 X71.688 Y39.517
N5015 X71.836 Y39.114
N5020 X71.968 Y38.705
N5025 X72.086 Y38.292
N5030 X72.191 Y37.876
N5035 X72.285 Y37.456
N5040 X72.367 Y37.035
N5045 X72.441 Y36.612
N5050 X72.506 Y36.187
N5055 X72.563 Y35.761
N5060 X72.614 Y35.335
N5065 X72.659 Y34.908
N5070 X72.699 Y34.48
N5075 X72.734 Y34.052
N5080 X72.765 Y33.624
N5085 X72.793 Y33.195
N5090 X72.817 Y32.766
N5095 X72.838 Y32.337
N5100 X72.857 Y31.908
N5105 X72.874 Y31.479
N5110 X72.888 Y31.049
N5115 X72.901 Y30.62
N5120 X72.912 Y30.191
N5125 X72.922 Y29.761
N5130 X72.931 Y29.332
N5135 X72.939 Y28.902
N5140 X72.945 Y28.473
N5145 X72.951 Y28.043
N5150 X72.957 Y27.614
N5155 X72.961 Y27.184
N5160 X72.965 Y26.755
N5165 X72.969 Y26.325
N5170 X72.972 Y25.896
N5175 X72.975 Y25.466
N5180 X72.977 Y25.037
N5185 X72.979 Y24.607
N5190 X72.981 Y24.178
N5195 X72.984 Y23.319
N5200 X72.986 Y22.46
N5205 X72.988 Y21.601
N5210 X72.99 Y20.312
N5215 X72.992 Y19.024
N5220 X72.993 Y17.305
N5225 X72.994 Y14.728
N5230 X72.993 Y14.299
N5235 X72.959 Y13.871
N5240 X72.872 Y13.45
N5245 X72.732 Y13.044
N5250 X72.543 Y12.659
N5255 X72.31 Y12.297
N5260 X72.041 Y11.963
N5265 X71.741 Y11.655
N5270 X71.416 Y11.374
N5275 X71.071 Y11.119
N5280 X70.708 Y10.888
N5285 X70.333 Y10.68
N5290 X69.946 Y10.493
N5295 X69.55 Y10.326
N5300 X69.148 Y10.176
N5305 X68.74 Y10.042
N5310 X68.327 Y9.923
N5315 X67.911 Y9.817
N5320 X67.492 Y9.723
N5325 X67.07 Y9.639
N5330 X66.647 Y9.565
N5335 X66.223 Y9.499
N5340 X65.797 Y9.441
N5345 X65.371 Y9.39
N5350 X64.944 Y9.344
N5355 X64.516 Y9.304
N5360 X64.088 Y9.268
N5365 X63.66 Y9.237
N5370 X63.231 Y9.209
N5375 X62.802 Y9.185
N5380 X62.373 Y9.163
N5385 X61.944 Y9.145
N5390 X61.515 Y9.128
N5395 X61.086 Y9.113
N5400 X60.656 Y9.1
N5405 X60.227 Y9.089
N5410 X59.797 Y9.079
N5415 X59.368 Y9.07
N5420 X58.939 Y9.062
N5425 X58.509 Y9.055
N5430 X58.08 Y9.049
N5435 X57.65 Y9.044
N5440 X57.221 Y9.039
N5445 X56.791 Y9.035
N5450 X56.362 Y9.032
N5455 X55.932 Y9.028
N5460 X55.503 Y9.026
N5465 X55.073 Y9.023
N5470 X54.644 Y9.021
N5475 X54.214 Y9.019
N5480 X53.784 Y9.018
N5485 X52.925 Y9.015
N5490 X52.066 Y9.013
N5495 X51.207 Y9.011
N5500 X49.919 Y9.009
N5505 X48.201 Y9.008
N5510 X46.053 Y9.007
N5515 X42.617 Y9.006
N5520 X40.469
N5525 X39.61
N5530 X39.181 Y9.005
N5535 X38.751 Y9.002
N5540 X38.322 Y8.996
N5545 X37.892 Y8.984
N5550 X37.463 Y8.964
N5555 X37.035 Y8.93
N5560 X36.609 Y8.877
N5565 X36.186 Y8.8
N5570 X35.77 Y8.695
N5575 X35.401 Y8.571
N5580 X35.351 Y8.55
N5585 X35.068 Y8.388
N5590 X34.83 Y8.165
N5595 X34.65 Y7.892
N5600 X34.538 Y7.586
N5605 X34.5 Y7.262
N5610 Y6.204
N5615 X34.499 Y6.024
N5620 G3 X35.117 Y5.442 I0.6 J0.018
N5625 X35.699 Y6.06 I-0.018 J0.6
N5630 G1 X35.696 Y6.154 Z-0.993
N5635 X35.693 Y6.245 Z-0.971
N5640 X35.69 Y6.332 Z-0.935
N5645 X35.688 Y6.412 Z-0.885
N5650 X35.686 Y6.484 Z-0.824
N5655 X35.684 Y6.545 Z-0.753
N5660 X35.683 Y6.594 Z-0.672
N5665 X35.682 Y6.63 Z-0.585
N5670 X35.681 Y6.652 Z-0.494
N5675 Y6.66 Z-0.4
N5680 G0 Z5.
N5685 X34.262 Y49.255
N5690 Z0.2
N5695 G1 Z-0.4 F100.
N5700 X34.261 Y49.247 Z-0.494
N5705 Y49.225 Z-0.585
N5710 X34.26 Y49.189 Z-0.672
N5715 X34.259 Y49.14 Z-0.753
N5720 X34.258 Y49.079 Z-0.824
N5725 X34.256 Y49.007 Z-0.885
N5730 X34.254 Y48.927 Z-0.935
N5735 X34.252 Y48.84 Z-0.971
N5740 X34.25 Y48.749 Z-0.993
N5745 X34.248 Y48.655 Z-1.
N5750 G3 X34.409 Y46.777 I8.747 J-0.196
N5755 G1 X34.434 Y46.669
N5760 X34.458 Y46.516
N5765 X34.482 Y46.336
N5770 X34.494 Y46.156
N5775 X34.499 Y45.976
N5780 X34.5 Y45.796
N5785 Y45.616
N5790 X34.511 Y45.393
N5795 X34.532 Y45.232
N5800 X34.569 Y45.06
N5805 X34.627 Y44.868
N5810 X34.706 Y44.664
N5815 X34.815 Y44.439
N5820 X34.953 Y44.205
N5825 X35.129 Y43.954
N5830 X35.35 Y43.689
N5835 X35.621 Y43.41
N5840 X35.945 Y43.128
N5845 X36.29 Y42.872
N5850 X36.651 Y42.64
N5855 X37.026 Y42.43
N5860 X37.412 Y42.241
N5865 X37.806 Y42.07
N5870 X38.207 Y41.916
N5875 X38.613 Y41.778
N5880 X39.024 Y41.653
N5885 X39.439 Y41.541
N5890 X39.856 Y41.44
N5895 X40.276 Y41.35
N5900 X40.698 Y41.269
N5905 X41.122 Y41.196
N5910 X41.546 Y41.131
N5915 X41.972 Y41.072
N5920 X42.398 Y41.02
N5925 X42.825 Y40.973
N5930 X43.252 Y40.931
N5935 X43.68 Y40.894
N5940 X44.109 Y40.861
N5945 X44.537 Y40.831
N5950 X44.966 Y40.804
N5955 X45.395 Y40.781
N5960 X45.824 Y40.76
N5965 X46.253 Y40.741
N5970 X46.682 Y40.724
N5975 X47.111 Y40.709
N5980 X47.541 Y40.696
N5985 X47.97 Y40.685
N5990 X48.399 Y40.674
N5995 X48.829 Y40.665
N6000 X49.258 Y40.657
N6005 X49.688 Y40.649
N6010 X50.117 Y40.643
N6015 X50.547 Y40.637
N6020 X50.976 Y40.632
N6025 X51.406 Y40.628
N6030 X51.835 Y40.624
N6035 X52.265 Y40.62
N6040 X52.694 Y40.617
N6045 X53.124 Y40.614
N6050 X53.553 Y40.612
N6055 X53.983 Y40.61
N6060 X54.412 Y40.608
N6065 X55.271 Y40.605
N6070 X56.13 Y40.602
N6075 X56.989 Y40.601
N6080 X58.278 Y40.599
N6085 X59.566 Y40.597
N6090 X61.285 Y40.596
N6095 X63.862 Y40.595
N6100 X64.721
N6105 X65.15 Y40.594
N6110 X65.579 Y40.565
N6115 X66.001 Y40.486
N6120 X66.41 Y40.355
N6125 X66.8 Y40.175
N6130 X67.167 Y39.952
N6135 X67.508 Y39.691
N6140 X67.823 Y39.399
N6145 X68.112 Y39.081
N6150 X68.374 Y38.741
N6155 X68.613 Y38.383
N6160 X68.828 Y38.012
N6165 X69.022 Y37.628
N6170 X69.196 Y37.236
N6175 X69.352 Y36.835
N6180 X69.491 Y36.429
N6185 X69.616 Y36.018
N6190 X69.727 Y35.603
N6195 X69.826 Y35.185
N6200 X69.914 Y34.765
N6205 X69.993 Y34.343
N6210 X70.062 Y33.919
N6215 X70.124 Y33.494
N6220 X70.179 Y33.068
N6225 X70.227 Y32.641
N6230 X70.27 Y32.213
N6235 X70.308 Y31.786
N6240 X70.342 Y31.357
N6245 X70.371 Y30.929
N6250 X70.398 Y30.5
N6255 X70.421 Y30.071
N6260 X70.441 Y29.642
N6265 X70.459 Y29.213
N6270 X70.475 Y28.784
N6275 X70.489 Y28.355
N6280 X70.502 Y27.925
N6285 X70.513 Y27.496
N6290 X70.523 Y27.066
N6295 X70.531 Y26.637
N6300 X70.539 Y26.208
N6305 X70.545 Y25.778
N6310 X70.551 Y25.349
N6315 X70.556 Y24.919
N6320 X70.561 Y24.49
N6325 X70.565 Y24.06
N6330 X70.568 Y23.631
N6335 X70.572 Y23.201
N6340 X70.574 Y22.772
N6345 X70.577 Y22.342
N6350 X70.579 Y21.913
N6355 X70.581 Y21.483
N6360 X70.584 Y20.624
N6365 X70.586 Y19.765
N6370 X70.588 Y18.906
N6375 X70.59 Y17.617
N6380 Y17.188
N6385 X70.588 Y16.758
N6390 X70.549 Y16.33
N6395 X70.46 Y15.91
N6400 X70.319 Y15.505
N6405 X70.129 Y15.119
N6410 X69.897 Y14.758
N6415 X69.629 Y14.422
N6420 X69.331 Y14.113
N6425 X69.008 Y13.83
N6430 X68.664 Y13.573
N6435 X68.303 Y13.339
N6440 X67.929 Y13.129
N6445 X67.544 Y12.939
N6450 X67.149 Y12.769
N6455 X66.748 Y12.617
N6460 X66.34 Y12.48
N6465 X65.928 Y12.359
N6470 X65.513 Y12.25
N6475 X65.094 Y12.154
N6480 X64.673 Y12.068
N6485 X64.251 Y11.992
N6490 X63.826 Y11.924
N6495 X63.401 Y11.864
N6500 X62.975 Y11.811
N6505 X62.548 Y11.763
N6510 X62.121 Y11.722
N6515 X61.693 Y11.685
N6520 X61.264 Y11.652
N6525 X60.836 Y11.623
N6530 X60.407 Y11.597
N6535 X59.978 Y11.575
N6540 X59.549 Y11.555
N6545 X59.12 Y11.537
N6550 X58.691 Y11.522
N6555 X58.261 Y11.508
N6560 X57.832 Y11.496
N6565 X57.403 Y11.485
N6570 X56.973 Y11.476
N6575 X56.544 Y11.467
N6580 X56.114 Y11.46
N6585 X55.685 Y11.453
N6590 X55.255 Y11.448
N6595 X54.826 Y11.443
N6600 X54.396 Y11.438
N6605 X53.967 Y11.434
N6610 X53.537 Y11.431
N6615 X53.108 Y11.428
N6620 X52.678 Y11.425
N6625 X52.249 Y11.423
N6630 X51.819 Y11.421
N6635 X51.39 Y11.419
N6640 X50.531 Y11.416
N6645 X49.672 Y11.414
N6650 X48.813 Y11.412
N6655 X47.524 Y11.41
N6660 X46.235 Y11.409
N6665 X44.517 Y11.407
N6670 X41.94 Y11.406
N6675 X41.511
N6680 X41.081 Y11.405
N6685 X40.652 Y11.403
N6690 X40.222 Y11.4
N6695 X39.793 Y11.394
N6700 X39.363 Y11.383
N6705 X38.934 Y11.368
N6710 X38.505 Y11.345
N6715 X38.077 Y11.313
N6720 X37.649 Y11.27
N6725 X37.223 Y11.215
N6730 X36.799 Y11.145
N6735 X36.379 Y11.056
N6740 X35.965 Y10.944
N6745 X35.559 Y10.804
N6750 X35.347 Y10.713
N6755 X35.065 Y10.551
N6760 X34.828 Y10.328
N6765 X34.649 Y10.056
N6770 X34.538 Y9.75
N6775 X34.5 Y9.427
N6780 Y7.262
N6785 G3 X35.7 Y7.289 I0.6 J0.021
N6790 X35.699 Y7.304 I-0.6 J-0.006
N6795 G1 X35.696 Y7.398 Z-0.993
N6800 X35.693 Y7.489 Z-0.971
N6805 X35.69 Y7.576 Z-0.935
N6810 X35.687 Y7.656 Z-0.885
N6815 X35.684 Y7.728 Z-0.824
N6820 X35.682 Y7.789 Z-0.753
N6825 X35.681 Y7.838 Z-0.672
N6830 X35.679 Y7.874 Z-0.585
N6835 Y7.896 Z-0.494
N6840 X35.678 Y7.904 Z-0.4
N6845 G0 Z5.
N6850 X34.917 Y48.063
N6855 Z0.2
N6860 G1 Z-0.4 F100.
N6865 X34.915 Y48.056 Z-0.494
N6870 X34.91 Y48.034 Z-0.585
N6875 X34.901 Y48. Z-0.672
N6880 X34.889 Y47.952 Z-0.753
N6885 X34.874 Y47.893 Z-0.824
N6890 X34.856 Y47.823 Z-0.885
N6895 X34.836 Y47.746 Z-0.935
N6900 X34.814 Y47.661 Z-0.971
N6905 X34.792 Y47.573 Z-0.993
N6910 X34.768 Y47.482 Z-1.
N6915 G3 X34.5 Y45.616 I8.476 J-2.171
N6920 G1 Y43.816
N6925 X34.51 Y43.607
N6930 X34.535 Y43.418
N6935 X34.577 Y43.222
N6940 X34.644 Y42.998
N6945 X34.735 Y42.765
N6950 X34.858 Y42.512
N6955 X35.018 Y42.239
N6960 X35.219 Y41.953
N6965 X35.468 Y41.654
N6970 X35.767 Y41.347
N6975 X36.091 Y41.064
N6980 X36.433 Y40.804
N6985 X36.79 Y40.566
N6990 X37.16 Y40.348
N6995 X37.541 Y40.148
N7000 X37.93 Y39.966
N7005 X38.326 Y39.8
N7010 X38.727 Y39.648
N7015 X39.134 Y39.51
N7020 X39.545 Y39.384
N7025 X39.959 Y39.269
N7030 X40.375 Y39.165
N7035 X40.794 Y39.071
N7040 X41.215 Y38.985
N7045 X41.638 Y38.907
N7050 X42.061 Y38.836
N7055 X42.486 Y38.772
N7060 X42.912 Y38.714
N7065 X43.338 Y38.662
N7070 X43.765 Y38.614
N7075 X44.192 Y38.572
N7080 X44.62 Y38.533
N7085 X45.048 Y38.498
N7090 X45.477 Y38.467
N7095 X45.905 Y38.438
N7100 X46.334 Y38.413
N7105 X46.763 Y38.39
N7110 X47.192 Y38.369
N7115 X47.621 Y38.351
N7120 X48.05 Y38.334
N7125 X48.479 Y38.319
N7130 X48.909 Y38.306
N7135 X49.338 Y38.294
N7140 X49.768 Y38.283
N7145 X50.197 Y38.273
N7150 X50.626 Y38.265
N7155 X51.056 Y38.257
N7160 X51.485 Y38.25
N7165 X51.915 Y38.244
N7170 X52.344 Y38.238
N7175 X52.774 Y38.233
N7180 X53.203 Y38.229
N7185 X53.633 Y38.225
N7190 X54.062 Y38.222
N7195 X54.492 Y38.219
N7200 X54.921 Y38.216
N7205 X55.351 Y38.213
N7210 X55.78 Y38.211
N7215 X56.21 Y38.209
N7220 X57.069 Y38.206
N7225 X57.928 Y38.203
N7230 X58.787 Y38.201
N7235 X60.076 Y38.199
N7240 X61.364 Y38.198
N7245 X62.223 Y38.197
N7250 X62.653 Y38.195
N7255 X63.081 Y38.168
N7260 X63.505 Y38.094
N7265 X63.915 Y37.969
N7270 X64.308 Y37.795
N7275 X64.679 Y37.578
N7280 X65.024 Y37.322
N7285 X65.343 Y37.035
N7290 X65.636 Y36.721
N7295 X65.904 Y36.385
N7300 X66.146 Y36.031
N7305 X66.366 Y35.662
N7310 X66.565 Y35.281
N7315 X66.743 Y34.89
N7320 X66.903 Y34.491
N7325 X67.047 Y34.086
N7330 X67.175 Y33.677
N7335 X67.29 Y33.263
N7340 X67.392 Y32.845
N7345 X67.483 Y32.426
N7350 X67.564 Y32.004
N7355 X67.636 Y31.58
N7360 X67.7 Y31.156
N7365 X67.757 Y30.73
N7370 X67.807 Y30.303
N7375 X67.852 Y29.876
N7380 X67.891 Y29.448
N7385 X67.926 Y29.02
N7390 X67.958 Y28.592
N7395 X67.985 Y28.163
N7400 X68.009 Y27.734
N7405 X68.031 Y27.305
N7410 X68.05 Y26.876
N7415 X68.067 Y26.447
N7420 X68.082 Y26.018
N7425 X68.095 Y25.589
N7430 X68.107 Y25.159
N7435 X68.117 Y24.73
N7440 X68.126 Y24.3
N7445 X68.134 Y23.871
N7450 X68.141 Y23.441
N7455 X68.147 Y23.012
N7460 X68.153 Y22.583
N7465 X68.158 Y22.153
N7470 X68.162 Y21.724
N7475 X68.166 Y21.294
N7480 X68.169 Y20.864
N7485 X68.172 Y20.435
N7490 X68.175 Y20.005
N7495 X68.177 Y19.576
N7500 X68.171 Y19.146
N7505 X68.125 Y18.719
N7510 X68.029 Y18.301
N7515 X67.881 Y17.898
N7520 X67.687 Y17.515
N7525 X67.451 Y17.155
N7530 X67.18 Y16.822
N7535 X66.88 Y16.515
N7540 X66.555 Y16.234
N7545 X66.21 Y15.978
N7550 X65.848 Y15.746
N7555 X65.473 Y15.537
N7560 X65.087 Y15.348
N7565 X64.693 Y15.178
N7570 X64.291 Y15.026
N7575 X63.884 Y14.89
N7580 X63.472 Y14.769
N7585 X63.056 Y14.66
N7590 X62.638 Y14.563
N7595 X62.217 Y14.477
N7600 X61.794 Y14.401
N7605 X61.37 Y14.333
N7610 X60.945 Y14.272
N7615 X60.519 Y14.219
N7620 X60.092 Y14.171
N7625 X59.664 Y14.129
N7630 X59.236 Y14.091
N7635 X58.808 Y14.058
N7640 X58.38 Y14.029
N7645 X57.951 Y14.003
N7650 X57.522 Y13.98
N7655 X57.093 Y13.96
N7660 X56.664 Y13.942
N7665 X56.235 Y13.926
N7670 X55.805 Y13.912
N7675 X55.376 Y13.899
N7680 X54.947 Y13.888
N7685 X54.517 Y13.879
N7690 X54.088 Y13.87
N7695 X53.658 Y13.862
N7700 X53.229 Y13.856
N7705 X52.799 Y13.85
N7710 X52.37 Y13.845
N7715 X51.94 Y13.84
N7720 X51.511 Y13.836
N7725 X51.081 Y13.832
N7730 X50.652 Y13.829
N7735 X50.222 Y13.826
N7740 X49.793 Y13.824
N7745 X49.363 Y13.822
N7750 X48.934 Y13.82
N7755 X48.075 Y13.817
N7760 X47.216 Y13.814
N7765 X46.357 Y13.812
N7770 X45.068 Y13.81
N7775 X43.779 Y13.809
N7780 X43.35 Y13.808
N7785 X42.92 Y13.807
N7790 X42.491 Y13.805
N7795 X42.061 Y13.803
N7800 X41.632 Y13.799
N7805 X41.202 Y13.793
N7810 X40.773 Y13.785
N7815 X40.344 Y13.773
N7820 X39.914 Y13.756
N7825 X39.485 Y13.734
N7830 X39.057 Y13.706
N7835 X38.629 Y13.67
N7840 X38.202 Y13.626
N7845 X37.775 Y13.571
N7850 X37.351 Y13.505
N7855 X36.929 Y13.425
N7860 X36.51 Y13.33
N7865 X36.096 Y13.215
N7870 X35.69 Y13.076
N7875 X35.294 Y12.91
N7880 X35.259 Y12.892
N7885 X35.004 Y12.723
N7890 X34.792 Y12.502
N7895 X34.632 Y12.241
N7900 X34.533 Y11.951
N7905 X34.5 Y11.647
N7910 Y9.427
N7915 G3 X35.7 Y9.454 I0.6 J0.021
N7920 X35.699 Y9.469 I-0.6 J-0.006
N7925 G1 X35.696 Y9.563 Z-0.993
N7930 X35.693 Y9.654 Z-0.971
N7935 X35.69 Y9.741 Z-0.935
N7940 X35.687 Y9.821 Z-0.885
N7945 X35.684 Y9.893 Z-0.824
N7950 X35.682 Y9.954 Z-0.753
N7955 X35.681 Y10.003 Z-0.672
N7960 X35.679 Y10.039 Z-0.585
N7965 Y10.061 Z-0.494
N7970 X35.678 Y10.068 Z-0.4
N7975 G0 Z5.
N7980 X35.338 Y46.141
N7985 Z0.2
N7990 G1 Z-0.4 F100.
N7995 X35.334 Y46.134 Z-0.494
N8000 X35.323 Y46.115 Z-0.585
N8005 X35.304 Y46.084 Z-0.672
N8010 X35.279 Y46.042 Z-0.753
N8015 X35.248 Y45.99 Z-0.824
N8020 X35.211 Y45.928 Z-0.885
N8025 X35.17 Y45.859 Z-0.935
N8030 X35.126 Y45.784 Z-0.971
N8035 X35.079 Y45.706 Z-0.993
N8040 X35.031 Y45.625 Z-1.
N8045 G3 X34.5 Y43.816 I3.265 J-1.941
N8050 G1 Y41.837
N8055 X34.509 Y41.652
N8060 X34.535 Y41.457
N8065 X34.581 Y41.242
N8070 X34.652 Y41.004
N8075 X34.749 Y40.755
N8080 X34.882 Y40.482
N8085 X35.054 Y40.189
N8090 X35.27 Y39.881
N8095 X35.539 Y39.557
N8100 X35.839 Y39.25
N8105 X36.16 Y38.965
N8110 X36.5 Y38.702
N8115 X36.853 Y38.458
N8120 X37.22 Y38.233
N8125 X37.596 Y38.026
N8130 X37.981 Y37.836
N8135 X38.373 Y37.66
N8140 X38.771 Y37.498
N8145 X39.174 Y37.35
N8150 X39.581 Y37.213
N8155 X39.992 Y37.088
N8160 X40.405 Y36.973
N8165 X40.822 Y36.867
N8170 X41.24 Y36.77
N8175 X41.661 Y36.682
N8180 X42.082 Y36.601
N8185 X42.506 Y36.527
N8190 X42.93 Y36.459
N8195 X43.355 Y36.397
N8200 X43.781 Y36.341
N8205 X44.207 Y36.289
N8210 X44.634 Y36.242
N8215 X45.061 Y36.2
N8220 X45.489 Y36.161
N8225 X45.917 Y36.125
N8230 X46.345 Y36.093
N8235 X46.774 Y36.064
N8240 X47.203 Y36.038
N8245 X47.632 Y36.014
N8250 X48.061 Y35.992
N8255 X48.49 Y35.972
N8260 X48.919 Y35.955
N8265 X49.348 Y35.938
N8270 X49.777 Y35.924
N8275 X50.207 Y35.911
N8280 X50.636 Y35.899
N8285 X51.065 Y35.888
N8290 X51.495 Y35.878
N8295 X51.924 Y35.87
N8300 X52.354 Y35.862
N8305 X52.783 Y35.855
N8310 X53.213 Y35.849
N8315 X53.642 Y35.843
N8320 X54.072 Y35.838
N8325 X54.501 Y35.833
N8330 X54.931 Y35.829
N8335 X55.36 Y35.825
N8340 X55.79 Y35.822
N8345 X56.219 Y35.819
N8350 X56.649 Y35.816
N8355 X57.078 Y35.814
N8360 X57.508 Y35.812
N8365 X57.937 Y35.81
N8370 X58.796 Y35.807
N8375 X59.655 Y35.804
N8380 X60.085 Y35.802
N8385 X60.514 Y35.785
N8390 X60.939 Y35.726
N8395 X61.355 Y35.616
N8400 X61.754 Y35.457
N8405 X62.132 Y35.253
N8410 X62.486 Y35.01
N8415 X62.814 Y34.733
N8420 X63.116 Y34.428
N8425 X63.393 Y34.099
N8430 X63.644 Y33.751
N8435 X63.873 Y33.387
N8440 X64.079 Y33.01
N8445 X64.265 Y32.623
N8450 X64.432 Y32.227
N8455 X64.582 Y31.825
N8460 X64.716 Y31.417
N8465 X64.836 Y31.004
N8470 X64.943 Y30.588
N8475 X65.039 Y30.17
N8480 X65.124 Y29.749
N8485 X65.2 Y29.326
N8490 X65.268 Y28.902
N8495 X65.327 Y28.476
N8500 X65.381 Y28.05
N8505 X65.428 Y27.623
N8510 X65.47 Y27.196
N8515 X65.507 Y26.768
N8520 X65.54 Y26.34
N8525 X65.57 Y25.911
N8530 X65.596 Y25.482
N8535 X65.618 Y25.054
N8540 X65.639 Y24.624
N8545 X65.657 Y24.195
N8550 X65.673 Y23.766
N8555 X65.687 Y23.337
N8560 X65.699 Y22.907
N8565 X65.71 Y22.478
N8570 X65.72 Y22.049
N8575 X65.721 Y21.619
N8580 X65.683 Y21.191
N8585 X65.595 Y20.771
N8590 X65.454 Y20.365
N8595 X65.266 Y19.979
N8600 X65.036 Y19.616
N8605 X64.77 Y19.279
N8610 X64.473 Y18.968
N8615 X64.152 Y18.684
N8620 X63.809 Y18.424
N8625 X63.45 Y18.189
N8630 X63.077 Y17.976
N8635 X62.693 Y17.784
N8640 X62.299 Y17.612
N8645 X61.899 Y17.457
N8650 X61.492 Y17.318
N8655 X61.081 Y17.194
N8660 X60.666 Y17.084
N8665 X60.248 Y16.985
N8670 X59.827 Y16.897
N8675 X59.405 Y16.819
N8680 X58.981 Y16.749
N8685 X58.556 Y16.687
N8690 X58.13 Y16.632
N8695 X57.703 Y16.583
N8700 X57.276 Y16.54
N8705 X56.848 Y16.502
N8710 X56.42 Y16.467
N8715 X55.992 Y16.437
N8720 X55.563 Y16.411
N8725 X55.134 Y16.387
N8730 X54.705 Y16.366
N8735 X54.276 Y16.347
N8740 X53.847 Y16.331
N8745 X53.418 Y16.316
N8750 X52.988 Y16.303
N8755 X52.559 Y16.292
N8760 X52.129 Y16.282
N8765 X51.7 Y16.273
N8770 X51.271 Y16.265
N8775 X50.841 Y16.258
N8780 X50.412 Y16.252
N8785 X49.982 Y16.247
N8790 X49.553 Y16.242
N8795 X49.123 Y16.238
N8800 X48.694 Y16.234
N8805 X48.264 Y16.231
N8810 X47.835 Y16.228
N8815 X47.405 Y16.225
N8820 X46.975 Y16.223
N8825 X46.546 Y16.221
N8830 X45.687 Y16.217
N8835 X44.828 Y16.214
N8840 X44.398 Y16.212
N8845 X43.969 Y16.21
N8850 X43.539 Y16.207
N8855 X43.11 Y16.203
N8860 X42.68 Y16.198
N8865 X42.251 Y16.191
N8870 X41.821 Y16.182
N8875 X41.392 Y16.17
N8880 X40.963 Y16.155
N8885 X40.534 Y16.135
N8890 X40.105 Y16.111
N8895 X39.676 Y16.081
N8900 X39.248 Y16.045
N8905 X38.821 Y16.003
N8910 X38.394 Y15.952
N8915 X37.969 Y15.892
N8920 X37.545 Y15.821
N8925 X37.124 Y15.739
N8930 X36.705 Y15.644
N8935 X36.29 Y15.533
N8940 X35.882 Y15.4
N8945 X35.482 Y15.244
N8950 X35.297 Y15.155
N8955 X35.03 Y14.989
N8960 X34.807 Y14.767
N8965 X34.639 Y14.501
N8970 X34.535 Y14.205
N8975 X34.5 Y13.892
N8980 Y11.647
N8985 G3 X35.7 Y11.674 I0.6 J0.021
N8990 X35.699 Y11.689 I-0.6 J-0.006
N8995 G1 X35.696 Y11.783 Z-0.993
N9000 X35.693 Y11.874 Z-0.971
N9005 X35.69 Y11.961 Z-0.935
N9010 X35.687 Y12.041 Z-0.885
N9015 X35.684 Y12.113 Z-0.824
N9020 X35.682 Y12.174 Z-0.753
N9025 X35.681 Y12.223 Z-0.672
N9030 X35.679 Y12.259 Z-0.585
N9035 Y12.281 Z-0.494
N9040 X35.678 Y12.289 Z-0.4
N9045 G0 Z5.
N9050 X35.338 Y44.161
N9055 Z0.2
N9060 G1 Z-0.4 F100.
N9065 X35.334 Y44.155 Z-0.494
N9070 X35.323 Y44.136 Z-0.585
N9075 X35.304 Y44.105 Z-0.672
N9080 X35.279 Y44.063 Z-0.753
N9085 X35.248 Y44.01 Z-0.824
N9090 X35.211 Y43.948 Z-0.885
N9095 X35.17 Y43.879 Z-0.935
N9100 X35.126 Y43.805 Z-0.971
N9105 X35.079 Y43.726 Z-0.993
N9110 X35.031 Y43.645 Z-1.
N9115 G3 X34.5 Y41.837 I3.265 J-1.941
N9120 G1 Y39.857
N9125 X34.513 Y39.604
N9130 X34.539 Y39.404
N9135 X34.587 Y39.179
N9140 X34.661 Y38.933
N9145 X34.762 Y38.672
N9150 X34.901 Y38.387
N9155 X35.081 Y38.08
N9160 X35.309 Y37.756
N9165 X35.583 Y37.426
N9170 X35.882 Y37.118
N9175 X36.202 Y36.831
N9180 X36.539 Y36.564
N9185 X36.89 Y36.316
N9190 X37.253 Y36.087
N9195 X37.626 Y35.874
N9200 X38.007 Y35.676
N9205 X38.396 Y35.494
N9210 X38.791 Y35.324
N9215 X39.191 Y35.168
N9220 X39.595 Y35.023
N9225 X40.003 Y34.889
N9230 X40.415 Y34.766
N9235 X40.829 Y34.652
N9240 X41.245 Y34.546
N9245 X41.663 Y34.449
N9250 X42.084 Y34.36
N9255 X42.505 Y34.277
N9260 X42.928 Y34.201
N9265 X43.352 Y34.131
N9270 X43.776 Y34.067
N9275 X44.202 Y34.008
N9280 X44.628 Y33.954
N9285 X45.054 Y33.904
N9290 X45.482 Y33.859
N9295 X45.909 Y33.817
N9300 X46.337 Y33.779
N9305 X46.765 Y33.744
N9310 X47.193 Y33.712
N9315 X47.622 Y33.682
N9320 X48.051 Y33.656
N9325 X48.479 Y33.631
N9330 X48.908 Y33.609
N9335 X49.337 Y33.589
N9340 X49.767 Y33.571
N9345 X50.196 Y33.554
N9350 X50.625 Y33.538
N9355 X51.054 Y33.525
N9360 X51.484 Y33.512
N9365 X51.913 Y33.501
N9370 X52.342 Y33.49
N9375 X52.772 Y33.481
N9380 X53.201 Y33.472
N9385 X53.631 Y33.465
N9390 X54.06 Y33.458
N9395 X54.49 Y33.451
N9400 X54.919 Y33.446
N9405 X55.349 Y33.44
N9410 X55.778 Y33.436
N9415 X56.208 Y33.431
N9420 X56.637 Y33.428
N9425 X57.067 Y33.424
N9430 X57.496 Y33.421
N9435 X57.926 Y33.412
N9440 X58.353 Y33.368
N9445 X58.773 Y33.276
N9450 X59.178 Y33.135
N9455 X59.565 Y32.948
N9460 X59.928 Y32.719
N9465 X60.267 Y32.455
N9470 X60.58 Y32.161
N9475 X60.867 Y31.841
N9480 X61.129 Y31.501
N9485 X61.367 Y31.143
N9490 X61.582 Y30.772
N9495 X61.777 Y30.389
N9500 X61.952 Y29.997
N9505 X62.109 Y29.597
N9510 X62.251 Y29.191
N9515 X62.377 Y28.781
N9520 X62.49 Y28.366
N9525 X62.591 Y27.949
N9530 X62.681 Y27.529
N9535 X62.761 Y27.107
N9540 X62.832 Y26.683
N9545 X62.896 Y26.259
N9550 X62.952 Y25.833
N9555 X63.003 Y25.406
N9560 X63.047 Y24.979
N9565 X63.087 Y24.551
N9570 X63.117 Y24.123
N9575 X63.108 Y23.693
N9580 X63.044 Y23.269
N9585 X62.924 Y22.856
N9590 X62.752 Y22.463
N9595 X62.534 Y22.092
N9600 X62.278 Y21.748
N9605 X61.989 Y21.43
N9610 X61.673 Y21.138
N9615 X61.336 Y20.873
N9620 X60.98 Y20.632
N9625 X60.61 Y20.414
N9630 X60.228 Y20.218
N9635 X59.836 Y20.042
N9640 X59.437 Y19.883
N9645 X59.031 Y19.742
N9650 X58.621 Y19.615
N9655 X58.207 Y19.502
N9660 X57.789 Y19.401
N9665 X57.369 Y19.311
N9670 X56.947 Y19.232
N9675 X56.523 Y19.161
N9680 X56.099 Y19.097
N9685 X55.673 Y19.041
N9690 X55.246 Y18.991
N9695 X54.819 Y18.947
N9700 X54.391 Y18.908
N9705 X53.963 Y18.873
N9710 X53.535 Y18.843
N9715 X53.106 Y18.815
N9720 X52.677 Y18.791
N9725 X52.248 Y18.77
N9730 X51.819 Y18.751
N9735 X51.39 Y18.734
N9740 X50.96 Y18.719
N9745 X50.531 Y18.706
N9750 X50.102 Y18.694
N9755 X49.672 Y18.684
N9760 X49.243 Y18.675
N9765 X48.813 Y18.667
N9770 X48.384 Y18.66
N9775 X47.955 Y18.653
N9780 X47.525 Y18.648
N9785 X47.096 Y18.643
N9790 X46.666 Y18.638
N9795 X45.378 Y18.625
N9800 X44.948 Y18.621
N9805 X44.519 Y18.616
N9810 X44.089 Y18.61
N9815 X43.66 Y18.603
N9820 X43.23 Y18.595
N9825 X42.801 Y18.585
N9830 X42.371 Y18.572
N9835 X41.942 Y18.557
N9840 X41.513 Y18.539
N9845 X41.084 Y18.518
N9850 X40.655 Y18.492
N9855 X40.227 Y18.461
N9860 X39.799 Y18.425
N9865 X39.371 Y18.383
N9870 X38.945 Y18.335
N9875 X38.519 Y18.279
N9880 X38.094 Y18.215
N9885 X37.671 Y18.141
N9890 X37.25 Y18.056
N9895 X36.831 Y17.959
N9900 X36.416 Y17.848
N9905 X36.007 Y17.718
N9910 X35.605 Y17.566
N9915 X35.316 Y17.433
N9920 X35.044 Y17.268
N9925 X34.815 Y17.046
N9930 X34.643 Y16.778
N9935 X34.536 Y16.477
N9940 X34.5 Y16.161
N9945 Y13.892
N9950 G3 X35.7 Y13.919 I0.6 J0.021
N9955 X35.699 Y13.934 I-0.6 J-0.006
N9960 G1 X35.696 Y14.028 Z-0.993
N9965 X35.693 Y14.119 Z-0.971
N9970 X35.69 Y14.206 Z-0.935
N9975 X35.687 Y14.286 Z-0.885
N9980 X35.684 Y14.358 Z-0.824
N9985 X35.682 Y14.419 Z-0.753
N9990 X35.681 Y14.468 Z-0.672
N9995 X35.679 Y14.504 Z-0.585
N10000 Y14.526 Z-0.494
N10005 X35.678 Y14.534 Z-0.4
N10010 G0 Z5.
N10015 X35.338 Y42.181
N10020 Z0.2
N10025 G1 Z-0.4 F100.
N10030 X35.334 Y42.175 Z-0.494
N10035 X35.323 Y42.156 Z-0.585
N10040 X35.304 Y42.125 Z-0.672
N10045 X35.279 Y42.083 Z-0.753
N10050 X35.248 Y42.03 Z-0.824
N10055 X35.211 Y41.969 Z-0.885
N10060 X35.17 Y41.9 Z-0.935
N10065 X35.126 Y41.825 Z-0.971
N10070 X35.079 Y41.746 Z-0.993
N10075 X35.031 Y41.666 Z-1.
N10080 G3 X34.5 Y39.857 I3.265 J-1.941
N10085 G1 Y37.698
N10090 X34.51 Y37.506
N10095 X34.537 Y37.3
N10100 X34.586 Y37.068
N10105 X34.662 Y36.815
N10110 X34.767 Y36.546
N10115 X34.91 Y36.251
N10120 X35.096 Y35.935
N10125 X35.332 Y35.598
N10130 X35.607 Y35.268
N10135 X35.905 Y34.959
N10140 X36.223 Y34.67
N10145 X36.557 Y34.401
N10150 X36.906 Y34.15
N10155 X37.266 Y33.916
N10160 X37.637 Y33.698
N10165 X38.015 Y33.496
N10170 X38.401 Y33.307
N10175 X38.793 Y33.132
N10180 X39.191 Y32.969
N10185 X39.593 Y32.818
N10190 X39.999 Y32.677
N10195 X40.408 Y32.547
N10200 X40.82 Y32.425
N10205 X41.235 Y32.313
N10210 X41.651 Y32.209
N10215 X42.07 Y32.112
N10220 X42.49 Y32.022
N10225 X42.911 Y31.939
N10230 X43.334 Y31.863
N10235 X43.758 Y31.792
N10240 X44.182 Y31.726
N10245 X44.607 Y31.665
N10250 X45.033 Y31.61
N10255 X45.46 Y31.558
N10260 X45.886 Y31.51
N10265 X46.314 Y31.466
N10270 X46.741 Y31.426
N10275 X47.169 Y31.389
N10280 X47.597 Y31.355
N10285 X48.026 Y31.323
N10290 X48.454 Y31.295
N10295 X48.883 Y31.268
N10300 X49.312 Y31.244
N10305 X49.741 Y31.222
N10310 X50.17 Y31.201
N10315 X50.599 Y31.183
N10320 X51.028 Y31.165
N10325 X51.457 Y31.15
N10330 X51.887 Y31.136
N10335 X52.316 Y31.123
N10340 X52.745 Y31.111
N10345 X53.175 Y31.1
N10350 X53.604 Y31.09
N10355 X54.034 Y31.081
N10360 X54.463 Y31.073
N10365 X54.893 Y31.065
N10370 X55.322 Y31.057
N10375 X55.75 Y31.027
N10380 X56.174 Y30.954
N10385 X56.586 Y30.833
N10390 X56.981 Y30.664
N10395 X57.354 Y30.452
N10400 X57.704 Y30.203
N10405 X58.028 Y29.921
N10410 X58.327 Y29.612
N10415 X58.6 Y29.281
N10420 X58.849 Y28.931
N10425 X59.075 Y28.565
N10430 X59.279 Y28.187
N10435 X59.463 Y27.799
N10440 X59.629 Y27.403
N10445 X59.778 Y27.
N10450 X59.91 Y26.592
N10455 X59.995 Y26.17
N10460 X60.003 Y25.741
N10465 X59.935 Y25.317
N10470 X59.8 Y24.909
N10475 X59.608 Y24.525
N10480 X59.37 Y24.168
N10485 X59.093 Y23.839
N10490 X58.786 Y23.539
N10495 X58.454 Y23.266
N10500 X58.102 Y23.02
N10505 X57.734 Y22.798
N10510 X57.354 Y22.599
N10515 X56.963 Y22.42
N10520 X56.564 Y22.261
N10525 X56.159 Y22.119
N10530 X55.748 Y21.992
N10535 X55.334 Y21.88
N10540 X54.916 Y21.779
N10545 X54.496 Y21.691
N10550 X54.074 Y21.612
N10555 X53.65 Y21.542
N10560 X53.225 Y21.48
N10565 X52.799 Y21.425
N10570 X52.372 Y21.376
N10575 X51.945 Y21.333
N10580 X51.517 Y21.295
N10585 X51.089 Y21.261
N10590 X50.66 Y21.232
N10595 X50.232 Y21.205
N10600 X49.803 Y21.182
N10605 X49.374 Y21.161
N10610 X48.945 Y21.143
N10615 X48.515 Y21.127
N10620 X48.086 Y21.112
N10625 X47.657 Y21.099
N10630 X47.227 Y21.088
N10635 X46.798 Y21.077
N10640 X46.369 Y21.066
N10645 X45.08 Y21.037
N10650 X44.651 Y21.027
N10655 X44.222 Y21.015
N10660 X43.792 Y21.003
N10665 X43.363 Y20.989
N10670 X42.934 Y20.974
N10675 X42.505 Y20.956
N10680 X42.076 Y20.935
N10685 X41.647 Y20.911
N10690 X41.218 Y20.884
N10695 X40.79 Y20.853
N10700 X40.362 Y20.817
N10705 X39.934 Y20.776
N10710 X39.507 Y20.73
N10715 X39.081 Y20.677
N10720 X38.655 Y20.618
N10725 X38.231 Y20.551
N10730 X37.808 Y20.475
N10735 X37.388 Y20.388
N10740 X36.969 Y20.291
N10745 X36.554 Y20.181
N10750 X36.144 Y20.053
N10755 X35.74 Y19.907
N10760 X35.347 Y19.735
N10765 X35.253 Y19.686
N10770 X34.999 Y19.516
N10775 X34.789 Y19.296
N10780 X34.631 Y19.036
N10785 X34.533 Y18.747
N10790 X34.5 Y18.444
N10795 Y16.161
N10800 G3 X35.7 Y16.188 I0.6 J0.021
N10805 X35.699 Y16.203 I-0.6 J-0.006
N10810 G1 X35.696 Y16.296 Z-0.993
N10815 X35.693 Y16.388 Z-0.971
N10820 X35.69 Y16.475 Z-0.935
N10825 X35.687 Y16.555 Z-0.885
N10830 X35.684 Y16.627 Z-0.824
N10835 X35.682 Y16.688 Z-0.753
N10840 X35.681 Y16.737 Z-0.672
N10845 X35.679 Y16.773 Z-0.585
N10850 Y16.795 Z-0.494
N10855 X35.678 Y16.802 Z-0.4
N10860 G0 Z5.
N10865 X35.338 Y40.022
N10870 Z0.2
N10875 G1 Z-0.4 F100.
N10880 X35.334 Y40.016 Z-0.494
N10885 X35.323 Y39.997 Z-0.585
N10890 X35.304 Y39.966 Z-0.672
N10895 X35.279 Y39.923 Z-0.753
N10900 X35.248 Y39.871 Z-0.824
N10905 X35.211 Y39.809 Z-0.885
N10910 X35.17 Y39.74 Z-0.935
N10915 X35.126 Y39.666 Z-0.971
N10920 X35.079 Y39.587 Z-0.993
N10925 X35.031 Y39.506 Z-1.
N10930 G3 X34.5 Y37.698 I3.265 J-1.941
N10935 G1 Y35.538
N10940 X34.509 Y35.363
N10945 X34.51 Y35.333
N10950 X34.513 Y35.303
N10955 X34.515 Y35.273
N10960 X34.518 Y35.243
N10965 X34.521 Y35.214
N10970 X34.525 Y35.184
N10975 X34.528 Y35.154
N10980 X34.533 Y35.124
N10985 X34.537 Y35.095
N10990 X34.542 Y35.065
N10995 X34.547 Y35.036
N11000 X34.553 Y35.006
N11005 X34.558 Y34.977
N11010 X34.564 Y34.947
N11015 X34.571 Y34.918
N11020 X34.577 Y34.889
N11025 X34.584 Y34.859
N11030 X34.591 Y34.83
N11035 X34.599 Y34.801
N11040 X34.607 Y34.772
N11045 X34.615 Y34.743
N11050 X34.623 Y34.715
N11055 X34.631 Y34.686
N11060 X34.64 Y34.657
N11065 X34.649 Y34.628
N11070 X34.658 Y34.6
N11075 X34.668 Y34.571
N11080 X34.678 Y34.543
N11085 X34.688 Y34.515
N11090 X34.698 Y34.487
N11095 X34.708 Y34.459
N11100 X34.719 Y34.43
N11105 X34.73 Y34.403
N11110 X34.741 Y34.375
N11115 X34.753 Y34.347
N11120 X34.764 Y34.319
N11125 X34.776 Y34.292
N11130 X34.788 Y34.264
N11135 X34.8 Y34.237
N11140 X34.813 Y34.209
N11145 X34.825 Y34.182
N11150 X34.838 Y34.155
N11155 X34.851 Y34.128
N11160 X34.865 Y34.101
N11165 X34.878 Y34.073
N11170 X34.893 Y34.045
N11175 X34.907 Y34.017
N11180 X34.923 Y33.988
N11185 X34.938 Y33.959
N11190 X34.954 Y33.929
N11195 X34.971 Y33.899
N11200 X34.988 Y33.869
N11205 X35.005 Y33.839
N11210 X35.022 Y33.81
N11215 X35.04 Y33.781
N11220 X35.057 Y33.752
N11225 X35.075 Y33.722
N11230 X35.094 Y33.692
N11235 X35.113 Y33.662
N11240 X35.133 Y33.631
N11245 X35.154 Y33.6
N11250 X35.175 Y33.568
N11255 X35.197 Y33.536
N11260 X35.219 Y33.504
N11265 X35.242 Y33.472
N11270 X35.264 Y33.44
N11275 X35.286 Y33.41
N11280 X35.309 Y33.378
N11285 X35.332 Y33.347
N11290 X35.357 Y33.314
N11295 X35.382 Y33.282
N11300 X35.407 Y33.249
N11305 X35.434 Y33.215
N11310 X35.461 Y33.181
N11315 X35.489 Y33.147
N11320 X35.518 Y33.113
N11325 X35.545 Y33.08
N11330 X35.573 Y33.047
N11335 X35.602 Y33.014
N11340 X35.631 Y32.98
N11345 X35.662 Y32.946
N11350 X35.693 Y32.911
N11355 X35.725 Y32.876
N11360 X35.759 Y32.84
N11365 X35.793 Y32.804
N11370 X35.827 Y32.768
N11375 X35.86 Y32.734
N11380 X35.895 Y32.7
N11385 X35.93 Y32.665
N11390 X35.966 Y32.629
N11395 X36.003 Y32.593
N11400 X36.041 Y32.556
N11405 X36.081 Y32.519
N11410 X36.121 Y32.482
N11415 X36.162 Y32.445
N11420 X36.201 Y32.409
N11425 X36.242 Y32.373
N11430 X36.284 Y32.336
N11435 X36.327 Y32.299
N11440 X36.371 Y32.262
N11445 X36.417 Y32.223
N11450 X36.465 Y32.184
N11455 X36.512 Y32.146
N11460 X36.558 Y32.109
N11465 X36.605 Y32.072
N11470 X36.654 Y32.034
N11475 X36.704 Y31.995
N11480 X36.756 Y31.956
N11485 X36.81 Y31.917
N11490 X36.865 Y31.877
N11495 X36.918 Y31.839
N11500 X36.972 Y31.801
N11505 X37.027 Y31.762
N11510 X37.085 Y31.722
N11515 X37.145 Y31.682
N11520 X37.206 Y31.641
N11525 X37.267 Y31.601
N11530 X37.328 Y31.562
N11535 X37.39 Y31.523
N11540 X37.454 Y31.483
N11545 X37.521 Y31.442
N11550 X37.59 Y31.4
N11555 X37.659 Y31.359
N11560 X37.727 Y31.32
N11565 X37.797 Y31.28
N11570 X37.87 Y31.239
N11575 X37.945 Y31.197
N11580 X38.024 Y31.154
N11585 X38.099 Y31.114
N11590 X38.176 Y31.073
N11595 X38.256 Y31.032
N11600 X38.339 Y30.99
N11605 X38.426 Y30.947
N11610 X38.51 Y30.906
N11615 X38.595 Y30.865
N11620 X38.685 Y30.823
N11625 X38.777 Y30.78
N11630 X38.873 Y30.737
N11635 X38.965 Y30.696
N11640 X39.061 Y30.654
N11645 X39.162 Y30.612
N11650 X39.266 Y30.568
N11655 X39.368 Y30.526
N11660 X39.473 Y30.484
N11665 X39.582 Y30.441
N11670 X39.697 Y30.397
N11675 X39.808 Y30.356
N11680 X39.923 Y30.313
N11685 X40.045 Y30.27
N11690 X40.169 Y30.226
N11695 X40.291 Y30.185
N11700 X40.42 Y30.141
N11705 X40.556 Y30.097
N11710 X40.688 Y30.055
N11715 X40.826 Y30.013
N11720 X40.973 Y29.968
N11725 X41.116 Y29.926
N11730 X41.266 Y29.883
N11735 X41.425 Y29.839
N11740 X41.581 Y29.797
N11745 X41.746 Y29.754
N11750 X41.917 Y29.711
N11755 X42.088 Y29.668
N11760 X42.272 Y29.625
N11765 X42.454 Y29.583
N11770 X42.647 Y29.539
N11775 X42.846 Y29.497
N11780 X43.051 Y29.454
N11785 X43.264 Y29.411
N11790 X43.484 Y29.369
N11795 X43.714 Y29.327
N11800 X43.953 Y29.284
N11805 X44.201 Y29.242
N11810 X44.463 Y29.2
N11815 X44.73 Y29.158
N11820 X45.016 Y29.116
N11825 X45.315 Y29.075
N11830 X45.625 Y29.033
N11835 X45.956 Y28.992
N11840 X46.307 Y28.951
N11845 X46.681 Y28.91
N11850 X47.075 Y28.87
N11855 X47.499 Y28.829
N11860 X47.926 Y28.792
N11865 X48.355 Y28.757
N11870 X48.783 Y28.725
N11875 X49.211 Y28.696
N11880 X49.64 Y28.669
N11885 X50.069 Y28.644
N11890 X50.498 Y28.622
N11895 X50.927 Y28.601
N11900 X51.356 Y28.581
N11905 X51.785 Y28.564
N11910 X52.214 Y28.547
N11915 X52.644 Y28.532
N11920 X53.073 Y28.51
N11925 X53.498 Y28.453
N11930 X53.915 Y28.348
N11935 X54.316 Y28.193
N11940 X54.696 Y27.993
N11945 X54.873 Y27.873
N11950 X55.031 Y27.727
N11955 X55.164 Y27.558
N11960 X55.27 Y27.372
N11965 X55.346 Y27.171
N11970 X55.391 Y26.961
N11975 X55.402 Y26.746
N11980 X55.381 Y26.532
N11985 X55.328 Y26.324
N11990 X55.243 Y26.127
N11995 X55.129 Y25.945
N12000 X54.848 Y25.62
N12005 X54.484 Y25.392
N12010 X54.106 Y25.189
N12015 X53.716 Y25.008
N12020 X53.318 Y24.847
N12025 X52.913 Y24.704
N12030 X52.502 Y24.578
N12035 X52.088 Y24.466
N12040 X51.67 Y24.367
N12045 X51.249 Y24.279
N12050 X50.827 Y24.201
N12055 X50.403 Y24.133
N12060 X49.978 Y24.072
N12065 X49.551 Y24.019
N12070 X49.125 Y23.971
N12075 X48.697 Y23.929
N12080 X48.269 Y23.892
N12085 X47.841 Y23.858
N12090 X47.412 Y23.828
N12095 X46.984 Y23.801
N12100 X46.555 Y23.775
N12105 X46.126 Y23.752
N12110 X45.697 Y23.73
N12115 X45.268 Y23.709
N12120 X44.41 Y23.667
N12125 X43.981 Y23.646
N12130 X43.552 Y23.624
N12135 X43.123 Y23.6
N12140 X42.695 Y23.575
N12145 X42.266 Y23.547
N12150 X41.837 Y23.517
N12155 X41.623 Y23.501
N12160 X41.249 Y23.47
N12165 X40.927 Y23.442
N12170 X40.616 Y23.412
N12175 X40.332 Y23.383
N12180 X40.076 Y23.354
N12185 X39.823 Y23.325
N12190 X39.597 Y23.296
N12195 X39.375 Y23.267
N12200 X39.163 Y23.237
N12205 X38.975 Y23.209
N12210 X38.774 Y23.178
N12215 X38.607 Y23.151
N12220 X38.448 Y23.123
N12225 X38.279 Y23.093
N12230 X38.124 Y23.065
N12235 X37.991 Y23.039
N12240 X37.851 Y23.011
N12245 X37.705 Y22.98
N12250 X37.574 Y22.952
N12255 X37.465 Y22.927
N12260 X37.354 Y22.902
N12265 X37.238 Y22.874
N12270 X37.118 Y22.844
N12275 X37.007 Y22.816
N12280 X36.912 Y22.791
N12285 X36.819 Y22.766
N12290 X36.732 Y22.742
N12295 X36.654 Y22.719
N12300 X36.582 Y22.698
N12305 X36.515 Y22.678
N12310 X36.447 Y22.657
N12315 X36.378 Y22.635
N12320 X36.307 Y22.612
N12325 X36.235 Y22.587
N12330 X36.167 Y22.564
N12335 X36.104 Y22.542
N12340 X36.045 Y22.521
N12345 X35.989 Y22.5
N12350 X35.935 Y22.48
N12355 X35.884 Y22.46
N12360 X35.835 Y22.441
N12365 X35.788 Y22.422
N12370 X35.743 Y22.404
N12375 X35.699 Y22.385
N12380 X35.655 Y22.367
N12385 X35.609 Y22.347
N12390 X35.563 Y22.326
N12395 X35.516 Y22.305
N12400 X35.468 Y22.283
N12405 X35.422 Y22.261
N12410 X35.376 Y22.239
N12415 X35.333 Y22.218
N12420 X35.291 Y22.197
N12425 X35.266 Y22.184
N12430 X35.009 Y22.016
N12435 X34.795 Y21.795
N12440 X34.634 Y21.533
N12445 X34.534 Y21.242
N12450 X34.5 Y20.936
N12455 Y18.444
N12460 G3 X35.121 Y17.866 I0.6 J0.021
N12465 X35.699 Y18.486 I-0.021 J0.6
N12470 G1 X35.696 Y18.58 Z-0.993
N12475 X35.693 Y18.672 Z-0.971
N12480 X35.69 Y18.759 Z-0.935
N12485 X35.687 Y18.839 Z-0.885
N12490 X35.684 Y18.91 Z-0.824
N12495 X35.682 Y18.971 Z-0.753
N12500 X35.681 Y19.021 Z-0.672
N12505 X35.679 Y19.057 Z-0.585
N12510 Y19.079 Z-0.494
N12515 X35.678 Y19.086 Z-0.4
N12520 G0 Z5.
N12525 X35.338 Y37.862
N12530 Z0.2
N12535 G1 Z-0.4 F100.
N12540 X35.334 Y37.856 Z-0.494
N12545 X35.323 Y37.837 Z-0.585
N12550 X35.304 Y37.806 Z-0.672
N12555 X35.279 Y37.764 Z-0.753
N12560 X35.248 Y37.711 Z-0.824
N12565 X35.211 Y37.65 Z-0.885
N12570 X35.17 Y37.581 Z-0.935
N12575 X35.126 Y37.506 Z-0.971
N12580 X35.079 Y37.427 Z-0.993
N12585 X35.031 Y37.347 Z-1.
N12590 G3 X34.5 Y35.538 I3.265 J-1.941
N12595 G1 Y33.378
N12600 X34.515 Y33.076
N12605 X34.517 Y33.046
N12610 X34.519 Y33.017
N12615 X34.521 Y32.987
N12620 X34.524 Y32.957
N12625 X34.527 Y32.927
N12630 X34.531 Y32.897
N12635 X34.534 Y32.867
N12640 X34.538 Y32.838
N12645 X34.543 Y32.808
N12650 X34.548 Y32.778
N12655 X34.553 Y32.749
N12660 X34.558 Y32.719
N12665 X34.564 Y32.69
N12670 X34.569 Y32.66
N12675 X34.576 Y32.631
N12680 X34.582 Y32.602
N12685 X34.589 Y32.572
N12690 X34.596 Y32.543
N12695 X34.603 Y32.514
N12700 X34.611 Y32.485
N12705 X34.619 Y32.456
N12710 X34.627 Y32.427
N12715 X34.635 Y32.398
N12720 X34.644 Y32.37
N12725 X34.652 Y32.341
N12730 X34.661 Y32.312
N12735 X34.671 Y32.284
N12740 X34.68 Y32.255
N12745 X34.69 Y32.227
N12750 X34.7 Y32.199
N12755 X34.71 Y32.171
N12760 X34.721 Y32.143
N12765 X34.731 Y32.115
N12770 X34.742 Y32.087
N12775 X34.753 Y32.059
N12780 X34.765 Y32.031
N12785 X34.776 Y32.003
N12790 X34.788 Y31.976
N12795 X34.8 Y31.948
N12800 X34.812 Y31.92
N12805 X34.825 Y31.892
N12810 X34.838 Y31.864
N12815 X34.851 Y31.835
N12820 X34.865 Y31.807
N12825 X34.879 Y31.778
N12830 X34.894 Y31.749
N12835 X34.908 Y31.72
N12840 X34.923 Y31.69
N12845 X34.939 Y31.661
N12850 X34.955 Y31.631
N12855 X34.971 Y31.601
N12860 X34.988 Y31.571
N12865 X35.005 Y31.54
N12870 X35.022 Y31.51
N12875 X35.04 Y31.479
N12880 X35.059 Y31.448
N12885 X35.077 Y31.417
N12890 X35.096 Y31.386
N12895 X35.116 Y31.354
N12900 X35.136 Y31.323
N12905 X35.156 Y31.291
N12910 X35.178 Y31.259
N12915 X35.199 Y31.226
N12920 X35.221 Y31.194
N12925 X35.243 Y31.161
N12930 X35.266 Y31.128
N12935 X35.289 Y31.095
N12940 X35.313 Y31.062
N12945 X35.338 Y31.029
N12950 X35.362 Y30.995
N12955 X35.388 Y30.961
N12960 X35.414 Y30.927
N12965 X35.44 Y30.893
N12970 X35.467 Y30.859
N12975 X35.495 Y30.824
N12980 X35.523 Y30.79
N12985 X35.551 Y30.755
N12990 X35.581 Y30.72
N12995 X35.611 Y30.684
N13000 X35.641 Y30.649
N13005 X35.672 Y30.613
N13010 X35.704 Y30.577
N13015 X35.736 Y30.542
N13020 X35.769 Y30.505
N13025 X35.803 Y30.469
N13030 X35.837 Y30.432
N13035 X35.873 Y30.396
N13040 X35.908 Y30.359
N13045 X35.945 Y30.321
N13050 X35.982 Y30.284
N13055 X36.02 Y30.247
N13060 X36.058 Y30.209
N13065 X36.098 Y30.171
N13070 X36.138 Y30.134
N13075 X36.179 Y30.095
N13080 X36.22 Y30.057
N13085 X36.263 Y30.018
N13090 X36.306 Y29.98
N13095 X36.351 Y29.941
N13100 X36.396 Y29.902
N13105 X36.442 Y29.863
N13110 X36.488 Y29.823
N13115 X36.536 Y29.784
N13120 X36.585 Y29.744
N13125 X36.634 Y29.704
N13130 X36.685 Y29.664
N13135 X36.736 Y29.624
N13140 X36.789 Y29.584
N13145 X36.842 Y29.543
N13150 X36.897 Y29.503
N13155 X36.952 Y29.462
N13160 X37.009 Y29.421
N13165 X37.067 Y29.38
N13170 X37.126 Y29.339
N13175 X37.186 Y29.297
N13180 X37.247 Y29.256
N13185 X37.31 Y29.214
N13190 X37.373 Y29.172
N13195 X37.438 Y29.13
N13200 X37.505 Y29.088
N13205 X37.555 Y29.056
N13210 X37.624 Y29.014
N13215 X37.694 Y28.971
N13220 X37.765 Y28.928
N13225 X37.838 Y28.886
N13230 X37.912 Y28.843
N13235 X37.988 Y28.8
N13240 X38.065 Y28.756
N13245 X38.144 Y28.713
N13250 X38.224 Y28.67
N13255 X38.306 Y28.626
N13260 X38.39 Y28.582
N13265 X38.475 Y28.539
N13270 X38.562 Y28.495
N13275 X38.652 Y28.451
N13280 X38.743 Y28.407
N13285 X38.836 Y28.362
N13290 X38.93 Y28.318
N13295 X39.028 Y28.273
N13300 X39.127 Y28.229
N13305 X39.229 Y28.184
N13310 X39.332 Y28.14
N13315 X39.438 Y28.095
N13320 X39.546 Y28.05
N13325 X39.621 Y28.02
N13330 X39.645 Y28.01
N13335 G3 X40.275 Y28.997 I0.203 J0.565
N13340 G1 X40.087 Y29.186
N13345 X35.871 Y33.433
N13350 X35.525 Y33.78
N13355 G3 X34.5 Y33.378 I-0.426 J-0.423
N13360 G1 Y31.039
N13365 X34.515 Y30.74
N13370 X34.517 Y30.71
N13375 X34.519 Y30.68
N13380 X34.521 Y30.65
N13385 X34.524 Y30.62
N13390 X34.527 Y30.59
N13395 X34.53 Y30.561
N13400 X34.534 Y30.531
N13405 X34.538 Y30.501
N13410 X34.542 Y30.471
N13415 X34.547 Y30.442
N13420 X34.552 Y30.412
N13425 X34.557 Y30.383
N13430 X34.563 Y30.353
N13435 X34.569 Y30.324
N13440 X34.575 Y30.294
N13445 X34.581 Y30.265
N13450 X34.588 Y30.236
N13455 X34.595 Y30.207
N13460 X34.602 Y30.177
N13465 X34.609 Y30.148
N13470 X34.617 Y30.119
N13475 X34.625 Y30.091
N13480 X34.633 Y30.062
N13485 X34.642 Y30.033
N13490 X34.65 Y30.004
N13495 X34.659 Y29.976
N13500 X34.668 Y29.947
N13505 X34.678 Y29.918
N13510 X34.687 Y29.89
N13515 X34.697 Y29.862
N13520 X34.707 Y29.833
N13525 X34.718 Y29.805
N13530 X34.728 Y29.777
N13535 X34.739 Y29.749
N13540 X34.75 Y29.721
N13545 X34.761 Y29.693
N13550 X34.772 Y29.665
N13555 X34.784 Y29.638
N13560 X34.796 Y29.609
N13565 X34.808 Y29.581
N13570 X34.821 Y29.552
N13575 X34.834 Y29.523
N13580 X34.848 Y29.495
N13585 X34.861 Y29.465
N13590 X34.875 Y29.436
N13595 X34.89 Y29.406
N13600 X34.905 Y29.376
N13605 X34.92 Y29.346
N13610 X34.935 Y29.316
N13615 X34.951 Y29.286
N13620 X34.968 Y29.255
N13625 X34.984 Y29.224
N13630 X35.002 Y29.193
N13635 X35.019 Y29.162
N13640 X35.037 Y29.131
N13645 X35.056 Y29.099
N13650 X35.075 Y29.067
N13655 X35.094 Y29.035
N13660 X35.114 Y29.003
N13665 X35.134 Y28.97
N13670 X35.155 Y28.938
N13675 X35.176 Y28.905
N13680 X35.197 Y28.872
N13685 X35.219 Y28.839
N13690 X35.242 Y28.805
N13695 X35.265 Y28.772
N13700 X35.289 Y28.738
N13705 X35.313 Y28.704
N13710 X35.337 Y28.669
N13715 X35.363 Y28.635
N13720 X35.388 Y28.6
N13725 X35.428 Y28.548
N13730 X35.455 Y28.513
N13735 X35.483 Y28.477
N13740 X35.616 Y28.309
N13745 X35.722 Y28.122
N13750 X35.799 Y27.922
N13755 X35.843 Y27.712
N13760 X35.856 Y27.497
N13765 X35.835 Y27.283
N13770 X35.781 Y27.075
N13775 X35.613 Y26.68
N13780 X35.345 Y26.344
N13785 X35.065 Y26.019
N13790 X34.853 Y25.78
N13795 X34.703 Y25.576
N13800 X34.591 Y25.348
N13805 X34.523 Y25.103
N13810 X34.5 Y24.85
N13815 G3 X35.7 Y24.871 I0.6 J0.021
N13820 G1 Y24.892
N13825 Y30.997
N13830 Y31.018
N13835 G3 X34.5 Y31.039 I-0.6 J0.
N13840 G1 Y20.936
N13845 G3 X35.441 Y20.464 I0.6 J0.021
N13850 G1 X35.493 Y20.516 Z-0.995
N13855 X35.545 Y20.567 Z-0.982
N13860 X35.594 Y20.617 Z-0.959
N13865 X35.627 Y20.69 Z-0.921
N13870 X35.656 Y20.756 Z-0.871
N13875 X35.683 Y20.816 Z-0.812
N13880 X35.688 Y20.862 Z-0.755
N13885 X35.693 Y20.902 Z-0.693
N13890 X35.697 Y20.933 Z-0.627
N13895 X35.7 Y20.957 Z-0.557
N13900 Y20.963 Z-0.533
N13905 X35.699 Y20.974 Z-0.467
N13910 Y20.978 Z-0.4
N13915 G0 Z5.
N13920 X1.893 Y1.644
N13925 Z0.3
N13930 G1 Z-0.3 F100.
N13935 X1.898 Y1.65 Z-0.394
N13940 X1.913 Y1.665 Z-0.485
N13945 X1.939 Y1.691 Z-0.572
N13950 X1.973 Y1.726 Z-0.653
N13955 X2.016 Y1.77 Z-0.724
N13960 X2.066 Y1.821 Z-0.785
N13965 X2.122 Y1.879 Z-0.835
N13970 X2.183 Y1.941 Z-0.871
N13975 X2.247 Y2.007 Z-0.893
N13980 X2.312 Y2.074 Z-0.9
N13985 G3 X3.476 Y3.557 I-6.261 J6.112
N13990 G1 X3.483 Y3.569
N13995 Y3.583
N14000 X3.476 Y3.595
N14005 G3 X2.471 Y3.282 I-0.417 J-0.431
N14010 G1 X2.465 Y3.223 Z-0.897
N14015 X2.459 Y3.164 Z-0.888
N14020 X2.473 Y3.089 Z-0.867
N14025 X2.486 Y3.017 Z-0.836
N14030 X2.498 Y2.95 Z-0.796
N14035 X2.534 Y2.892 Z-0.742
N14040 X2.565 Y2.841 Z-0.678
N14045 X2.59 Y2.798 Z-0.606
N14050 X2.611 Y2.765 Z-0.527
N14055 X2.622 Y2.753 Z-0.481
N14060 X2.631 Y2.743 Z-0.433
N14065 X2.639 Y2.735 Z-0.367
N14070 X2.642 Y2.733 Z-0.3
N14075 G0 Z5.
N14080 X1.594 Y1.964
N14085 Z0.4
N14090 G1 Z-0.2 F100.
N14095 X1.601 Y1.968 Z-0.294
N14100 X1.619 Y1.98 Z-0.385
N14105 X1.649 Y1.999 Z-0.472
N14110 X1.691 Y2.025 Z-0.553
N14115 X1.742 Y2.058 Z-0.624
N14120 X1.803 Y2.097 Z-0.685
N14125 X1.871 Y2.14 Z-0.735
N14130 X1.944 Y2.187 Z-0.771
N14135 X2.021 Y2.236 Z-0.793
N14140 X2.1 Y2.286 Z-0.8
N14145 G3 X3.571 Y3.466 I-4.706 J7.376
N14150 G1 X3.589 Y3.485
N14155 X3.594 Y3.5
N14160 X3.592 Y3.515
N14165 X3.584 Y3.528
N14170 X3.577 Y3.534
N14175 X3.573 Y3.537
N14180 G2 X3.291 Y3.768 I1.198 J1.748
N14185 X3.191 Y3.896 I0.419 J0.43
N14190 G1 X2.781 Y4.603
N14195 G2 X2.719 Y4.753 I0.519 J0.301
N14200 X2.658 Y5.118 I2.052 J0.532
N14205 G1 X2.657 Y5.124
N14210 X2.614 Y5.304
N14215 X2.595 Y5.407
N14220 X2.584 Y5.484
N14225 X2.56 Y5.664
N14230 X2.548 Y5.844
N14235 X2.543 Y6.024
N14240 X2.542 Y6.204
N14245 Y45.796
N14250 X2.543 Y45.976
N14255 X2.548 Y46.156
N14260 X2.56 Y46.336
N14265 X2.584 Y46.516
N14270 X2.595 Y46.593
N14275 X2.614 Y46.696
N14280 X2.657 Y46.876
N14285 X2.658 Y46.884
N14290 G2 X2.851 Y47.772 I2.613 J-0.104
N14295 X2.996 Y47.982 I0.555 J-0.227
N14300 G1 X3.073 Y48.055
N14305 X3.142 Y48.119 Z-0.793
N14310 X3.209 Y48.181 Z-0.771
N14315 X3.272 Y48.241 Z-0.735
N14320 X3.331 Y48.296 Z-0.685
N14325 X3.383 Y48.344 Z-0.624
N14330 X3.428 Y48.386 Z-0.553
N14335 X3.464 Y48.42 Z-0.472
N14340 X3.49 Y48.444 Z-0.385
N14345 X3.506 Y48.459 Z-0.294
N14350 X3.511 Y48.465 Z-0.2
N14355 G0 Z5.
N14360 X2.698 Y47.121
N14365 Z1.8
N14370 G1 Z1.2 F100.
N14375 Z-0.8
N14380 G2 X3.765 Y48.675 I0.792 J0.599
N14385 G1 X3.775 Y48.662
N14390 X3.784 Y48.658
N14395 X3.793 Y48.659
N14400 X3.801 Y48.663
N14405 G3 X3.747 Y49.604 I-0.398 J0.449
N14410 G1 X3.583 Y49.719
N14415 X3.506 Y49.772 Z-0.793
N14420 X3.43 Y49.825 Z-0.771
N14425 X3.359 Y49.874 Z-0.735
N14430 X3.293 Y49.92 Z-0.685
N14435 X3.235 Y49.961 Z-0.624
N14440 X3.184 Y49.996 Z-0.553
N14445 X3.144 Y50.024 Z-0.472
N14450 X3.115 Y50.045 Z-0.385
N14455 X3.097 Y50.058 Z-0.294
N14460 X3.09 Y50.062 Z-0.2
N14465 G0 Z5.
N14470 X3.708 Y48.648
N14475 Z-0.2
N14480 G1 Z-0.8 F100.
N14485 X4.222 Y49.13
N14490 G2 X4.442 Y49.261 I0.41 J-0.438
N14495 X5.34 Y49.395 I0.828 J-2.48
N14500 G1 X5.35
N14505 X5.473 Y49.418
N14510 X5.653 Y49.44
N14515 X5.833 Y49.451
N14520 X6.013 Y49.458
N14525 X6.193
N14530 X6.912
N14535 X30.837
N14540 X31.017 Y49.456
N14545 X31.196 Y49.452
N14550 X31.376 Y49.434
N14555 X31.556 Y49.412
N14560 X31.736 Y49.378
N14565 X31.916 Y49.331
N14570 X32.096 Y49.278
N14575 X32.267 Y49.215
N14580 X32.275 Y49.213
N14585 G2 X32.89 Y49.03 I-0.387 J-2.425
N14590 X33.06 Y48.916 I-0.245 J-0.548
N14595 G1 X33.094 Y48.881 Z-0.798
N14600 X33.152 Y48.815 Z-0.784
N14605 X33.209 Y48.751 Z-0.757
N14610 X33.262 Y48.691 Z-0.718
N14615 X33.311 Y48.636 Z-0.668
N14620 X33.354 Y48.587 Z-0.607
N14625 X33.391 Y48.546 Z-0.537
N14630 X33.421 Y48.512 Z-0.459
N14635 X33.442 Y48.488 Z-0.376
N14640 X33.455 Y48.473 Z-0.289
N14645 X33.46 Y48.468 Z-0.2
N14650 G0 Z5.
N14655 X32.303 Y49.441
N14660 Z1.8
N14665 G1 Z1.2 F100.
N14670 Z-0.8
N14675 G2 X33.714 Y48.192 I0.593 J-0.752
N14680 G1 X33.702 Y48.181
N14685 X33.698 Y48.173
N14690 Y48.164
N14695 X33.702 Y48.156
N14700 G3 X34.726 Y48.403 I0.445 J0.403
N14705 G1 X34.737 Y48.482 Z-0.795
N14710 X34.747 Y48.559 Z-0.779
N14715 X34.733 Y48.635 Z-0.752
N14720 X34.72 Y48.707 Z-0.714
N14725 X34.708 Y48.773 Z-0.667
N14730 X34.678 Y48.823 Z-0.613
N14735 X34.652 Y48.867 Z-0.551
N14740 X34.63 Y48.903 Z-0.483
N14745 X34.613 Y48.931 Z-0.41
N14750 X34.602 Y48.951 Z-0.333
N14755 X34.594 Y48.959 Z-0.267
N14760 X34.592 Y48.962 Z-0.2
N14765 G0 Z5.
N14770 X33.46 Y48.468
N14775 Z-0.2
N14780 G1 Z-0.8 F100.
N14785 X34.109 Y47.737
N14790 G2 X34.234 Y47.516 I-0.449 J-0.398
N14795 X34.342 Y46.884 I-2.345 J-0.728
N14800 G1 X34.343 Y46.876
N14805 X34.385 Y46.696
N14810 X34.416 Y46.516
N14815 X34.434 Y46.395
N14820 X34.44 Y46.336
N14825 X34.452 Y46.156
N14830 X34.457 Y45.976
N14835 X34.458 Y45.796
N14840 Y6.204
N14845 X34.457 Y6.024
N14850 X34.452 Y5.844
N14855 X34.44 Y5.664
N14860 X34.434 Y5.605
N14865 X34.416 Y5.484
N14870 X34.385 Y5.304
N14875 X34.343 Y5.124
N14880 X34.291 Y4.944
N14885 X34.254 Y4.831
N14890 X34.228 Y4.764
N14895 X34.152 Y4.584
N14900 X34.075 Y4.425
N14905 X34.064 Y4.404
N14910 X33.966 Y4.225
N14915 X33.848 Y4.045
N14920 X33.72 Y3.865
N14925 X33.715 Y3.857
N14930 G2 X33.535 Y3.537 I-1.916 J0.87
N14935 X33.409 Y3.403 I-0.495 J0.339
N14940 X33.359 Y3.368 I-0.369 J0.473
N14945 G1 X32.342 Y2.731
N14950 G2 X32.112 Y2.646 I-0.319 J0.508
N14955 X31.746 Y2.623 I-0.313 J2.081
N14960 G1 X31.736 Y2.622
N14965 X31.556 Y2.588
N14970 X31.376 Y2.566
N14975 X31.196 Y2.548
N14980 X31.017 Y2.544
N14985 X30.837 Y2.542
N14990 X6.373
N14995 X6.193
N15000 X6.013
N15005 X5.833 Y2.549
N15010 X5.653 Y2.56
N15015 X5.473 Y2.582
N15020 X5.35 Y2.605
N15025 X5.114 Y2.658
N15030 G3 X4.445 Y1.845 I-0.112 J-0.589
N15035 G1 X4.484 Y1.783 Z-0.795
N15040 X4.523 Y1.721 Z-0.782
N15045 X4.561 Y1.662 Z-0.759
N15050 X4.624 Y1.614 Z-0.721
N15055 X4.682 Y1.571 Z-0.671
N15060 X4.734 Y1.532 Z-0.612
N15065 X4.782 Y1.515 Z-0.55
N15070 X4.822 Y1.501 Z-0.482
N15075 X4.853 Y1.49 Z-0.41
N15080 X4.874 Y1.483 Z-0.333
N15085 X4.885 Y1.48 Z-0.267
N15090 X4.889 Z-0.2
N15095 G0 Z5.
N15100 X34.195 Y4.131
N15105 Z1.8
N15110 G1 Z1.2 F100.
N15115 Z-0.8
N15120 G2 X32.713 Y2.966 I-0.846 J-0.449
N15125 G1 X32.706 Y2.979
N15130 X32.699 Y2.984
N15135 X32.69 Y2.985
N15140 X32.682 Y2.983
N15145 G3 X32.748 Y1.932 I0.32 J-0.508
N15150 G1 X32.819 Y1.913 Z-0.795
N15155 X32.89 Y1.895 Z-0.782
N15160 X32.958 Y1.877 Z-0.759
N15165 X33.002 Y1.875 Z-0.74
N15170 X33.082 Y1.89 Z-0.691
N15175 X33.154 Y1.903 Z-0.63
N15180 X33.215 Y1.914 Z-0.559
N15185 X33.256 Y1.934 Z-0.489
N15190 X33.288 Y1.949 Z-0.413
N15195 X33.309 Y1.96 Z-0.333
N15200 X33.319 Y1.966 Z-0.267
N15205 X33.322 Y1.968 Z-0.2
N15210 G0 Z5.
N15215 X3.764 Y50.867
N15220 Z-0.2
N15225 G1 Z-0.8 F100.
N15230 G3 X4.395 Y49.095 I8.511 J2.031
N15235 G1 X4.402 Y49.08
N15240 X4.409 Y49.075
N15245 X4.419 Y49.073
N15250 X4.427 Y49.075
N15255 G3 X4.425 Y50.128 I-0.289 J0.526
N15260 G1 X4.355 Y50.151 Z-0.795
N15265 X4.285 Y50.174 Z-0.782
N15270 X4.218 Y50.195 Z-0.759
N15275 X4.138 Y50.201 Z-0.721
N15280 X4.075 Y50.189 Z-0.678
N15285 X4.018 Y50.179 Z-0.627
N15290 X3.968 Y50.169 Z-0.569
N15295 X3.925 Y50.162 Z-0.505
N15300 X3.888 Y50.145 Z-0.422
N15305 X3.863 Y50.134 Z-0.333
N15310 X3.853 Y50.128 Z-0.267
N15315 X3.849 Y50.127 Z-0.2
N15320 G0 Z5.
N15325 X1.437 Y2.183
N15330 Z0.5
N15335 G1 Z-0.1 F100.
N15340 X1.443 Y2.187 Z-0.194
N15345 X1.462 Y2.198 Z-0.285
N15350 X1.493 Y2.216 Z-0.372
N15355 X1.535 Y2.242 Z-0.453
N15360 X1.588 Y2.273 Z-0.524
N15365 X1.649 Y2.31 Z-0.585
N15370 X1.718 Y2.351 Z-0.635
N15375 X1.792 Y2.396 Z-0.671
N15380 X1.871 Y2.443 Z-0.693
N15385 X1.952 Y2.491 Z-0.7
N15390 G3 X3.455 Y3.628 I-4.493 J7.508
N15395 G1 X3.469 Y3.642
N15400 X3.482 Y3.674
N15405 X3.48 Y3.708
N15410 X3.464 Y3.738
N15415 X3.358 Y3.865
N15420 X3.315 Y3.918
N15425 X3.22 Y4.045
N15430 X3.135 Y4.171
N15435 X3.101 Y4.225
N15440 X3.002 Y4.404
N15445 X2.955 Y4.492
N15450 X2.909 Y4.584
N15455 X2.834 Y4.764
N15460 X2.775 Y4.934
N15465 X2.772 Y4.944
N15470 X2.717 Y5.124
N15475 X2.674 Y5.304
N15480 X2.643 Y5.484
N15485 X2.617 Y5.664
N15490 X2.605 Y5.844
N15495 X2.601 Y6.024
N15500 X2.6 Y6.204
N15505 Y45.796
N15510 X2.601 Y45.976
N15515 X2.605 Y46.156
N15520 X2.617 Y46.336
N15525 X2.643 Y46.516
N15530 X2.674 Y46.696
N15535 X2.717 Y46.876
N15540 X2.772 Y47.056
N15545 X2.775 Y47.066
N15550 X2.834 Y47.236
N15555 X2.909 Y47.416
N15560 X2.955 Y47.508
N15565 X3.002 Y47.596
N15570 X3.101 Y47.775
N15575 X3.135 Y47.829
N15580 X3.22 Y47.955
N15585 X3.315 Y48.082
N15590 X3.358 Y48.135
N15595 X3.495 Y48.298
N15600 X3.694 Y48.495
N15605 X3.854 Y48.634
N15610 X3.907 Y48.675
N15615 X4.034 Y48.773
N15620 X4.155 Y48.855
N15625 X4.214 Y48.892
N15630 X4.394 Y48.992
N15635 X4.475 Y49.035
N15640 X4.574 Y49.086
N15645 X4.754 Y49.162
N15650 X4.904 Y49.215
N15655 X4.934 Y49.225
N15660 X5.114 Y49.281
N15665 X5.294 Y49.323
N15670 X5.473 Y49.356
N15675 X5.653 Y49.382
N15680 X5.87 Y49.395
N15685 X6.013 Y49.399
N15690 X6.193 Y49.4
N15695 X6.912
N15700 X30.837
N15705 X31.017 Y49.398
N15710 X31.196 Y49.393
N15715 X31.376 Y49.376
N15720 X31.556 Y49.352
N15725 X31.736 Y49.318
N15730 X31.916 Y49.271
N15735 X32.096 Y49.216
N15740 X32.276 Y49.149
N15745 X32.456 Y49.068
N15750 X32.525 Y49.035
N15755 X32.636 Y48.978
N15760 X32.845 Y48.855
N15765 X32.995 Y48.747
N15770 X33.093 Y48.675
N15775 X33.175 Y48.613
N15780 X33.304 Y48.495
N15785 X33.355 Y48.448
N15790 X33.489 Y48.315
N15795 X33.535 Y48.262
N15800 X33.641 Y48.135
N15805 X33.715 Y48.047
N15810 X33.777 Y47.955
N15815 X33.897 Y47.775
N15820 X34.001 Y47.596
N15825 X34.075 Y47.447
N15830 X34.165 Y47.236
N15835 X34.23 Y47.056
N15840 X34.254 Y46.984
N15845 X34.283 Y46.876
N15850 X34.326 Y46.696
N15855 X34.357 Y46.516
N15860 X34.382 Y46.336
N15865 X34.394 Y46.156
N15870 X34.399 Y45.976
N15875 X34.4 Y45.796
N15880 Y6.204
N15885 X34.399 Y6.024
N15890 X34.394 Y5.844
N15895 X34.382 Y5.664
N15900 X34.357 Y5.484
N15905 X34.326 Y5.304
N15910 X34.283 Y5.124
N15915 X34.254 Y5.016
N15920 X34.23 Y4.944
N15925 X34.165 Y4.764
N15930 X34.075 Y4.553
N15935 X34.001 Y4.404
N15940 X33.897 Y4.225
N15945 X33.777 Y4.045
N15950 X33.715 Y3.953
N15955 X33.641 Y3.865
N15960 X33.535 Y3.738
N15965 X33.489 Y3.685
N15970 X33.355 Y3.552
N15975 X33.304 Y3.505
N15980 X33.175 Y3.387
N15985 X33.093 Y3.325
N15990 X32.995 Y3.253
N15995 X32.845 Y3.145
N16000 X32.636 Y3.022
N16005 X32.525 Y2.965
N16010 X32.456 Y2.932
N16015 X32.276 Y2.851
N16020 X32.096 Y2.784
N16025 X31.916 Y2.729
N16030 X31.736 Y2.682
N16035 X31.556 Y2.648
N16040 X31.376 Y2.624
N16045 X31.196 Y2.607
N16050 X31.017 Y2.602
N16055 X30.837 Y2.6
N16060 X6.373
N16065 X6.193
N16070 X6.013 Y2.601
N16075 X5.87 Y2.605
N16080 X5.653 Y2.618
N16085 X5.473 Y2.644
N16090 X5.294 Y2.677
N16095 G3 X4.659 Y1.837 I-0.088 J-0.594
N16100 G1 X4.701 Y1.776 Z-0.695
N16105 X4.742 Y1.716 Z-0.682
N16110 X4.782 Y1.659 Z-0.659
N16115 X4.848 Y1.614 Z-0.621
N16120 X4.908 Y1.572 Z-0.571
N16125 X4.961 Y1.536 Z-0.512
N16130 X5.01 Y1.521 Z-0.45
N16135 X5.05 Y1.509 Z-0.382
N16140 X5.081 Y1.499 Z-0.31
N16145 X5.103 Y1.493 Z-0.233
N16150 X5.114 Y1.491 Z-0.167
N16155 X5.118 Y1.49 Z-0.1
N16160 G0 Z5.
N16165 X1.556 Y2.163
N16170 Z0.6
N16175 G1 Z0. F100.
N16180 X1.562 Y2.167 Z-0.094
N16185 X1.581 Y2.178 Z-0.185
N16190 X1.612 Y2.197 Z-0.272
N16195 X1.654 Y2.222 Z-0.353
N16200 X1.707 Y2.254 Z-0.424
N16205 X1.768 Y2.29 Z-0.485
N16210 X1.837 Y2.332 Z-0.535
N16215 X1.912 Y2.376 Z-0.571
N16220 X1.99 Y2.423 Z-0.593
N16225 X2.071 Y2.472 Z-0.6
N16230 G3 X3.574 Y3.608 I-4.495 J7.507
N16235 G1 X3.593 Y3.628
N16240 X3.609 Y3.672
N16245 X3.605 Y3.719
N16250 X3.581 Y3.76
N16255 X3.487 Y3.865
N16260 X3.347 Y4.045
N16265 X3.221 Y4.225
N16270 X3.135 Y4.369
N16275 X3.115 Y4.404
N16280 X3.022 Y4.584
N16285 X2.943 Y4.764
N16290 X2.876 Y4.944
N16295 X2.821 Y5.124
N16300 X2.775 Y5.31
N16305 X2.744 Y5.484
N16310 X2.719 Y5.664
N16315 X2.706 Y5.844
N16320 X2.701 Y6.024
N16325 X2.7 Y6.204
N16330 Y45.796
N16335 X2.701 Y45.976
N16340 X2.706 Y46.156
N16345 X2.719 Y46.336
N16350 X2.744 Y46.516
N16355 X2.775 Y46.69
N16360 X2.821 Y46.876
N16365 X2.876 Y47.056
N16370 X2.943 Y47.236
N16375 X3.022 Y47.416
N16380 X3.115 Y47.596
N16385 X3.135 Y47.631
N16390 X3.221 Y47.775
N16395 X3.347 Y47.955
N16400 X3.487 Y48.135
N16405 X3.649 Y48.315
N16410 X3.675 Y48.34
N16415 X3.845 Y48.495
N16420 X3.854 Y48.503
N16425 X4.034 Y48.648
N16430 X4.214 Y48.771
N16435 X4.348 Y48.855
N16440 X4.394 Y48.88
N16445 X4.574 Y48.974
N16450 X4.754 Y49.052
N16455 X4.934 Y49.122
N16460 X5.114 Y49.178
N16465 X5.294 Y49.22
N16470 X5.473 Y49.254
N16475 X5.653 Y49.281
N16480 X5.833 Y49.293
N16485 X6.013 Y49.299
N16490 X6.193 Y49.3
N16495 X6.733
N16500 X30.837
N16505 X31.017 Y49.298
N16510 X31.196 Y49.293
N16515 X31.376 Y49.275
N16520 X31.556 Y49.25
N16525 X31.736 Y49.215
N16530 X31.916 Y49.167
N16535 X32.096 Y49.112
N16540 X32.292 Y49.035
N16545 X32.456 Y48.957
N16550 X32.636 Y48.866
N16555 X32.654 Y48.855
N16560 X32.815 Y48.754
N16565 X32.928 Y48.675
N16570 X32.995 Y48.625
N16575 X33.157 Y48.495
N16580 X33.355 Y48.309
N16585 X33.511 Y48.135
N16590 X33.535 Y48.107
N16595 X33.657 Y47.955
N16600 X33.715 Y47.874
N16605 X33.78 Y47.775
N16610 X33.884 Y47.596
N16615 X33.895 Y47.576
N16620 X33.979 Y47.416
N16625 X34.075 Y47.197
N16630 X34.123 Y47.056
N16635 X34.179 Y46.876
N16640 X34.223 Y46.696
N16645 X34.254 Y46.528
N16650 X34.256 Y46.516
N16655 X34.281 Y46.336
N16660 X34.294 Y46.156
N16665 X34.299 Y45.976
N16670 X34.3 Y45.796
N16675 Y6.204
N16680 X34.299 Y6.024
N16685 X34.294 Y5.844
N16690 X34.281 Y5.664
N16695 X34.256 Y5.484
N16700 X34.254 Y5.472
N16705 X34.223 Y5.304
N16710 X34.179 Y5.124
N16715 X34.123 Y4.944
N16720 X34.075 Y4.803
N16725 X33.979 Y4.584
N16730 X33.895 Y4.424
N16735 X33.884 Y4.404
N16740 X33.78 Y4.225
N16745 X33.715 Y4.126
N16750 X33.657 Y4.045
N16755 X33.535 Y3.893
N16760 X33.511 Y3.865
N16765 X33.355 Y3.691
N16770 X33.157 Y3.505
N16775 X32.995 Y3.375
N16780 X32.928 Y3.325
N16785 X32.815 Y3.246
N16790 X32.654 Y3.145
N16795 X32.636 Y3.134
N16800 X32.456 Y3.043
N16805 X32.292 Y2.965
N16810 X32.096 Y2.888
N16815 X31.916 Y2.833
N16820 X31.736 Y2.785
N16825 X31.556 Y2.75
N16830 X31.376 Y2.725
N16835 X31.196 Y2.707
N16840 X31.017 Y2.702
N16845 X30.837 Y2.7
N16850 X6.373
N16855 X6.193
N16860 X6.013 Y2.701
N16865 X5.833 Y2.707
N16870 X5.653 Y2.719
N16875 X5.473 Y2.746
N16880 X5.294 Y2.78
N16885 G3 X4.654 Y1.943 I-0.091 J-0.593
N16890 G1 X4.695 Y1.882 Z-0.595
N16895 X4.736 Y1.822 Z-0.582
N16900 X4.776 Y1.764 Z-0.559
N16905 X4.841 Y1.719 Z-0.521
N16910 X4.901 Y1.677 Z-0.471
N16915 X4.954 Y1.64 Z-0.412
N16920 X5.003 Y1.625 Z-0.35
N16925 X5.043 Y1.613 Z-0.282
N16930 X5.074 Y1.603 Z-0.21
N16935 X5.096 Y1.596 Z-0.133
N16940 X5.107 Y1.594 Z-0.067
N16945 X5.111 Z0.
N16950 G0 Z5.
N16955 X1.721 Y5.166
N16960 Z0.701
N16965 G1 Z0.101 F100.
N16970 X1.728 Y5.169 Z0.007
N16975 X1.748 Y5.178 Z-0.084
N16980 X1.781 Y5.193 Z-0.171
N16985 X1.826 Y5.213 Z-0.252
N16990 X1.881 Y5.238 Z-0.323
N16995 X1.947 Y5.267 Z-0.384
N17000 X2.02 Y5.301 Z-0.434
N17005 X2.099 Y5.336 Z-0.47
N17010 X2.183 Y5.374 Z-0.492
N17015 X2.268 Y5.413 Z-0.499
N17020 X2.726 Y5.619
N17025 X2.741 Y5.621
N17030 X2.77 Y5.63
N17035 X2.798 Y5.64
N17040 X2.826 Y5.652
N17045 X2.854 Y5.664
N17050 X2.881 Y5.677
N17055 X2.907 Y5.691
N17060 X2.934 Y5.705
N17065 X2.96 Y5.72
N17070 X2.985 Y5.736
N17075 X3.01 Y5.752
N17080 X3.035 Y5.768
N17085 X3.06 Y5.786
N17090 X3.084 Y5.803
N17095 X3.108 Y5.821
N17100 X3.132 Y5.839
N17105 X3.156 Y5.858
N17110 X3.179 Y5.877
N17115 X3.202 Y5.896
N17120 X3.225 Y5.916
N17125 X3.247 Y5.936
N17130 X3.269 Y5.956
N17135 X3.291 Y5.977
N17140 X3.312 Y5.998
N17145 X3.334 Y6.019
N17150 X3.355 Y6.04
N17155 X3.376 Y6.062
N17160 X3.396 Y6.083
N17165 X3.417 Y6.105
N17170 X3.437 Y6.128
N17175 X3.457 Y6.15
N17180 X3.477 Y6.173
N17185 X3.496 Y6.195
N17190 X3.515 Y6.218
N17195 X3.534 Y6.242
N17200 X3.553 Y6.265
N17205 X3.572 Y6.289
N17210 X3.59 Y6.312
N17215 X3.608 Y6.336
N17220 X3.626 Y6.36
N17225 X3.644 Y6.384
N17230 X3.662 Y6.409
N17235 X3.679 Y6.433
N17240 X3.696 Y6.458
N17245 X3.713 Y6.482
N17250 X3.73 Y6.507
N17255 X3.747 Y6.532
N17260 X3.764 Y6.558
N17265 X3.78 Y6.584
N17270 X3.797 Y6.61
N17275 X3.815 Y6.638
N17280 X3.832 Y6.666
N17285 X3.849 Y6.694
N17290 X3.866 Y6.723
N17295 X3.884 Y6.753
N17300 X3.901 Y6.784
N17305 X3.919 Y6.815
N17310 X3.937 Y6.847
N17315 X3.955 Y6.88
N17320 X3.973 Y6.913
N17325 X3.991 Y6.947
N17330 X4.009 Y6.982
N17335 X4.027 Y7.018
N17340 X4.045 Y7.055
N17345 X4.064 Y7.092
N17350 X4.082 Y7.131
N17355 X4.101 Y7.17
N17360 X4.119 Y7.211
N17365 X4.138 Y7.252
N17370 X4.157 Y7.294
N17375 X4.176 Y7.337
N17380 X4.195 Y7.382
N17385 X4.214 Y7.427
N17390 X4.233 Y7.474
N17395 X4.252 Y7.522
N17400 X4.272 Y7.571
N17405 X4.291 Y7.621
N17410 X4.311 Y7.673
N17415 X4.33 Y7.726
N17420 X4.35 Y7.78
N17425 X4.369 Y7.836
N17430 X4.389 Y7.894
N17435 X4.409 Y7.953
N17440 X4.429 Y8.013
N17445 X4.449 Y8.076
N17450 X4.469 Y8.14
N17455 X4.489 Y8.207
N17460 X4.509 Y8.275
N17465 X4.529 Y8.345
N17470 X4.55 Y8.418
N17475 X4.57 Y8.493
N17480 X4.591 Y8.57
N17485 X4.611 Y8.651
N17490 X4.632 Y8.733
N17495 X4.652 Y8.819
N17500 X4.673 Y8.908
N17505 X4.694 Y9.
N17510 X4.714 Y9.096
N17515 X4.735 Y9.195
N17520 X4.756 Y9.298
N17525 X4.777 Y9.406
N17530 X4.798 Y9.519
N17535 X4.819 Y9.636
N17540 X4.84 Y9.759
N17545 X4.861 Y9.888
N17550 X4.882 Y10.023
N17555 X4.903 Y10.166
N17560 X4.925 Y10.316
N17565 X4.946 Y10.475
N17570 X4.967 Y10.644
N17575 X4.989 Y10.823
N17580 X5.01 Y11.015
N17585 X5.031 Y11.221
N17590 X5.053 Y11.443
N17595 X5.074 Y11.684
N17600 X5.096 Y11.947
N17605 X5.118 Y12.237
N17610 X5.139 Y12.559
N17615 X5.161 Y12.921
N17620 X5.182 Y13.334
N17625 X5.202 Y13.763
N17630 X5.218 Y14.192
N17635 X5.232 Y14.622
N17640 X5.245 Y15.051
N17645 X5.255 Y15.481
N17650 X5.264 Y15.91
N17655 X5.271 Y16.339
N17660 X5.278 Y16.769
N17665 X5.283 Y17.198
N17670 X5.288 Y17.628
N17675 X5.292 Y18.057
N17680 X5.295 Y18.487
N17685 X5.298 Y18.916
N17690 X5.301 Y19.346
N17695 X5.303 Y19.775
N17700 X5.305 Y20.205
N17705 X5.307 Y20.635
N17710 X5.309 Y21.494
N17715 X5.311 Y22.353
N17720 X5.313 Y23.641
N17725 X5.314 Y24.93
N17730 X5.315 Y26.648
N17735 X5.316 Y29.655
N17740 Y36.527
N17745 Y42.97
N17750 Y43.399
N17755 X5.344 Y43.612
N17760 X5.464 Y44.025
N17765 X5.7 Y44.384
N17770 X5.993 Y44.698
N17775 X6.324 Y44.972
N17780 X6.681 Y45.21
N17785 X7.058 Y45.416
N17790 X7.449 Y45.594
N17795 X7.85 Y45.748
N17800 X8.259 Y45.88
N17805 X8.673 Y45.994
N17810 X9.091 Y46.092
N17815 X9.512 Y46.177
N17820 X9.936 Y46.249
N17825 X10.361 Y46.311
N17830 X10.787 Y46.365
N17835 X11.214 Y46.41
N17840 X11.642 Y46.45
N17845 X12.07 Y46.483
N17850 X12.498 Y46.512
N17855 X12.927 Y46.537
N17860 X13.356 Y46.558
N17865 X13.785 Y46.576
N17870 X14.215 Y46.592
N17875 X14.644 Y46.605
N17880 X15.073 Y46.616
N17885 X15.503 Y46.626
N17890 X15.932 Y46.634
N17895 X16.362 Y46.642
N17900 X16.79 Y46.679
N17905 X17.218 Y46.711
N17910 X17.647 Y46.739
N17915 X18.075 Y46.762
N17920 X18.504 Y46.782
N17925 X18.934 Y46.799
N17930 X19.363 Y46.814
N17935 X19.792 Y46.826
N17940 X20.222 Y46.837
N17945 X20.651 Y46.846
N17950 X21.081 Y46.854
N17955 X21.51 Y46.861
N17960 X21.939 Y46.867
N17965 X22.369 Y46.871
N17970 X22.798 Y46.876
N17975 X23.228 Y46.879
N17980 X23.658 Y46.882
N17985 X24.087 Y46.885
N17990 X24.517 Y46.887
N17995 X24.946 Y46.889
N18000 X25.376 Y46.891
N18005 X25.805 Y46.892
N18010 X26.664 Y46.894
N18015 X27.523 Y46.896
N18020 X27.953
N18025 X28.382 Y46.897
N18030 X28.597 Y46.883
N18035 X29.016 Y46.79
N18040 X29.392 Y46.582
N18045 X29.726 Y46.312
N18050 X30.02 Y45.999
N18055 X30.277 Y45.655
N18060 X30.501 Y45.288
N18065 X30.696 Y44.906
N18070 X30.865 Y44.511
N18075 X31.011 Y44.107
N18080 X31.137 Y43.696
N18085 X31.246 Y43.281
N18090 X31.339 Y42.861
N18095 X31.42 Y42.439
N18100 X31.489 Y42.015
N18105 X31.548 Y41.59
N18110 X31.599 Y41.164
N18115 X31.642 Y40.736
N18120 X31.68 Y40.308
N18125 X31.712 Y39.88
N18130 X31.739 Y39.451
N18135 X31.762 Y39.022
N18140 X31.782 Y38.593
N18145 X31.8 Y38.164
N18150 X31.814 Y37.735
N18155 X31.827 Y37.306
N18160 X31.837 Y36.876
N18165 X31.846 Y36.447
N18170 X31.854 Y36.017
N18175 X31.861 Y35.588
N18180 X31.867 Y35.158
N18185 X31.872 Y34.729
N18190 X31.876 Y34.299
N18195 X31.879 Y33.87
N18200 X31.882 Y33.44
N18205 X31.885 Y33.011
N18210 X31.887 Y32.581
N18215 X31.889 Y32.152
N18220 X31.891 Y31.722
N18225 X31.892 Y31.293
N18230 X31.894 Y30.434
N18235 X31.896 Y29.575
N18240 X31.897 Y28.286
N18245 X31.899 Y26.568
N18250 Y24.42
N18255 X31.9 Y20.125
N18260 Y10.676
N18265 Y10.246
N18270 X31.878 Y9.951
N18275 X31.857 Y9.622
N18280 X31.835 Y9.251
N18285 X31.813 Y8.822
N18290 X31.79 Y8.394
N18295 X31.651 Y7.987
N18300 X31.418 Y7.627
N18305 X31.126 Y7.311
N18310 X30.797 Y7.036
N18315 X30.44 Y6.797
N18320 X30.063 Y6.59
N18325 X29.673 Y6.411
N18330 X29.272 Y6.257
N18335 X28.863 Y6.124
N18340 X28.45 Y6.009
N18345 X28.031 Y5.91
N18350 X27.61 Y5.826
N18355 X27.187 Y5.753
N18360 X26.762 Y5.69
N18365 X26.336 Y5.637
N18370 X25.909 Y5.591
N18375 X25.481 Y5.551
N18380 X25.053 Y5.518
N18385 X24.624 Y5.489
N18390 X24.196 Y5.464
N18395 X23.767 Y5.443
N18400 X23.337 Y5.424
N18405 X22.908 Y5.409
N18410 X22.479 Y5.395
N18415 X22.05 Y5.384
N18420 X21.62 Y5.374
N18425 X21.191 Y5.366
N18430 X20.761 Y5.359
N18435 X20.332 Y5.352
N18440 X19.902 Y5.347
N18445 X19.473 Y5.343
N18450 X19.043 Y5.339
N18455 X18.614 Y5.336
N18460 X18.184 Y5.333
N18465 X17.755 Y5.33
N18470 X17.325 Y5.328
N18475 X16.896 Y5.326
N18480 X16.466 Y5.325
N18485 X15.607 Y5.323
N18490 X14.748 Y5.321
N18495 X13.459 Y5.319
N18500 X12.171 Y5.318
N18505 X10.023 Y5.317
N18510 X9.647
N18515 X9.435 Y5.35
N18520 X9.23 Y5.414
N18525 X9.038 Y5.51
N18530 X8.863 Y5.634
N18535 X8.708 Y5.783
N18540 X8.448 Y6.125
N18545 X8.297 Y6.527
N18550 X8.177 Y6.939
N18555 X8.083 Y7.358
N18560 X8.01 Y7.782
N18565 X7.954 Y8.207
N18570 X7.911 Y8.635
N18575 X7.881 Y9.063
N18580 X7.859 Y9.492
N18585 X7.844 Y9.921
N18590 X7.835 Y10.351
N18595 X7.83 Y10.78
N18600 X7.828 Y11.21
N18605 X7.829 Y11.639
N18610 X7.832 Y12.069
N18615 X7.836 Y12.498
N18620 X7.841 Y12.928
N18625 X7.847 Y13.357
N18630 X7.865 Y14.646
N18635 X7.87 Y15.075
N18640 X7.876 Y15.505
N18645 X7.881 Y15.934
N18650 X7.886 Y16.364
N18655 X7.89 Y16.793
N18660 X7.894 Y17.223
N18665 X7.898 Y17.652
N18670 X7.902 Y18.082
N18675 X7.905 Y18.511
N18680 X7.908 Y18.941
N18685 X7.911 Y19.37
N18690 X7.913 Y19.8
N18695 X7.915 Y20.229
N18700 X7.919 Y21.089
N18705 X7.922 Y21.948
N18710 X7.924 Y22.807
N18715 X7.926 Y23.666
N18720 X7.928 Y24.954
N18725 X7.929 Y26.243
N18730 X7.93 Y27.961
N18735 X7.931 Y29.25
N18740 Y29.679
N18745 X7.9 Y30.107
N18750 X7.873 Y30.536
N18755 X7.85 Y30.965
N18760 X7.831 Y31.394
N18765 X7.814 Y31.823
N18770 X7.8 Y32.253
N18775 X7.788 Y32.682
N18780 X7.777 Y33.111
N18785 X7.768 Y33.541
N18790 X7.761 Y33.97
N18795 X7.754 Y34.4
N18800 X7.748 Y34.829
N18805 X7.744 Y35.259
N18810 X7.74 Y35.688
N18815 X7.736 Y36.118
N18820 X7.733 Y36.547
N18825 X7.731 Y36.977
N18830 X7.729 Y37.406
N18835 X7.727 Y37.836
N18840 X7.725 Y38.265
N18845 X7.723 Y39.124
N18850 X7.721 Y39.983
N18855 X7.768 Y40.41
N18860 X7.897 Y40.82
N18865 X8.092 Y41.203
N18870 X8.339 Y41.554
N18875 X8.627 Y41.873
N18880 X8.946 Y42.161
N18885 X9.29 Y42.418
N18890 X9.653 Y42.647
N18895 X10.032 Y42.85
N18900 X10.422 Y43.029
N18905 X10.821 Y43.188
N18910 X11.228 Y43.327
N18915 X11.639 Y43.449
N18920 X12.055 Y43.557
N18925 X12.474 Y43.651
N18930 X12.896 Y43.733
N18935 X13.319 Y43.805
N18940 X13.744 Y43.868
N18945 X14.17 Y43.925
N18950 X14.596 Y43.979
N18955 X15.023 Y44.029
N18960 X15.45 Y44.076
N18965 X15.877 Y44.119
N18970 X16.305 Y44.159
N18975 X16.733 Y44.195
N18980 X17.161 Y44.228
N18985 X17.589 Y44.258
N18990 X18.018 Y44.285
N18995 X18.447 Y44.309
N19000 X18.876 Y44.331
N19005 X19.305 Y44.351
N19010 X19.734 Y44.368
N19015 X20.163 Y44.383
N19020 X20.593 Y44.397
N19025 X21.022 Y44.41
N19030 X21.452 Y44.42
N19035 X21.881 Y44.43
N19040 X22.31 Y44.439
N19045 X22.74 Y44.446
N19050 X23.169 Y44.453
N19055 X23.599 Y44.459
N19060 X24.028 Y44.464
N19065 X24.458 Y44.468
N19070 X24.887 Y44.472
N19075 X25.317 Y44.476
N19080 X25.739 Y44.397
N19085 X26.14 Y44.244
N19090 X26.514 Y44.032
N19095 X26.855 Y43.771
N19100 X27.165 Y43.474
N19105 X27.444 Y43.147
N19110 X27.693 Y42.797
N19115 X27.915 Y42.429
N19120 X28.111 Y42.047
N19125 X28.285 Y41.654
N19130 X28.439 Y41.253
N19135 X28.574 Y40.845
N19140 X28.692 Y40.433
N19145 X28.796 Y40.016
N19150 X28.887 Y39.596
N19155 X28.967 Y39.174
N19160 X29.036 Y38.75
N19165 X29.097 Y38.325
N19170 X29.15 Y37.899
N19175 X29.196 Y37.472
N19180 X29.236 Y37.044
N19185 X29.271 Y36.616
N19190 X29.302 Y36.187
N19195 X29.328 Y35.759
N19200 X29.351 Y35.33
N19205 X29.371 Y34.901
N19210 X29.388 Y34.472
N19215 X29.403 Y34.042
N19220 X29.416 Y33.613
N19225 X29.428 Y33.184
N19230 X29.437 Y32.754
N19235 X29.446 Y32.325
N19240 X29.453 Y31.895
N19245 X29.459 Y31.466
N19250 X29.465 Y31.036
N19255 X29.47 Y30.607
N19260 X29.474 Y30.177
N19265 X29.477 Y29.748
N19270 X29.48 Y29.318
N19275 X29.483 Y28.889
N19280 X29.485 Y28.459
N19285 X29.487 Y28.03
N19290 X29.489 Y27.6
N19295 X29.491 Y27.171
N19300 X29.493 Y26.312
N19305 X29.494 Y25.882
N19310 X29.496 Y25.023
N19315 X29.497 Y23.735
N19320 X29.498 Y22.016
N19325 X29.499 Y19.869
N19330 X29.5 Y16.003
N19335 Y12.996
N19340 X29.497 Y12.567
N19345 X29.49 Y12.137
N19350 X29.458 Y11.709
N19355 X29.345 Y11.295
N19360 X29.164 Y10.905
N19365 X28.929 Y10.546
N19370 X28.651 Y10.218
N19375 X28.339 Y9.923
N19380 X28.001 Y9.658
N19385 X27.642 Y9.421
N19390 X27.268 Y9.211
N19395 X26.881 Y9.025
N19400 X26.484 Y8.861
N19405 X26.079 Y8.716
N19410 X25.669 Y8.588
N19415 X25.255 Y8.477
N19420 X24.836 Y8.379
N19425 X24.415 Y8.293
N19430 X23.993 Y8.218
N19435 X23.568 Y8.153
N19440 X23.142 Y8.095
N19445 X22.716 Y8.046
N19450 X22.288 Y8.002
N19455 X21.86 Y7.964
N19460 X21.432 Y7.932
N19465 X21.004 Y7.903
N19470 X20.575 Y7.878
N19475 X20.146 Y7.857
N19480 X19.717 Y7.838
N19485 X19.288 Y7.822
N19490 X18.858 Y7.807
N19495 X18.429 Y7.795
N19500 X17.999 Y7.785
N19505 X17.57 Y7.775
N19510 X17.141 Y7.767
N19515 X16.711 Y7.76
N19520 X16.282 Y7.754
N19525 X15.852 Y7.749
N19530 X15.423 Y7.745
N19535 X14.993 Y7.741
N19540 X14.564 Y7.737
N19545 X14.134 Y7.735
N19550 X13.705 Y7.732
N19555 X13.281 Y7.804
N19560 X12.891 Y7.983
N19565 X12.54 Y8.231
N19570 X12.23 Y8.528
N19575 X11.957 Y8.86
N19580 X11.719 Y9.218
N19585 X11.513 Y9.595
N19590 X11.334 Y9.985
N19595 X11.181 Y10.386
N19600 X11.049 Y10.795
N19605 X10.935 Y11.209
N19610 X10.839 Y11.628
N19615 X10.757 Y12.049
N19620 X10.687 Y12.473
N19625 X10.627 Y12.899
N19630 X10.577 Y13.325
N19635 X10.535 Y13.753
N19640 X10.5 Y14.181
N19645 X10.47 Y14.609
N19650 X10.445 Y15.038
N19655 X10.424 Y15.467
N19660 X10.406 Y15.896
N19665 X10.392 Y16.326
N19670 X10.38 Y16.755
N19675 X10.37 Y17.184
N19680 X10.362 Y17.614
N19685 X10.355 Y18.043
N19690 X10.35 Y18.473
N19695 X10.346 Y18.902
N19700 X10.342 Y19.332
N19705 X10.339 Y19.761
N19710 X10.337 Y20.191
N19715 X10.335 Y20.62
N19720 X10.334 Y21.05
N19725 X10.333 Y21.479
N19730 X10.332 Y21.909
N19735 X10.331 Y22.768
N19740 X10.33 Y24.057
N19745 Y25.345
N19750 Y27.063
N19755 X10.328 Y27.493
N19760 X10.322 Y27.922
N19765 X10.313 Y28.352
N19770 X10.302 Y28.781
N19775 X10.29 Y29.21
N19780 X10.265 Y30.069
N19785 X10.252 Y30.498
N19790 X10.241 Y30.928
N19795 X10.229 Y31.357
N19800 X10.218 Y31.787
N19805 X10.208 Y32.216
N19810 X10.199 Y32.645
N19815 X10.191 Y33.075
N19820 X10.183 Y33.504
N19825 X10.176 Y33.934
N19830 X10.169 Y34.363
N19835 X10.163 Y34.793
N19840 X10.158 Y35.222
N19845 X10.153 Y35.652
N19850 X10.149 Y36.081
N19855 X10.145 Y36.511
N19860 X10.142 Y36.94
N19865 X10.16 Y37.369
N19870 X10.244 Y37.791
N19875 X10.39 Y38.195
N19880 X10.59 Y38.574
N19885 X10.836 Y38.927
N19890 X11.119 Y39.25
N19895 X11.433 Y39.543
N19900 X11.77 Y39.809
N19905 X12.127 Y40.048
N19910 X12.499 Y40.264
N19915 X12.882 Y40.457
N19920 X13.275 Y40.631
N19925 X13.675 Y40.787
N19930 X14.081 Y40.927
N19935 X14.492 Y41.052
N19940 X14.906 Y41.165
N19945 X15.324 Y41.266
N19950 X15.744 Y41.356
N19955 X16.166 Y41.437
N19960 X16.589 Y41.509
N19965 X17.014 Y41.574
N19970 X17.439 Y41.632
N19975 X17.866 Y41.684
N19980 X18.293 Y41.73
N19985 X18.72 Y41.771
N19990 X19.148 Y41.808
N19995 X19.577 Y41.841
N20000 X20.005 Y41.87
N20005 X20.434 Y41.896
N20010 X20.863 Y41.919
N20015 X21.292 Y41.94
N20020 X21.721 Y41.958
N20025 X22.15 Y41.975
N20030 X22.579 Y41.964
N20035 X23.002 Y41.886
N20040 X23.407 Y41.743
N20045 X23.788 Y41.545
N20050 X24.141 Y41.3
N20055 X24.465 Y41.018
N20060 X24.759 Y40.705
N20065 X25.025 Y40.368
N20070 X25.265 Y40.011
N20075 X25.479 Y39.639
N20080 X25.67 Y39.254
N20085 X25.841 Y38.86
N20090 X25.992 Y38.458
N20095 X26.126 Y38.05
N20100 X26.244 Y37.637
N20105 X26.349 Y37.221
N20110 X26.441 Y36.801
N20115 X26.523 Y36.379
N20120 X26.594 Y35.956
N20125 X26.657 Y35.531
N20130 X26.713 Y35.105
N20135 X26.761 Y34.678
N20140 X26.804 Y34.251
N20145 X26.841 Y33.823
N20150 X26.874 Y33.395
N20155 X26.903 Y32.966
N20160 X26.928 Y32.537
N20165 X26.95 Y32.108
N20170 X26.969 Y31.679
N20175 X26.986 Y31.25
N20180 X27. Y30.821
N20185 X27.013 Y30.391
N20190 X27.024 Y29.962
N20195 X27.034 Y29.533
N20200 X27.042 Y29.103
N20205 X27.05 Y28.674
N20210 X27.056 Y28.244
N20215 X27.062 Y27.815
N20220 X27.067 Y27.385
N20225 X27.071 Y26.956
N20230 X27.075 Y26.526
N20235 X27.078 Y26.097
N20240 X27.081 Y25.667
N20245 X27.084 Y25.238
N20250 X27.086 Y24.808
N20255 X27.088 Y24.379
N20260 X27.089 Y23.949
N20265 X27.092 Y23.09
N20270 X27.094 Y22.231
N20275 X27.095 Y21.372
N20280 X27.097 Y20.083
N20285 Y19.654
N20290 X27.098 Y17.936
N20295 X27.099 Y15.788
N20300 Y15.359
N20305 X27.098 Y14.929
N20310 X27.055 Y14.502
N20315 X26.948 Y14.086
N20320 X26.781 Y13.69
N20325 X26.565 Y13.319
N20330 X26.305 Y12.977
N20335 X26.012 Y12.663
N20340 X25.69 Y12.378
N20345 X25.346 Y12.121
N20350 X24.984 Y11.89
N20355 X24.608 Y11.683
N20360 X24.22 Y11.499
N20365 X23.823 Y11.334
N20370 X23.419 Y11.188
N20375 X23.009 Y11.059
N20380 X22.595 Y10.945
N20385 X22.178 Y10.843
N20390 X21.758 Y10.754
N20395 X21.335 Y10.675
N20400 X20.912 Y10.606
N20405 X20.486 Y10.545
N20410 X20.06 Y10.492
N20415 X19.633 Y10.445
N20420 X19.206 Y10.404
N20425 X18.778 Y10.367
N20430 X18.349 Y10.336
N20435 X17.921 Y10.308
N20440 X17.492 Y10.284
N20445 X17.063 Y10.262
N20450 X16.634 Y10.286
N20455 X16.218 Y10.393
N20460 X15.828 Y10.572
N20465 X15.468 Y10.807
N20470 X15.141 Y11.085
N20475 X14.846 Y11.398
N20480 X14.583 Y11.737
N20485 X14.349 Y12.097
N20490 X14.141 Y12.473
N20495 X13.958 Y12.862
N20500 X13.797 Y13.26
N20505 X13.656 Y13.665
N20510 X13.532 Y14.077
N20515 X13.424 Y14.493
N20520 X13.33 Y14.912
N20525 X13.248 Y15.333
N20530 X13.177 Y15.757
N20535 X13.115 Y16.182
N20540 X13.061 Y16.608
N20545 X13.015 Y17.035
N20550 X12.975 Y17.463
N20555 X12.94 Y17.891
N20560 X12.91 Y18.319
N20565 X12.885 Y18.748
N20570 X12.862 Y19.177
N20575 X12.843 Y19.606
N20580 X12.827 Y20.035
N20585 X12.813 Y20.465
N20590 X12.801 Y20.894
N20595 X12.791 Y21.323
N20600 X12.782 Y21.753
N20605 X12.774 Y22.182
N20610 X12.768 Y22.612
N20615 X12.762 Y23.041
N20620 X12.758 Y23.471
N20625 X12.754 Y23.9
N20630 X12.75 Y24.33
N20635 X12.744 Y25.189
N20640 X12.74 Y25.618
N20645 X12.736 Y26.048
N20650 X12.73 Y26.477
N20655 X12.723 Y26.907
N20660 X12.716 Y27.336
N20665 X12.708 Y27.766
N20670 X12.699 Y28.195
N20675 X12.69 Y28.625
N20680 X12.651 Y30.342
N20685 X12.642 Y30.772
N20690 X12.633 Y31.201
N20695 X12.624 Y31.631
N20700 X12.616 Y32.06
N20705 X12.608 Y32.489
N20710 X12.6 Y32.919
N20715 X12.593 Y33.348
N20720 X12.586 Y33.778
N20725 X12.58 Y34.207
N20730 X12.591 Y34.637
N20735 X12.657 Y35.061
N20740 X12.781 Y35.472
N20745 X12.958 Y35.864
N20750 X13.18 Y36.231
N20755 X13.441 Y36.572
N20760 X13.734 Y36.887
N20765 X14.053 Y37.175
N20770 X14.393 Y37.437
N20775 X14.751 Y37.674
N20780 X15.123 Y37.889
N20785 X15.506 Y38.083
N20790 X15.899 Y38.257
N20795 X16.298 Y38.414
N20800 X16.704 Y38.554
N20805 X17.115 Y38.68
N20810 X17.53 Y38.793
N20815 X17.947 Y38.893
N20820 X18.367 Y38.983
N20825 X18.789 Y39.062
N20830 X19.213 Y39.134
N20835 X19.638 Y39.197
N20840 X20.067 Y39.2
N20845 X20.491 Y39.132
N20850 X20.899 Y38.997
N20855 X21.284 Y38.806
N20860 X21.641 Y38.567
N20865 X21.969 Y38.29
N20870 X22.268 Y37.982
N20875 X22.539 Y37.648
N20880 X22.783 Y37.295
N20885 X23.002 Y36.925
N20890 X23.198 Y36.543
N20895 X23.373 Y36.151
N20900 X23.529 Y35.751
N20905 X23.668 Y35.344
N20910 X23.79 Y34.933
N20915 X23.899 Y34.517
N20920 X23.995 Y34.098
N20925 X24.08 Y33.677
N20930 X24.155 Y33.255
N20935 X24.222 Y32.83
N20940 X24.28 Y32.405
N20945 X24.331 Y31.978
N20950 X24.376 Y31.551
N20955 X24.416 Y31.123
N20960 X24.451 Y30.695
N20965 X24.482 Y30.267
N20970 X24.509 Y29.838
N20975 X24.533 Y29.409
N20980 X24.553 Y28.98
N20985 X24.572 Y28.551
N20990 X24.588 Y28.122
N20995 X24.602 Y27.693
N21000 X24.614 Y27.263
N21005 X24.625 Y26.834
N21010 X24.634 Y26.404
N21015 X24.642 Y25.975
N21020 X24.65 Y25.545
N21025 X24.656 Y25.116
N21030 X24.661 Y24.687
N21035 X24.666 Y24.257
N21040 X24.671 Y23.828
N21045 X24.674 Y23.398
N21050 X24.678 Y22.968
N21055 X24.68 Y22.539
N21060 X24.683 Y22.109
N21065 X24.685 Y21.68
N21070 X24.687 Y21.25
N21075 X24.689 Y20.821
N21080 X24.691 Y19.962
N21085 X24.693 Y19.103
N21090 X24.695 Y18.244
N21095 X24.696 Y17.814
N21100 X24.681 Y17.385
N21105 X24.612 Y16.961
N21110 X24.487 Y16.55
N21115 X24.308 Y16.159
N21120 X24.083 Y15.793
N21125 X23.82 Y15.454
N21130 X23.524 Y15.143
N21135 X23.202 Y14.859
N21140 X22.858 Y14.601
N21145 X22.497 Y14.369
N21150 X22.122 Y14.16
N21155 X21.735 Y13.973
N21160 X21.339 Y13.805
N21165 X20.937 Y13.656
N21170 X20.528 Y13.523
N21175 X20.115 Y13.405
N21180 X19.696 Y13.314
N21185 X19.266 Y13.318
N21190 X18.847 Y13.412
N21195 X18.451 Y13.577
N21200 X18.083 Y13.8
N21205 X17.748 Y14.068
N21210 X17.444 Y14.371
N21215 X17.17 Y14.703
N21220 X16.925 Y15.056
N21225 X16.707 Y15.426
N21230 X16.514 Y15.809
N21235 X16.342 Y16.203
N21240 X16.191 Y16.605
N21245 X16.057 Y17.013
N21250 X15.94 Y17.426
N21255 X15.836 Y17.843
N21260 X15.746 Y18.263
N21265 X15.667 Y18.685
