%
(1)
(T5  D=4. CR=0. - ZMIN=-20.498 - FLAT END MILL)
N10 G90 G94 G17 G91.1
N15 G21
N20 G53 G0 Z0.
(ADAPTIVE1)
N25 M9
N30 T5 M6
N35 S2500 M3
N40 G54
N45 M8
N55 G0 X-53.282 Y-23.767
N60 G43 Z15. H5
N65 G0 Z5.
N70 Z-1.2
N75 G1 Z-1.6 F200.
N80 X-53.276 Y-23.762 Z-1.678
N85 X-53.257 Y-23.75 Z-1.753
N90 X-53.226 Y-23.729 Z-1.822
N95 X-53.185 Y-23.702 Z-1.883
N100 X-53.135 Y-23.668 Z-1.933
N105 X-53.077 Y-23.63 Z-1.97
N110 X-53.015 Y-23.588 Z-1.992
N115 X-52.95 Y-23.545 Z-2.
N120 G3 X-51.986 Y-22.739 I-3.237 J4.853
N125 G1 X-51.97 Y-22.722
N130 X-51.958 Y-22.69
N135 X-51.945 Y-22.657
N140 X-51.932 Y-22.623
N145 X-51.919 Y-22.589
N150 X-51.906 Y-22.553
N155 X-51.893 Y-22.516
N160 X-51.879 Y-22.479
N165 X-51.866 Y-22.44
N170 X-51.853 Y-22.401
N175 X-51.84 Y-22.36
N180 X-51.826 Y-22.318
N185 X-51.813 Y-22.275
N190 X-51.8 Y-22.23
N195 X-51.786 Y-22.184
N200 X-51.773 Y-22.137
N205 X-51.759 Y-22.088
N210 X-51.746 Y-22.038
N215 X-51.732 Y-21.986
N220 X-51.718 Y-21.932
N225 X-51.705 Y-21.876
N230 X-51.691 Y-21.819
N235 X-51.677 Y-21.759
N240 X-51.663 Y-21.697
N245 X-51.649 Y-21.632
N250 X-51.635 Y-21.566
N255 X-51.622 Y-21.496
N260 X-51.608 Y-21.423
N265 X-51.594 Y-21.348
N270 X-51.58 Y-21.268
N275 X-51.566 Y-21.186
N280 X-51.551 Y-21.099
N285 X-51.537 Y-21.007
N290 X-51.523 Y-20.911
N295 X-51.509 Y-20.809
N300 X-51.495 Y-20.702
N305 X-51.481 Y-20.588
N310 X-51.466 Y-20.466
N315 X-51.452 Y-20.336
N320 X-51.438 Y-20.196
N325 X-51.423 Y-20.045
N330 X-51.409 Y-19.881
N335 X-51.395 Y-19.702
N340 X-51.38 Y-19.504
N345 X-51.366 Y-19.283
N350 X-51.352 Y-19.034
N355 X-51.337 Y-18.748
N360 X-51.323 Y-18.414
N365 X-51.31 Y-18.051
N370 X-51.299 Y-17.688
N375 X-51.29 Y-17.325
N380 X-51.283 Y-16.963
N385 X-51.277 Y-16.6
N390 X-51.273 Y-16.237
N395 X-51.269 Y-15.874
N400 X-51.266 Y-15.511
N405 X-51.263 Y-15.148
N410 X-51.261 Y-14.785
N415 X-51.259 Y-14.422
N420 X-51.258 Y-14.059
N425 X-51.257 Y-13.697
N430 X-51.255 Y-12.971
N435 X-51.254 Y-12.245
N440 X-51.253 Y-11.156
N445 X-51.252 Y-9.342
N450 Y-7.413
N455 X-51.257 Y-7.311
N460 X-51.274 Y-7.211
N465 X-51.301 Y-7.113
N470 X-51.66 Y-6.055
N475 X-51.701 Y-5.935
N480 X-51.732 Y-5.815
N485 X-51.763 Y-5.695
N490 X-51.788 Y-5.575
N495 X-52.241 Y-3.297
N500 X-52.264 Y-3.177
N505 X-52.286 Y-3.057
N510 X-52.306 Y-2.938
N515 X-52.317 Y-2.818
N520 X-52.329 Y-2.698
N525 X-52.486 Y-0.3
N530 X-52.492 Y-0.18
N535 X-52.497 Y-0.06
N540 Y0.06
N545 X-52.492 Y0.18
N550 X-52.486 Y0.3
N555 X-52.329 Y2.698
N560 X-52.317 Y2.818
N565 X-52.306 Y2.938
N570 X-52.286 Y3.057
N575 X-52.264 Y3.177
N580 X-52.241 Y3.297
N585 X-51.788 Y5.575
N590 X-51.763 Y5.695
N595 X-51.69 Y6.051
N600 X-51.68 Y6.095
N605 X-51.666 Y6.157
N610 X-51.652 Y6.22
N615 X-51.639 Y6.287
N620 X-51.625 Y6.356
N625 X-51.611 Y6.428
N630 X-51.597 Y6.503
N635 X-51.583 Y6.581
N640 X-51.569 Y6.663
N645 X-51.555 Y6.749
N650 X-51.54 Y6.839
N655 X-51.526 Y6.934
N660 X-51.512 Y7.035
N665 X-51.498 Y7.141
N670 X-51.484 Y7.254
N675 X-51.47 Y7.374
N680 X-51.455 Y7.502
N685 X-51.441 Y7.639
N690 X-51.427 Y7.788
N695 X-51.412 Y7.949
N700 X-51.398 Y8.124
N705 X-51.384 Y8.318
N710 X-51.369 Y8.533
N715 X-51.355 Y8.775
N720 X-51.34 Y9.052
N725 X-51.326 Y9.374
N730 X-51.312 Y9.737
N735 X-51.301 Y10.1
N740 X-51.292 Y10.462
N745 X-51.285 Y10.825
N750 X-51.279 Y11.188
N755 X-51.274 Y11.551
N760 X-51.27 Y11.914
N765 X-51.266 Y12.277
N770 X-51.264 Y12.64
N775 X-51.261 Y13.003
N780 X-51.26 Y13.365
N785 X-51.258 Y13.728
N790 X-51.257 Y14.091
N795 X-51.255 Y14.817
N800 X-51.254 Y15.543
N805 X-51.253 Y16.632
N810 X-51.252 Y18.083
N815 Y19.172
N820 X-51.147 Y19.519
N825 X-50.938 Y19.816
N830 X-50.675 Y20.066
N835 X-50.378 Y20.275
N840 X-50.059 Y20.448
N845 X-49.726 Y20.591
N850 X-49.383 Y20.71
N855 X-49.033 Y20.807
N860 X-48.679 Y20.887
N865 X-48.322 Y20.953
N870 X-47.963 Y21.008
N875 X-47.603 Y21.052
N880 X-47.242 Y21.088
N885 X-46.881 Y21.118
N890 X-46.518 Y21.143
N895 X-46.156 Y21.163
N900 X-45.794 Y21.179
N905 X-45.431 Y21.192
N910 X-45.068 Y21.203
N915 X-44.705 Y21.212
N920 X-44.342 Y21.219
N925 X-43.98 Y21.225
N930 X-43.617 Y21.23
N935 X-43.254 Y21.234
N940 X-42.891 Y21.238
N945 X-42.528 Y21.24
N950 X-42.165 Y21.242
N955 X-41.802 Y21.244
N960 X-41.439 Y21.246
N965 X-41.076 Y21.247
N970 X-40.351 Y21.249
N975 X-39.625 Y21.25
N980 X-38.536 Y21.251
N985 X-37.413 Y21.252
N990 X-37.312 Y21.257
N995 X-37.211 Y21.274
N1000 X-37.114 Y21.301
N1005 X-36.164 Y21.623
N1010 X-36.108 Y21.642
N1015 X-35.924 Y21.703
N1020 X-35.804 Y21.736
N1025 X-35.684 Y21.764
N1030 X-35.564 Y21.79
N1035 X-33.165 Y22.268
N1040 X-32.925 Y22.308
N1045 X-32.805 Y22.319
N1050 X-32.685 Y22.329
N1055 X-32.565 Y22.337
N1060 X-30.286 Y22.487
N1065 X-30.166 Y22.493
N1070 X-30.046 Y22.497
N1075 X-29.926 Y22.5
N1080 X49.957
N1085 X50.077 Y22.496
N1090 X50.197 Y22.49
N1095 X50.283 Y22.482
N1100 X50.437 Y22.46
N1105 X50.557 Y22.434
N1110 X50.677 Y22.405
N1115 X50.797 Y22.368
N1120 X50.917 Y22.324
N1125 X51.037 Y22.271
N1130 X51.157 Y22.214
N1135 X51.277 Y22.149
N1140 X51.32 Y22.122
N1145 X51.397 Y22.072
N1150 X51.492 Y22.002
N1155 X51.517 Y21.983
N1160 X51.637 Y21.89
N1165 X51.645 Y21.882
N1170 X51.767 Y21.762
N1175 X51.877 Y21.652
N1180 X51.885 Y21.642
N1185 X51.997 Y21.499
N1190 X52.068 Y21.402
N1195 X52.116 Y21.33
N1200 X52.145 Y21.283
N1205 X52.211 Y21.163
N1210 X52.268 Y21.043
N1215 X52.322 Y20.923
N1220 X52.356 Y20.833
N1225 X52.367 Y20.803
N1230 X52.403 Y20.683
N1235 X52.433 Y20.563
N1240 X52.458 Y20.443
N1245 X52.476 Y20.322
N1250 X52.489 Y20.203
N1255 X52.496 Y20.084
N1260 X52.5 Y19.964
N1265 Y-19.964
N1270 X52.496 Y-20.084
N1275 X52.489 Y-20.203
N1280 X52.476 Y-20.323
N1285 X52.458 Y-20.443
N1290 X52.433 Y-20.563
N1295 X52.403 Y-20.683
N1300 X52.367 Y-20.803
N1305 X52.356 Y-20.833
N1310 X52.322 Y-20.923
N1315 X52.268 Y-21.043
N1320 X52.211 Y-21.163
N1325 X52.145 Y-21.283
N1330 X52.116 Y-21.33
N1335 X52.068 Y-21.402
N1340 X51.997 Y-21.499
N1345 X51.885 Y-21.642
N1350 X51.877 Y-21.652
N1355 X51.767 Y-21.762
N1360 X51.645 Y-21.882
N1365 X51.637 Y-21.89
N1370 X51.517 Y-21.983
N1375 X51.492 Y-22.002
N1380 X51.397 Y-22.072
N1385 X51.32 Y-22.122
N1390 X51.277 Y-22.149
N1395 X51.157 Y-22.214
N1400 X51.037 Y-22.271
N1405 X50.917 Y-22.324
N1410 X50.797 Y-22.368
N1415 X50.677 Y-22.405
N1420 X50.557 Y-22.434
N1425 X50.437 Y-22.46
N1430 X50.283 Y-22.482
N1435 X50.197 Y-22.49
N1440 X50.077 Y-22.496
N1445 X49.957 Y-22.5
N1450 X-29.926
N1455 X-30.046 Y-22.497
N1460 X-30.166 Y-22.493
N1465 X-30.286 Y-22.487
N1470 X-32.565 Y-22.337
N1475 X-32.685 Y-22.329
N1480 X-32.805 Y-22.319
N1485 X-32.925 Y-22.308
N1490 X-33.165 Y-22.268
N1495 X-35.564 Y-21.79
N1500 X-35.684 Y-21.764
N1505 X-36.041 Y-21.698
N1510 X-36.099 Y-21.684
N1515 X-36.16 Y-21.67
N1520 X-36.224 Y-21.656
N1525 X-36.289 Y-21.642
N1530 X-36.358 Y-21.628
N1535 X-36.429 Y-21.615
N1540 X-36.503 Y-21.601
N1545 X-36.581 Y-21.587
N1550 X-36.662 Y-21.573
N1555 X-36.747 Y-21.558
N1560 X-36.836 Y-21.544
N1565 X-36.93 Y-21.53
N1570 X-37.029 Y-21.516
N1575 X-37.134 Y-21.502
N1580 X-37.245 Y-21.488
N1585 X-37.363 Y-21.473
N1590 X-37.489 Y-21.459
N1595 X-37.624 Y-21.445
N1600 X-37.77 Y-21.431
N1605 X-37.928 Y-21.416
N1610 X-38.1 Y-21.402
N1615 X-38.289 Y-21.388
N1620 X-38.499 Y-21.373
N1625 X-38.734 Y-21.359
N1630 X-39.001 Y-21.344
N1635 X-39.312 Y-21.33
N1640 X-39.674 Y-21.316
N1645 X-40.037 Y-21.304
N1650 X-40.4 Y-21.294
N1655 X-40.763 Y-21.287
N1660 X-41.125 Y-21.28
N1665 X-41.488 Y-21.275
N1670 X-41.851 Y-21.271
N1675 X-42.214 Y-21.268
N1680 X-42.577 Y-21.265
N1685 X-42.94 Y-21.262
N1690 X-43.303 Y-21.261
N1695 X-43.666 Y-21.259
N1700 X-44.029 Y-21.258
N1705 X-44.754 Y-21.256
N1710 X-45.48 Y-21.255
N1715 X-46.569 Y-21.254
N1720 X-47.658 Y-21.253
N1725 X-48. Y-21.132
N1730 X-48.283 Y-20.906
N1735 X-48.516 Y-20.627
N1740 X-48.706 Y-20.318
N1745 X-48.861 Y-19.99
N1750 X-48.987 Y-19.65
N1755 X-49.089 Y-19.301
N1760 X-49.171 Y-18.948
N1765 X-49.238 Y-18.591
N1770 X-49.291 Y-18.232
N1775 X-49.334 Y-17.872
N1780 X-49.369 Y-17.51
N1785 X-49.397 Y-17.149
N1790 X-49.419 Y-16.786
N1795 X-49.437 Y-16.424
N1800 X-49.451 Y-16.061
N1805 X-49.463 Y-15.699
N1810 X-49.472 Y-15.336
N1815 X-49.479 Y-14.973
N1820 X-49.485 Y-14.61
N1825 X-49.49 Y-14.247
N1830 X-49.493 Y-13.884
N1835 X-49.496 Y-13.521
N1840 X-49.499 Y-13.158
N1845 X-49.501 Y-12.796
N1850 X-49.502 Y-12.433
N1855 X-49.503 Y-12.07
N1860 X-49.505 Y-11.439
N1865 X-49.516 Y-11.298
N1870 X-49.548 Y-11.16
N1875 X-49.601 Y-11.028
N1880 X-50.693 Y-8.813
N1885 X-50.75 Y-8.693
N1890 X-50.797 Y-8.586
N1895 X-50.802 Y-8.573
N1900 X-50.846 Y-8.453
N1905 X-50.887 Y-8.333
N1910 X-51.301 Y-7.113
N1915 X-51.66 Y-6.055
N1920 X-51.701 Y-5.935
N1925 X-51.704 Y-5.922
N1930 X-51.732 Y-5.815
N1935 X-51.763 Y-5.695
N1940 X-51.788 Y-5.575
N1945 X-52.241 Y-3.297
N1950 X-52.264 Y-3.177
N1955 X-52.286 Y-3.057
N1960 X-52.306 Y-2.938
N1965 X-52.317 Y-2.818
N1970 X-52.329 Y-2.698
N1975 X-52.486 Y-0.3
N1980 X-52.492 Y-0.18
N1985 X-52.497 Y-0.06
N1990 Y0.06
N1995 X-52.492 Y0.18
N2000 X-52.486 Y0.3
N2005 X-52.329 Y2.698
N2010 X-52.317 Y2.818
N2015 X-52.306 Y2.938
N2020 X-52.286 Y3.057
N2025 X-52.264 Y3.177
N2030 X-52.241 Y3.297
N2035 X-52.009 Y4.463
N2040 X-51.788 Y5.575
N2045 X-51.763 Y5.695
N2050 X-51.732 Y5.815
N2055 X-51.7 Y5.935
N2060 X-51.62 Y6.175
N2065 X-50.887 Y8.333
N2070 X-50.844 Y8.453
N2075 X-50.797 Y8.581
N2080 X-50.75 Y8.693
N2085 X-50.693 Y8.813
N2090 X-50.457 Y9.292
N2095 X-50.313 Y9.625
N2100 X-50.191 Y9.967
N2105 X-50.092 Y10.316
N2110 X-50.011 Y10.67
N2115 X-49.946 Y11.027
N2120 X-49.892 Y11.386
N2125 X-49.849 Y11.746
N2130 X-49.813 Y12.108
N2135 X-49.784 Y12.469
N2140 X-49.76 Y12.831
N2145 X-49.741 Y13.194
N2150 X-49.725 Y13.556
N2155 X-49.712 Y13.919
N2160 X-49.701 Y14.282
N2165 X-49.692 Y14.645
N2170 X-49.685 Y15.007
N2175 X-49.679 Y15.37
N2180 X-49.674 Y15.733
N2185 X-49.67 Y16.096
N2190 X-49.667 Y16.459
N2195 X-49.664 Y16.822
N2200 X-49.619 Y17.182
N2205 X-49.489 Y17.521
N2210 X-49.294 Y17.827
N2215 X-49.053 Y18.098
N2220 X-48.778 Y18.335
N2225 X-48.478 Y18.539
N2230 X-48.16 Y18.714
N2235 X-47.829 Y18.864
N2240 X-47.489 Y18.991
N2245 X-47.142 Y19.098
N2250 X-46.791 Y19.189
N2255 X-46.436 Y19.265
N2260 X-46.079 Y19.329
N2265 X-45.72 Y19.383
N2270 X-45.36 Y19.428
N2275 X-44.999 Y19.465
N2280 X-44.637 Y19.497
N2285 X-44.275 Y19.523
N2290 X-43.913 Y19.545
N2295 X-43.551 Y19.563
N2300 X-43.188 Y19.578
N2305 X-42.825 Y19.591
N2310 X-42.463 Y19.601
N2315 X-42.1 Y19.61
N2320 X-41.737 Y19.617
N2325 X-41.374 Y19.623
N2330 X-41.183 Y19.626
N2335 X-41.045 Y19.638
N2340 X-40.911 Y19.67
N2345 X-40.783 Y19.722
N2350 X-38.834 Y20.683
N2355 X-38.683 Y20.756
N2360 X-38.569 Y20.803
N2365 X-38.323 Y20.891
N2370 X-37.114 Y21.301
N2375 G3 X-37.38 Y22.055 I-0.142 J0.374
N2380 X-37.397 Y22.049 I0.124 J-0.38
N2385 G1 X-37.47 Y22.021 Z-1.992
N2390 X-37.54 Y21.995 Z-1.97
N2395 X-37.605 Y21.97 Z-1.933
N2400 X-37.662 Y21.949 Z-1.883
N2405 X-37.708 Y21.931 Z-1.822
N2410 X-37.743 Y21.918 Z-1.753
N2415 X-37.764 Y21.91 Z-1.678
N2420 X-37.771 Y21.907 Z-1.6
N2425 G0 Z5.
N2430 X-51.643 Y8.15
N2435 Z-1.2
N2440 G1 Z-1.6 F200.
N2445 X-51.637 Y8.154 Z-1.678
N2450 X-51.618 Y8.166 Z-1.753
N2455 X-51.587 Y8.186 Z-1.822
N2460 X-51.545 Y8.214 Z-1.883
N2465 X-51.494 Y8.247 Z-1.933
N2470 X-51.436 Y8.284 Z-1.97
N2475 X-51.373 Y8.325 Z-1.992
N2480 X-51.308 Y8.368 Z-2.
N2485 G3 X-50.457 Y9.292 I-1.38 J2.123
N2490 G1 X-49.598 Y11.035
N2495 X-49.568 Y11.091
N2500 X-49.478 Y11.258
N2505 X-49.436 Y11.331
N2510 X-49.358 Y11.451
N2515 X-49.118 Y11.81
N2520 X-48.945 Y12.099
N2525 X-48.802 Y12.389
N2530 X-48.668 Y12.726
N2535 X-48.558 Y13.072
N2540 X-48.469 Y13.424
N2545 X-48.395 Y13.779
N2550 X-48.335 Y14.137
N2555 X-48.285 Y14.496
N2560 X-48.244 Y14.857
N2565 X-48.192 Y15.216
N2570 X-48.079 Y15.561
N2575 X-47.91 Y15.882
N2580 X-47.694 Y16.173
N2585 X-47.441 Y16.434
N2590 X-47.161 Y16.664
N2595 X-46.859 Y16.866
N2600 X-46.541 Y17.041
N2605 X-46.211 Y17.192
N2610 X-45.872 Y17.322
N2615 X-45.526 Y17.433
N2620 X-45.176 Y17.528
N2625 X-44.823 Y17.61
N2630 X-44.466 Y17.679
N2635 X-44.108 Y17.737
N2640 X-44.018 Y17.75
N2645 X-43.873 Y17.782
N2650 X-43.735 Y17.836
N2655 X-43.607 Y17.912
N2660 G3 X-44.077 Y18.56 I-0.242 J0.318
N2665 X-44.092 Y18.549 I0.227 J-0.329
N2670 G1 X-44.154 Y18.502 Z-1.992
N2675 X-44.213 Y18.456 Z-1.97
N2680 X-44.268 Y18.414 Z-1.933
N2685 X-44.317 Y18.378 Z-1.883
N2690 X-44.356 Y18.347 Z-1.822
N2695 X-44.386 Y18.325 Z-1.753
N2700 X-44.404 Y18.311 Z-1.678
N2705 X-44.41 Y18.307 Z-1.6
N2710 G0 Z5.
N2715 X-50.443 Y10.832
N2720 Z-1.2
N2725 G1 Z-1.6 F200.
N2730 X-50.436 Y10.835 Z-1.678
N2735 X-50.416 Y10.845 Z-1.753
N2740 X-50.382 Y10.861 Z-1.822
N2745 X-50.337 Y10.882 Z-1.883
N2750 X-50.283 Y10.909 Z-1.933
N2755 X-50.22 Y10.938 Z-1.97
N2760 X-50.153 Y10.971 Z-1.992
N2765 X-50.082 Y11.004 Z-2.
N2770 G3 X-49.118 Y11.81 I-1.091 J2.285
N2775 G1 X-48.038 Y13.426
N2780 X-47.996 Y13.489
N2785 X-47.824 Y13.729
N2790 X-47.798 Y13.762
N2795 X-47.724 Y13.849
N2800 X-47.304 Y14.328
N2805 X-46.147 Y15.647
N2810 X-46.119 Y15.679
N2815 X-45.931 Y15.887
N2820 X-45.879 Y15.94
N2825 X-45.805 Y16.007
N2830 X-45.639 Y16.154
N2835 X-43.96 Y17.627
N2840 X-43.84 Y17.731
N2845 X-43.754 Y17.805
N2850 X-43.72 Y17.832
N2855 X-43.588 Y17.925
N2860 X-43.48 Y18.001
N2865 X-43.415 Y18.045
N2870 X-41.441 Y19.364
N2875 X-41.321 Y19.443
N2880 X-41.253 Y19.484
N2885 X-41.201 Y19.513
N2890 X-41.081 Y19.574
N2895 X-41.022 Y19.604
N2900 X-40.783 Y19.722
N2905 G3 X-40.62 Y20.264 I-0.189 J0.352
N2910 X-41.161 Y20.427 I-0.352 J-0.189
N2915 G1 X-41.23 Y20.39 Z-1.992
N2920 X-41.296 Y20.354 Z-1.97
N2925 X-41.357 Y20.321 Z-1.933
N2930 X-41.411 Y20.293 Z-1.883
N2935 X-41.454 Y20.269 Z-1.822
N2940 X-41.487 Y20.252 Z-1.753
N2945 X-41.507 Y20.241 Z-1.678
N2950 X-41.514 Y20.237 Z-1.6
N2955 G0 Z5.
N2960 X-34.306 Y-22.667
N2965 Z-1.2
N2970 G1 Z-1.6 F200.
N2975 X-34.312 Y-22.662 Z-1.678
N2980 X-34.328 Y-22.646 Z-1.753
N2985 X-34.355 Y-22.62 Z-1.822
N2990 X-34.39 Y-22.586 Z-1.883
N2995 X-34.434 Y-22.543 Z-1.933
N3000 X-34.484 Y-22.495 Z-1.97
N3005 X-34.537 Y-22.443 Z-1.992
N3010 X-34.593 Y-22.389 Z-2.
N3015 G3 X-35.684 Y-21.764 I-1.764 J-1.816
N3020 G1 X-35.804 Y-21.736
N3025 X-35.924 Y-21.703
N3030 X-36.108 Y-21.642
N3035 X-36.164 Y-21.623
N3040 X-38.323 Y-20.891
N3045 X-38.569 Y-20.803
N3050 X-38.683 Y-20.756
N3055 X-38.834 Y-20.683
N3060 X-39.282 Y-20.462
N3065 X-39.615 Y-20.318
N3070 X-39.957 Y-20.195
N3075 X-40.306 Y-20.095
N3080 X-40.66 Y-20.014
N3085 X-41.016 Y-19.948
N3090 X-41.375 Y-19.895
N3095 X-41.736 Y-19.851
N3100 X-42.097 Y-19.815
N3105 X-42.458 Y-19.786
N3110 X-42.821 Y-19.762
N3115 X-43.183 Y-19.742
N3120 X-43.545 Y-19.726
N3125 X-43.908 Y-19.713
N3130 X-44.271 Y-19.702
N3135 X-44.634 Y-19.693
N3140 X-44.997 Y-19.686
N3145 X-45.359 Y-19.68
N3150 X-45.71 Y-19.587
N3155 X-46.031 Y-19.417
N3160 X-46.315 Y-19.192
N3165 X-46.563 Y-18.927
N3170 X-46.777 Y-18.634
N3175 X-46.96 Y-18.32
N3180 X-47.115 Y-17.992
N3185 X-47.246 Y-17.654
N3190 X-47.357 Y-17.308
N3195 X-47.45 Y-16.957
N3200 X-47.528 Y-16.603
N3205 X-47.593 Y-16.246
N3210 X-47.647 Y-15.887
N3215 X-47.692 Y-15.527
N3220 X-47.729 Y-15.166
N3225 X-47.76 Y-14.804
N3230 X-47.786 Y-14.442
N3235 X-47.807 Y-14.08
N3240 X-47.811 Y-14.003
N3245 X-47.837 Y-13.827
N3250 X-47.895 Y-13.659
N3255 X-47.984 Y-13.505
N3260 X-47.996 Y-13.489
N3265 X-48.076 Y-13.369
N3270 X-49.358 Y-11.451
N3275 X-49.436 Y-11.331
N3280 X-49.478 Y-11.258
N3285 X-49.568 Y-11.091
N3290 X-49.598 Y-11.035
N3295 X-49.601 Y-11.028
N3300 G3 X-50.314 Y-11.391 I-0.352 J-0.189
N3305 X-50.306 Y-11.407 I0.361 J0.173
N3310 G1 X-50.269 Y-11.476 Z-1.992
N3315 X-50.233 Y-11.542 Z-1.97
N3320 X-50.2 Y-11.603 Z-1.933
N3325 X-50.172 Y-11.656 Z-1.883
N3330 X-50.148 Y-11.7 Z-1.822
N3335 X-50.131 Y-11.732 Z-1.753
N3340 X-50.12 Y-11.752 Z-1.678
N3345 X-50.116 Y-11.759 Z-1.6
N3350 G0 Z5.
N3355 X-38.14 Y-21.648
N3360 Z-1.2
N3365 G1 Z-1.6 F200.
N3370 X-38.144 Y-21.642 Z-1.678
N3375 X-38.156 Y-21.623 Z-1.753
N3380 X-38.176 Y-21.592 Z-1.822
N3385 X-38.203 Y-21.55 Z-1.883
N3390 X-38.236 Y-21.499 Z-1.933
N3395 X-38.274 Y-21.441 Z-1.97
N3400 X-38.315 Y-21.378 Z-1.992
N3405 X-38.358 Y-21.313 Z-2.
N3410 G3 X-39.282 Y-20.462 I-2.123 J-1.38
N3415 G1 X-41.022 Y-19.604
N3420 X-41.249 Y-19.484
N3425 X-41.321 Y-19.442
N3430 X-41.441 Y-19.364
N3435 X-41.8 Y-19.124
N3440 X-42.099 Y-18.946
N3445 X-42.389 Y-18.803
N3450 X-42.726 Y-18.669
N3455 X-43.072 Y-18.559
N3460 X-43.424 Y-18.47
N3465 X-43.767 Y-18.352
N3470 X-44.089 Y-18.184
N3475 X-44.383 Y-17.972
N3480 X-44.648 Y-17.724
N3485 X-44.883 Y-17.447
N3490 X-45.089 Y-17.148
N3495 X-45.268 Y-16.833
N3500 X-45.423 Y-16.505
N3505 X-45.439 Y-16.466
N3510 X-45.502 Y-16.336
N3515 X-45.585 Y-16.218
N3520 X-45.685 Y-16.113
N3525 G3 X-46.253 Y-16.171 I-0.256 J-0.308
N3530 X-46.186 Y-16.737 I0.312 J-0.25
N3535 G1 X-42.279 Y-19.765
N3540 G3 X-42.268 Y-19.774 I0.245 J0.316
N3545 X-41.8 Y-19.124 I0.234 J0.325
N3550 G1 X-43.415 Y-18.045
N3555 X-43.48 Y-18.001
N3560 X-43.6 Y-17.917
N3565 X-43.72 Y-17.832
N3570 X-43.754 Y-17.805
N3575 X-43.84 Y-17.731
N3580 X-43.96 Y-17.627
N3585 X-45.639 Y-16.154
N3590 X-45.805 Y-16.007
N3595 X-45.879 Y-15.94
N3600 X-45.931 Y-15.887
N3605 X-46.119 Y-15.679
N3610 X-46.253 Y-15.527
N3615 X-47.678 Y-13.901
N3620 X-47.724 Y-13.849
N3625 X-47.765 Y-13.801
N3630 G3 X-48.447 Y-13.969 I-0.295 J-0.27
N3635 G1 X-48.454 Y-14.021 Z-1.997
N3640 X-48.46 Y-14.071 Z-1.986
N3645 X-48.446 Y-14.134 Z-1.963
N3650 X-48.433 Y-14.192 Z-1.928
N3655 X-48.421 Y-14.243 Z-1.885
N3660 X-48.398 Y-14.279 Z-1.835
N3665 X-48.38 Y-14.307 Z-1.78
N3670 X-48.367 Y-14.328 Z-1.72
N3675 X-48.358 Y-14.338 Z-1.661
N3680 X-48.355 Y-14.341 Z-1.6
N3685 G0 Z5.
N3690 X-29.524 Y1.821
N3695 Z2.9
N3700 G1 Z2.5 F200.
N3705 G3 X-30.569 Y-1.833 Z2.292 I-0.522 J-1.827
N3710 X-29.524 Y1.821 Z2.083 I0.522 J1.827
N3715 X-30.569 Y-1.833 Z1.875 I-0.522 J-1.827
N3720 X-29.524 Y1.821 Z1.666 I0.522 J1.827
N3725 X-30.569 Y-1.833 Z1.458 I-0.522 J-1.827
N3730 X-29.524 Y1.821 Z1.249 I0.522 J1.827
N3735 X-30.569 Y-1.833 Z1.041 I-0.522 J-1.827
N3740 X-29.524 Y1.821 Z0.832 I0.522 J1.827
N3745 X-30.569 Y-1.833 Z0.624 I-0.522 J-1.827
N3750 X-29.524 Y1.821 Z0.416 I0.522 J1.827
N3755 X-30.569 Y-1.833 Z0.207 I-0.522 J-1.827
N3760 X-29.524 Y1.821 Z-0.001 I0.522 J1.827
N3765 X-30.569 Y-1.833 Z-0.21 I-0.522 J-1.827
N3770 X-29.524 Y1.821 Z-0.418 I0.522 J1.827
N3775 X-30.569 Y-1.833 Z-0.627 I-0.522 J-1.827
N3780 X-29.524 Y1.821 Z-0.835 I0.522 J1.827
N3785 X-30.569 Y-1.833 Z-1.044 I-0.522 J-1.827
N3790 X-29.524 Y1.821 Z-1.252 I0.522 J1.827
N3795 X-30.569 Y-1.833 Z-1.46 I-0.522 J-1.827
N3800 X-29.524 Y1.821 Z-1.669 I0.522 J1.827
N3805 X-30.569 Y-1.833 Z-1.877 I-0.522 J-1.827
N3810 X-28.146 Y-0.006 Z-2. I0.522 J1.827
N3815 X-31.946 I-1.9 J0.
N3820 X-28.146 I1.9 J0.
N3825 G1 X-28.145 Y0.175
N3830 X-28.109 Y0.353
N3835 X-27.975 Y0.675
N3840 X-27.952 Y0.746
N3845 X-27.933 Y0.825
N3850 X-27.92 Y0.912
N3855 X-27.913 Y1.008
N3860 X-27.914 Y1.111
N3865 X-27.923 Y1.222
N3870 X-27.943 Y1.338
N3875 X-27.974 Y1.459
N3880 X-28.016 Y1.585
N3885 X-28.072 Y1.713
N3890 X-28.141 Y1.843
N3895 X-28.224 Y1.973
N3900 X-28.321 Y2.1
N3905 X-28.433 Y2.225
N3910 X-28.558 Y2.344
N3915 X-28.698 Y2.457
N3920 X-28.851 Y2.562
N3925 X-29.016 Y2.656
N3930 X-29.193 Y2.739
N3935 X-29.381 Y2.81
N3940 X-29.578 Y2.866
N3945 X-29.782 Y2.907
N3950 X-29.993 Y2.932
N3955 X-30.209 Y2.94
N3960 X-30.428 Y2.931
N3965 X-30.649 Y2.903
N3970 X-30.868 Y2.858
N3975 X-31.086 Y2.794
N3980 X-31.3 Y2.713
N3985 X-31.508 Y2.614
N3990 X-31.709 Y2.497
N3995 X-31.901 Y2.364
N4000 X-32.083 Y2.215
N4005 X-32.253 Y2.052
N4010 X-32.411 Y1.874
N4015 X-32.554 Y1.684
N4020 X-32.681 Y1.482
N4025 X-32.792 Y1.27
N4030 X-32.887 Y1.049
N4035 X-32.963 Y0.82
N4040 X-33.021 Y0.586
N4045 X-33.06 Y0.348
N4050 X-33.079 Y0.107
N4055 X-33.08 Y-0.135
N4060 X-33.061 Y-0.377
N4065 X-33.022 Y-0.617
N4070 X-32.964 Y-0.853
N4075 X-32.888 Y-1.084
N4080 X-32.793 Y-1.308
N4085 X-32.68 Y-1.523
N4090 X-32.551 Y-1.73
N4095 X-32.405 Y-1.925
N4100 X-32.244 Y-2.108
N4105 X-32.069 Y-2.277
N4110 X-31.88 Y-2.432
N4115 X-31.68 Y-2.572
N4120 X-31.469 Y-2.694
N4125 X-31.249 Y-2.8
N4130 X-31.021 Y-2.887
N4135 X-30.787 Y-2.956
N4140 X-30.548 Y-3.006
N4145 X-30.306 Y-3.037
N4150 X-30.062 Y-3.048
N4155 X-29.818 Y-3.04
N4160 X-29.575 Y-3.012
N4165 X-29.336 Y-2.964
N4170 X-29.101 Y-2.898
N4175 X-28.872 Y-2.813
N4180 X-28.65 Y-2.709
N4185 X-28.438 Y-2.589
N4190 X-28.236 Y-2.451
N4195 X-28.045 Y-2.298
N4200 X-27.868 Y-2.13
N4205 X-27.705 Y-1.948
N4210 X-27.556 Y-1.754
N4215 X-27.36 Y-1.449
N4220 X-27.185 Y-1.131
N4225 X-27.026 Y-0.805
N4230 X-26.891 Y-0.472
N4235 X-26.795 Y-0.168
N4240 X-26.728 Y0.124
N4245 X-26.688 Y0.404
N4250 X-26.67 Y0.677
N4255 X-26.674 Y0.944
N4260 X-26.7 Y1.207
N4265 X-26.746 Y1.466
N4270 X-26.813 Y1.72
N4275 X-26.9 Y1.969
N4280 X-27.007 Y2.211
N4285 X-27.135 Y2.446
N4290 X-27.282 Y2.672
N4295 X-27.449 Y2.888
N4300 X-27.635 Y3.092
N4305 X-27.839 Y3.282
N4310 X-28.061 Y3.458
N4315 X-28.298 Y3.617
N4320 X-28.551 Y3.759
N4325 X-28.817 Y3.881
N4330 X-29.096 Y3.983
N4335 X-29.386 Y4.063
N4340 X-29.686 Y4.12
N4345 X-29.992 Y4.154
N4350 X-30.304 Y4.163
N4355 X-30.619 Y4.146
N4360 X-30.934 Y4.104
N4365 X-31.247 Y4.037
N4370 X-31.557 Y3.943
N4375 X-31.86 Y3.825
N4380 X-32.155 Y3.681
N4385 X-32.439 Y3.513
N4390 X-32.709 Y3.322
N4395 X-32.965 Y3.109
N4400 X-33.204 Y2.875
N4405 X-33.425 Y2.621
N4410 X-33.625 Y2.35
N4415 X-33.803 Y2.063
N4420 X-33.958 Y1.761
N4425 X-34.088 Y1.447
N4430 X-34.193 Y1.123
N4435 X-34.272 Y0.791
N4440 X-34.325 Y0.453
N4445 X-34.349 Y0.111
N4450 X-34.347 Y-0.232
N4455 X-34.317 Y-0.574
N4460 X-34.259 Y-0.913
N4465 X-34.174 Y-1.247
N4470 X-34.063 Y-1.573
N4475 X-33.926 Y-1.89
N4480 X-33.763 Y-2.194
N4485 X-33.577 Y-2.485
N4490 X-33.368 Y-2.76
N4495 X-33.137 Y-3.017
N4500 X-32.886 Y-3.255
N4505 X-32.617 Y-3.473
N4510 X-32.331 Y-3.668
N4515 X-32.031 Y-3.84
N4520 X-31.717 Y-3.987
N4525 X-31.393 Y-4.108
N4530 X-31.06 Y-4.203
N4535 X-30.72 Y-4.271
N4540 X-30.376 Y-4.311
N4545 X-30.03 Y-4.324
N4550 X-29.683 Y-4.309
N4555 X-29.339 Y-4.266
N4560 X-29. Y-4.196
N4565 X-28.667 Y-4.098
N4570 X-28.343 Y-3.974
N4575 X-28.03 Y-3.825
N4580 X-27.73 Y-3.651
N4585 X-27.437 Y-3.447
N4590 X-27.156 Y-3.217
N4595 X-26.894 Y-2.966
N4600 X-26.65 Y-2.698
N4605 X-26.424 Y-2.414
N4610 X-26.216 Y-2.117
N4615 X-26.027 Y-1.807
N4620 X-25.859 Y-1.485
N4625 X-25.713 Y-1.153
N4630 X-25.59 Y-0.811
N4635 X-25.492 Y-0.462
N4640 X-25.419 Y-0.107
N4645 X-25.372 Y0.253
N4650 X-25.353 Y0.616
N4655 X-25.361 Y0.979
N4660 X-25.396 Y1.34
N4665 X-25.46 Y1.697
N4670 X-25.55 Y2.049
N4675 X-25.668 Y2.392
N4680 X-25.811 Y2.725
N4685 X-25.98 Y3.046
N4690 X-26.173 Y3.354
N4695 X-26.389 Y3.645
N4700 X-26.627 Y3.92
N4705 X-26.884 Y4.176
N4710 X-27.16 Y4.412
N4715 X-27.452 Y4.626
N4720 X-27.76 Y4.819
N4725 X-28.081 Y4.987
N4730 X-28.414 Y5.132
N4735 X-28.757 Y5.252
N4740 X-29.107 Y5.348
N4745 X-29.463 Y5.418
N4750 X-29.823 Y5.463
N4755 X-30.185 Y5.483
N4760 X-30.548 Y5.478
N4765 X-30.91 Y5.447
N4770 X-31.268 Y5.391
N4775 X-31.622 Y5.31
N4780 X-31.97 Y5.206
N4785 X-32.31 Y5.079
N4790 X-32.64 Y4.929
N4795 X-32.96 Y4.757
N4800 X-33.267 Y4.564
N4805 X-33.561 Y4.35
N4810 X-33.84 Y4.118
N4815 X-34.103 Y3.869
N4820 X-34.349 Y3.602
N4825 X-34.576 Y3.319
N4830 X-34.785 Y3.022
N4835 X-34.974 Y2.712
N4840 X-35.142 Y2.39
N4845 X-35.289 Y2.059
N4850 X-35.413 Y1.718
N4855 X-35.515 Y1.369
N4860 X-35.595 Y1.015
N4865 X-35.652 Y0.657
N4870 X-35.685 Y0.295
N4875 X-35.694 Y-0.067
N4880 X-35.68 Y-0.43
N4885 X-35.642 Y-0.791
N4890 X-35.582 Y-1.149
N4895 X-35.499 Y-1.502
N4900 X-35.392 Y-1.849
N4905 X-35.264 Y-2.188
N4910 X-35.114 Y-2.519
N4915 X-34.943 Y-2.839
N4920 X-34.752 Y-3.148
N4925 X-34.542 Y-3.443
N4930 X-34.312 Y-3.724
N4935 X-34.065 Y-3.991
N4940 X-33.802 Y-4.241
N4945 X-33.524 Y-4.473
N4950 X-33.23 Y-4.687
N4955 X-32.924 Y-4.881
N4960 X-32.606 Y-5.056
N4965 X-32.277 Y-5.21
N4970 X-31.94 Y-5.343
N4975 X-31.594 Y-5.453
N4980 X-31.242 Y-5.541
N4985 X-30.885 Y-5.606
N4990 X-30.524 Y-5.649
N4995 X-30.162 Y-5.668
N5000 X-29.799 Y-5.664
N5005 X-29.437 Y-5.636
N5010 X-29.078 Y-5.586
N5015 X-28.722 Y-5.513
N5020 X-28.372 Y-5.417
N5025 X-28.029 Y-5.298
N5030 X-27.695 Y-5.158
N5035 X-27.369 Y-4.998
N5040 X-27.054 Y-4.817
N5045 X-26.751 Y-4.618
N5050 X-26.46 Y-4.4
N5055 X-26.183 Y-4.167
N5060 X-25.919 Y-3.918
N5065 X-25.668 Y-3.655
N5070 X-25.433 Y-3.379
N5075 X-25.213 Y-3.09
N5080 X-25.009 Y-2.79
N5085 X-24.822 Y-2.479
N5090 X-24.651 Y-2.159
N5095 X-24.499 Y-1.829
N5100 X-24.366 Y-1.492
N5105 X-24.252 Y-1.147
N5110 X-24.157 Y-0.797
N5115 X-24.082 Y-0.442
N5120 X-24.029 Y-0.083
N5125 X-23.996 Y0.279
N5130 X-23.983 Y0.641
N5135 X-23.992 Y1.004
N5140 X-24.023 Y1.366
N5145 X-24.075 Y1.725
N5150 X-24.148 Y2.08
N5155 X-24.241 Y2.431
N5160 X-24.356 Y2.775
N5165 X-24.491 Y3.112
N5170 X-24.645 Y3.441
N5175 X-24.819 Y3.759
N5180 X-25.011 Y4.067
N5185 X-25.221 Y4.363
N5190 X-25.448 Y4.646
N5195 X-25.692 Y4.915
N5200 X-25.95 Y5.17
N5205 X-26.223 Y5.409
N5210 X-26.51 Y5.632
N5215 X-26.809 Y5.837
N5220 X-27.119 Y6.025
N5225 X-27.44 Y6.196
N5230 X-27.77 Y6.347
N5235 X-28.108 Y6.479
N5240 X-28.453 Y6.591
N5245 X-28.803 Y6.685
N5250 X-29.159 Y6.759
N5255 X-29.518 Y6.812
N5260 X-29.879 Y6.845
N5265 X-30.242 Y6.858
N5270 X-30.605 Y6.852
N5275 X-30.967 Y6.825
N5280 X-31.326 Y6.779
N5285 X-31.683 Y6.712
N5290 X-32.036 Y6.627
N5295 X-32.384 Y6.523
N5300 X-32.725 Y6.4
N5305 X-33.059 Y6.259
N5310 X-33.385 Y6.099
N5315 X-33.703 Y5.923
N5320 X-34.01 Y5.73
N5325 X-34.307 Y5.522
N5330 X-34.592 Y5.297
N5335 X-34.865 Y5.058
N5340 X-35.124 Y4.804
N5345 X-35.371 Y4.537
N5350 X-35.602 Y4.258
N5355 X-35.819 Y3.967
N5360 X-36.02 Y3.665
N5365 X-36.205 Y3.352
N5370 X-36.373 Y3.031
N5375 X-36.524 Y2.701
N5380 X-36.658 Y2.364
N5385 X-36.774 Y2.02
N5390 X-36.872 Y1.67
N5395 X-36.951 Y1.316
N5400 X-37.013 Y0.958
N5405 X-37.055 Y0.598
N5410 X-37.078 Y0.236
N5415 X-37.083 Y-0.127
N5420 X-37.069 Y-0.49
N5425 X-37.036 Y-0.851
N5430 X-36.984 Y-1.21
N5435 X-36.914 Y-1.566
N5440 X-36.825 Y-1.918
N5445 X-36.719 Y-2.265
N5450 X-36.595 Y-2.606
N5455 X-36.453 Y-2.94
N5460 X-36.294 Y-3.267
N5465 X-36.118 Y-3.584
N5470 X-35.927 Y-3.892
N5475 X-35.72 Y-4.19
N5480 X-35.497 Y-4.477
N5485 X-35.26 Y-4.752
N5490 X-35.009 Y-5.014
N5495 X-34.745 Y-5.263
N5500 X-34.469 Y-5.498
N5505 X-34.181 Y-5.719
N5510 X-33.881 Y-5.924
N5515 X-33.572 Y-6.114
N5520 X-33.253 Y-6.287
N5525 X-32.926 Y-6.445
N5530 X-32.591 Y-6.584
N5535 X-32.249 Y-6.707
N5540 X-31.902 Y-6.811
N5545 X-31.55 Y-6.898
N5550 X-31.193 Y-6.966
N5555 X-30.834 Y-7.016
N5560 X-30.472 Y-7.047
N5565 X-30.109 Y-7.06
N5570 X-29.747 Y-7.054
N5575 X-29.384 Y-7.03
N5580 X-29.024 Y-6.987
N5585 X-28.667 Y-6.925
N5590 X-28.313 Y-6.844
N5595 X-27.963 Y-6.746
N5600 X-27.619 Y-6.631
N5605 X-27.281 Y-6.498
N5610 X-26.951 Y-6.349
N5615 X-26.628 Y-6.182
N5620 X-26.314 Y-6.001
N5625 X-26.009 Y-5.804
N5630 X-25.713 Y-5.594
N5635 X-25.428 Y-5.369
N5640 X-25.154 Y-5.131
N5645 X-24.892 Y-4.881
N5650 X-24.641 Y-4.619
N5655 X-24.402 Y-4.345
N5660 X-24.175 Y-4.062
N5665 X-23.963 Y-3.768
N5670 X-23.764 Y-3.464
N5675 X-23.579 Y-3.152
N5680 X-23.409 Y-2.831
N5685 X-23.253 Y-2.504
N5690 X-23.112 Y-2.169
N5695 X-22.987 Y-1.828
N5700 X-22.879 Y-1.482
N5705 X-22.787 Y-1.131
N5710 X-22.71 Y-0.776
N5715 X-22.651 Y-0.418
N5720 X-22.609 Y-0.058
N5725 X-22.584 Y0.304
N5730 X-22.576 Y0.667
N5735 X-22.585 Y1.03
N5740 X-22.611 Y1.392
N5745 X-22.655 Y1.752
N5750 X-22.717 Y2.11
N5755 X-22.795 Y2.464
N5760 X-22.89 Y2.814
N5765 X-23.002 Y3.16
N5770 X-23.13 Y3.499
N5775 X-23.275 Y3.832
N5780 X-23.435 Y4.158
N5785 X-23.611 Y4.475
N5790 X-23.802 Y4.784
N5795 X-24.007 Y5.083
N5800 X-24.226 Y5.372
N5805 X-24.46 Y5.65
N5810 X-24.706 Y5.917
N5815 X-24.964 Y6.172
N5820 X-25.234 Y6.414
N5825 X-25.516 Y6.643
N5830 X-25.808 Y6.859
N5835 X-26.11 Y7.06
N5840 X-26.421 Y7.247
N5845 X-26.74 Y7.419
N5850 X-27.068 Y7.576
N5855 X-27.402 Y7.718
N5860 X-27.742 Y7.844
N5865 X-28.088 Y7.954
N5870 X-28.439 Y8.047
N5875 X-28.793 Y8.125
N5880 X-29.151 Y8.187
N5885 X-29.511 Y8.231
N5890 X-29.873 Y8.259
N5895 X-30.235 Y8.271
N5900 X-30.598 Y8.266
N5905 X-30.961 Y8.245
N5910 X-31.322 Y8.208
N5915 X-31.68 Y8.154
N5920 X-32.036 Y8.084
N5925 X-32.389 Y7.998
N5930 X-32.737 Y7.896
N5935 X-33.081 Y7.779
N5940 X-33.419 Y7.647
N5945 X-33.751 Y7.5
N5950 X-34.076 Y7.338
N5955 X-34.393 Y7.162
N5960 X-34.702 Y6.972
N5965 X-35.003 Y6.769
N5970 X-35.294 Y6.553
N5975 X-35.576 Y6.324
N5980 X-35.847 Y6.082
N5985 X-36.107 Y5.829
N5990 X-36.356 Y5.566
N5995 X-36.594 Y5.291
N6000 X-36.819 Y5.006
N6005 X-37.031 Y4.712
N6010 X-37.23 Y4.409
N6015 X-37.416 Y4.097
N6020 X-37.588 Y3.778
N6025 X-37.747 Y3.451
N6030 X-37.89 Y3.118
N6035 X-38.02 Y2.779
N6040 X-38.134 Y2.434
N6045 X-38.233 Y2.085
N6050 X-38.317 Y1.732
N6055 X-38.386 Y1.376
N6060 X-38.44 Y1.017
N6065 X-38.477 Y0.656
N6070 X-38.499 Y0.294
N6075 X-38.506 Y-0.069
N6080 X-38.497 Y-0.432
N6085 X-38.472 Y-0.794
N6090 X-38.432 Y-1.155
N6095 X-38.376 Y-1.513
N6100 X-38.304 Y-1.869
N6105 X-38.218 Y-2.222
N6110 X-38.116 Y-2.57
N6115 X-38. Y-2.914
N6120 X-37.869 Y-3.252
N6125 X-37.723 Y-3.585
N6130 X-37.563 Y-3.91
N6135 X-37.39 Y-4.229
N6140 X-37.203 Y-4.54
N6145 X-37.003 Y-4.843
N6150 X-36.789 Y-5.137
N6155 X-36.564 Y-5.421
N6160 X-36.326 Y-5.695
N6165 X-36.077 Y-5.959
N6170 X-35.817 Y-6.212
N6175 X-35.547 Y-6.454
N6180 X-35.266 Y-6.684
N6185 X-34.975 Y-6.901
N6190 X-34.675 Y-7.106
N6195 X-34.367 Y-7.298
N6200 X-34.052 Y-7.477
N6205 X-33.728 Y-7.642
N6210 X-33.398 Y-7.792
N6215 X-33.062 Y-7.929
N6220 X-32.72 Y-8.051
N6225 X-32.373 Y-8.158
N6230 X-32.022 Y-8.251
N6235 X-31.668 Y-8.328
N6240 X-31.31 Y-8.389
N6245 X-30.95 Y-8.436
N6250 X-30.589 Y-8.467
N6255 X-30.226 Y-8.483
N6260 X-29.863
N6265 X-29.501 Y-8.467
N6270 X-29.139 Y-8.436
N6275 X-28.779 Y-8.39
N6280 X-28.422 Y-8.328
N6285 X-28.067 Y-8.251
N6290 X-27.716 Y-8.16
N6295 X-27.369 Y-8.053
N6300 X-27.027 Y-7.932
N6305 X-26.69 Y-7.796
N6310 X-26.359 Y-7.647
N6315 X-26.035 Y-7.485
N6320 X-25.717 Y-7.309
N6325 X-25.407 Y-7.121
N6330 X-25.105 Y-6.92
N6335 X-24.811 Y-6.707
N6340 X-24.526 Y-6.482
N6345 X-24.25 Y-6.246
N6350 X-23.983 Y-6.
N6355 X-23.726 Y-5.744
N6360 X-23.48 Y-5.478
N6365 X-23.244 Y-5.202
N6370 X-23.02 Y-4.917
N6375 X-22.806 Y-4.623
N6380 X-22.604 Y-4.321
N6385 X-22.414 Y-4.012
N6390 X-22.236 Y-3.696
N6395 X-22.071 Y-3.373
N6400 X-21.918 Y-3.044
N6405 X-21.779 Y-2.709
N6410 X-21.653 Y-2.368
N6415 X-21.54 Y-2.024
N6420 X-21.44 Y-1.675
N6425 X-21.355 Y-1.322
N6430 X-21.284 Y-0.966
N6435 X-21.227 Y-0.608
N6440 X-21.184 Y-0.247
N6445 X-21.155 Y0.115
N6450 X-21.141 Y0.477
N6455 X-21.142 Y0.84
N6460 X-21.157 Y1.203
N6465 X-21.187 Y1.564
N6470 X-21.231 Y1.925
N6475 X-21.29 Y2.283
N6480 X-21.362 Y2.638
N6485 X-21.449 Y2.991
N6490 X-21.551 Y3.339
N6495 X-21.666 Y3.683
N6500 X-21.795 Y4.022
N6505 X-21.938 Y4.356
N6510 X-22.094 Y4.684
N6515 X-22.263 Y5.005
N6520 X-22.444 Y5.319
N6525 X-22.639 Y5.626
N6530 X-22.846 Y5.924
N6535 X-23.064 Y6.214
N6540 X-23.294 Y6.495
N6545 X-23.534 Y6.766
N6550 X-23.786 Y7.028
N6555 X-24.048 Y7.279
N6560 X-24.32 Y7.519
N6565 X-24.601 Y7.749
N6570 X-24.891 Y7.967
N6575 X-25.189 Y8.174
N6580 X-25.496 Y8.368
N6585 X-25.809 Y8.551
N6590 X-26.13 Y8.72
N6595 X-26.458 Y8.877
N6600 X-26.791 Y9.02
N6605 X-27.129 Y9.151
N6610 X-27.473 Y9.269
N6615 X-27.821 Y9.373
N6620 X-28.172 Y9.463
N6625 X-28.527 Y9.539
N6630 X-28.884 Y9.601
N6635 X-29.244 Y9.649
N6640 X-29.605 Y9.684
N6645 X-29.968 Y9.705
N6650 X-30.331 Y9.712
N6655 X-30.693 Y9.704
N6660 X-31.056 Y9.682
N6665 X-31.417 Y9.647
N6670 X-31.776 Y9.598
N6675 X-32.134 Y9.536
N6680 X-32.489 Y9.459
N6685 X-32.84 Y9.37
N6690 X-33.188 Y9.266
N6695 X-33.532 Y9.15
N6700 X-33.871 Y9.021
N6705 X-34.205 Y8.879
N6710 X-34.534 Y8.725
N6715 X-34.856 Y8.558
N6720 X-35.172 Y8.379
N6725 X-35.481 Y8.188
N6730 X-35.782 Y7.986
N6735 X-36.076 Y7.773
N6740 X-36.361 Y7.549
N6745 X-36.638 Y7.315
N6750 X-36.906 Y7.07
N6755 X-37.165 Y6.815
N6760 X-37.414 Y6.551
N6765 X-37.652 Y6.278
N6770 X-37.881 Y5.996
N6775 X-38.099 Y5.706
N6780 X-38.306 Y5.408
N6785 X-38.502 Y5.102
N6790 X-38.686 Y4.789
N6795 X-38.858 Y4.47
N6800 X-39.019 Y4.144
N6805 X-39.167 Y3.813
N6810 X-39.304 Y3.477
N6815 X-39.427 Y3.136
N6820 X-39.538 Y2.79
N6825 X-39.636 Y2.441
N6830 X-39.72 Y2.088
N6835 X-39.792 Y1.732
N6840 X-39.851 Y1.374
N6845 X-39.897 Y1.014
N6850 X-39.929 Y0.652
N6855 X-39.948 Y0.29
N6860 X-39.953 Y-0.073
N6865 X-39.945 Y-0.436
N6870 X-39.924 Y-0.798
N6875 X-39.889 Y-1.159
N6880 X-39.842 Y-1.519
N6885 X-39.781 Y-1.877
N6890 X-39.707 Y-2.232
N6895 X-39.619 Y-2.584
N6900 X-39.519 Y-2.933
N6905 X-39.407 Y-3.278
N6910 X-39.281 Y-3.619
N6915 X-39.144 Y-3.955
N6920 X-38.994 Y-4.285
N6925 X-38.832 Y-4.61
N6930 X-38.658 Y-4.928
N6935 X-38.472 Y-5.24
N6940 X-38.276 Y-5.545
N6945 X-38.068 Y-5.843
N6950 X-37.85 Y-6.133
N6955 X-37.621 Y-6.414
N6960 X-37.382 Y-6.687
N6965 X-37.133 Y-6.951
N6970 X-36.874 Y-7.206
N6975 X-36.607 Y-7.451
N6980 X-36.33 Y-7.686
N6985 X-36.046 Y-7.911
N6990 X-35.753 Y-8.126
N6995 X-35.452 Y-8.329
N7000 X-35.144 Y-8.521
N7005 X-34.83 Y-8.702
N7010 X-34.509 Y-8.871
N7015 X-34.182 Y-9.029
N7020 X-33.849 Y-9.174
N7025 X-33.511 Y-9.307
N7030 X-33.169 Y-9.428
N7035 X-32.823 Y-9.536
N7040 X-32.472 Y-9.631
N7045 X-32.119 Y-9.713
N7050 X-31.763 Y-9.783
N7055 X-31.404 Y-9.839
N7060 X-31.044 Y-9.883
N7065 X-30.682 Y-9.912
N7070 X-30.32 Y-9.929
N7075 X-29.957 Y-9.932
N7080 X-29.594 Y-9.923
N7085 X-29.232 Y-9.9
N7090 X-28.871 Y-9.864
N7095 X-28.511 Y-9.815
N7100 X-28.154 Y-9.752
N7105 X-27.799 Y-9.677
N7110 X-27.447 Y-9.589
N7115 X-27.098 Y-9.488
N7120 X-26.753 Y-9.375
N7125 X-26.413 Y-9.25
N7130 X-26.077 Y-9.113
N7135 X-25.746 Y-8.963
N7140 X-25.421 Y-8.802
N7145 X-25.101 Y-8.63
N7150 X-24.788 Y-8.447
N7155 X-24.481 Y-8.253
N7160 X-24.181 Y-8.049
N7165 X-23.889 Y-7.834
N7170 X-23.604 Y-7.609
N7175 X-23.327 Y-7.374
N7180 X-23.058 Y-7.131
N7185 X-22.798 Y-6.878
N7190 X-22.546 Y-6.617
N7195 X-22.303 Y-6.347
N7200 X-22.07 Y-6.069
N7205 X-21.846 Y-5.783
N7210 X-21.632 Y-5.49
N7215 X-21.428 Y-5.19
N7220 X-21.234 Y-4.883
N7225 X-21.051 Y-4.57
N7230 X-20.879 Y-4.25
N7235 X-20.717 Y-3.925
N7240 X-20.567 Y-3.595
N7245 X-20.428 Y-3.26
N7250 X-20.3 Y-2.92
N7255 X-20.184 Y-2.576
N7260 X-20.08 Y-2.229
N7265 X-19.987 Y-1.878
N7270 X-19.907 Y-1.524
N7275 X-19.838 Y-1.167
N7280 X-19.783 Y-0.809
N7285 X-19.739 Y-0.449
N7290 X-19.708 Y-0.087
N7295 X-19.689 Y0.275
N7300 X-19.682 Y0.638
N7305 X-19.689 Y1.001
N7310 X-19.707 Y1.364
N7315 X-19.739 Y1.725
N7320 X-19.782 Y2.085
N7325 X-19.839 Y2.444
N7330 X-19.907 Y2.8
N7335 X-19.988 Y3.154
N7340 X-20.081 Y3.505
N7345 X-20.186 Y3.852
N7350 X-20.303 Y4.196
N7355 X-20.432 Y4.535
N7360 X-20.573 Y4.869
N7365 X-20.725 Y5.199
N7370 X-20.888 Y5.523
N7375 X-21.063 Y5.841
N7380 X-21.248 Y6.153
N7385 X-21.444 Y6.458
N7390 X-21.651 Y6.757
N7395 X-21.868 Y7.048
N7400 X-22.095 Y7.331
N7405 X-22.331 Y7.606
N7410 X-22.577 Y7.874
N7415 X-22.832 Y8.132
N7420 X-23.095 Y8.381
N7425 X-23.367 Y8.622
N7430 X-23.647 Y8.852
N7435 X-23.935 Y9.073
N7440 X-24.23 Y9.284
N7445 X-24.533 Y9.485
N7450 X-24.842 Y9.676
N7455 X-25.157 Y9.855
N7460 X-25.478 Y10.024
N7465 X-25.805 Y10.182
N7470 X-26.137 Y10.328
N7475 X-26.474 Y10.463
N7480 X-26.815 Y10.587
N7485 X-27.16 Y10.699
N7490 X-27.509 Y10.8
N7495 X-27.861 Y10.888
N7500 X-28.216 Y10.965
N7505 X-28.573 Y11.029
N7510 X-28.932 Y11.082
N7515 X-29.293 Y11.123
N7520 X-29.654 Y11.151
N7525 X-30.017 Y11.168
N7530 X-30.38 Y11.172
N7535 X-30.743 Y11.164
N7540 X-31.105 Y11.144
N7545 X-31.466 Y11.112
N7550 X-31.827 Y11.068
N7555 X-32.185 Y11.012
N7560 X-32.542 Y10.945
N7565 X-32.896 Y10.865
N7570 X-33.247 Y10.774
N7575 X-33.595 Y10.671
N7580 X-33.94 Y10.557
N7585 X-34.28 Y10.432
N7590 X-34.617 Y10.295
N7595 X-34.948 Y10.148
N7600 X-35.275 Y9.99
N7605 X-35.596 Y9.821
N7610 X-35.912 Y9.641
N7615 X-36.221 Y9.452
N7620 X-36.524 Y9.252
N7625 X-36.821 Y9.043
N7630 X-37.11 Y8.824
N7635 X-37.393 Y8.596
N7640 X-37.667 Y8.359
N7645 X-37.934 Y8.113
N7650 X-38.193 Y7.858
N7655 X-38.443 Y7.595
N7660 X-38.684 Y7.325
N7665 X-38.917 Y7.046
N7670 X-39.141 Y6.76
N7675 X-39.355 Y6.468
N7680 X-39.56 Y6.168
N7685 X-39.754 Y5.862
N7690 X-39.939 Y5.549
N7695 X-40.114 Y5.231
N7700 X-40.278 Y4.907
N7705 X-40.432 Y4.579
N7710 X-40.575 Y4.245
N7715 X-40.708 Y3.907
N7720 X-40.829 Y3.565
N7725 X-40.939 Y3.22
N7730 X-41.038 Y2.87
N7735 X-41.126 Y2.518
N7740 X-41.202 Y2.164
N7745 X-41.268 Y1.807
N7750 X-41.321 Y1.448
N7755 X-41.363 Y1.087
N7760 X-41.394 Y0.726
N7765 X-41.412 Y0.363
N7770 X-41.419 Y0.
N7775 X-41.415 Y-0.363
N7780 X-41.399 Y-0.725
N7785 X-41.371 Y-1.087
N7790 X-41.332 Y-1.448
N7795 X-41.281 Y-1.807
N7800 X-41.219 Y-2.165
N7805 X-41.145 Y-2.52
N7810 X-41.06 Y-2.873
N7815 X-40.963 Y-3.223
N7820 X-40.856 Y-3.569
N7825 X-40.738 Y-3.912
N7830 X-40.609 Y-4.252
N7835 X-40.468 Y-4.586
N7840 X-40.318 Y-4.916
N7845 X-40.156 Y-5.241
N7850 X-39.985 Y-5.561
N7855 X-39.803 Y-5.875
N7860 X-39.612 Y-6.184
N7865 X-39.41 Y-6.486
N7870 X-39.2 Y-6.781
N7875 X-38.979 Y-7.07
N7880 X-38.75 Y-7.351
N7885 X-38.512 Y-7.625
N7890 X-38.265 Y-7.891
N7895 X-38.01 Y-8.149
N7900 X-37.746 Y-8.399
N7905 X-37.476 Y-8.64
N7910 X-37.197 Y-8.873
N7915 X-36.911 Y-9.096
N7920 X-36.618 Y-9.31
N7925 X-36.318 Y-9.515
N7930 X-36.012 Y-9.71
N7935 X-35.7 Y-9.895
N7940 X-35.383 Y-10.071
N7945 X-35.059 Y-10.236
N7950 X-34.731 Y-10.391
N7955 X-34.398 Y-10.535
N7960 X-34.06 Y-10.668
N7965 X-33.719 Y-10.79
N7970 X-33.374 Y-10.902
N7975 X-33.025 Y-11.003
N7980 X-32.673 Y-11.092
N7985 X-32.319 Y-11.171
N7990 X-31.962 Y-11.237
N7995 X-31.603 Y-11.293
N8000 X-31.243 Y-11.337
N8005 X-30.882 Y-11.369
N8010 X-30.519 Y-11.39
N8015 X-30.157 Y-11.4
N8020 X-29.794 Y-11.398
N8025 X-29.431 Y-11.384
N8030 X-29.069 Y-11.359
N8035 X-28.708 Y-11.322
N8040 X-28.348 Y-11.274
N8045 X-27.99 Y-11.215
N8050 X-27.634 Y-11.144
N8055 X-27.281 Y-11.062
N8060 X-26.93 Y-10.97
N8065 X-26.582 Y-10.866
N8070 X-26.238 Y-10.751
N8075 X-25.897 Y-10.626
N8080 X-25.561 Y-10.49
N8085 X-25.229 Y-10.344
N8090 X-24.901 Y-10.187
N8095 X-24.579 Y-10.021
N8100 X-24.261 Y-9.845
N8105 X-23.949 Y-9.659
N8110 X-23.644 Y-9.464
N8115 X-23.344 Y-9.259
N8120 X-23.05 Y-9.046
N8125 X-22.764 Y-8.823
N8130 X-22.484 Y-8.592
N8135 X-22.211 Y-8.353
N8140 X-21.945 Y-8.106
N8145 X-21.687 Y-7.851
N8150 X-21.436 Y-7.588
N8155 X-21.194 Y-7.318
N8160 X-20.96 Y-7.041
N8165 X-20.734 Y-6.757
N8170 X-20.517 Y-6.466
N8175 X-20.308 Y-6.169
N8180 X-20.109 Y-5.866
N8185 X-19.918 Y-5.557
N8190 X-19.737 Y-5.243
N8195 X-19.565 Y-4.923
N8200 X-19.404 Y-4.598
N8205 X-19.251 Y-4.269
N8210 X-19.109 Y-3.935
N8215 X-18.977 Y-3.597
N8220 X-18.854 Y-3.255
N8225 X-18.742 Y-2.91
N8230 X-18.641 Y-2.562
N8235 X-18.55 Y-2.21
N8240 X-18.47 Y-1.856
N8245 X-18.4 Y-1.5
N8250 X-18.341 Y-1.142
N8255 X-18.293 Y-0.782
N8260 X-18.255 Y-0.421
N8265 X-18.229 Y-0.059
N8270 X-18.213 Y0.303
N8275 X-18.208 Y0.666
N8280 X-18.215 Y1.029
N8285 X-18.232 Y1.391
N8290 X-18.261 Y1.753
N8295 X-18.3 Y2.114
N8300 X-18.35 Y2.473
N8305 X-18.411 Y2.831
N8310 X-18.483 Y3.187
N8315 X-18.566 Y3.54
N8320 X-18.659 Y3.891
N8325 X-18.763 Y4.239
N8330 X-18.878 Y4.583
N8335 X-19.002 Y4.924
N8340 X-19.137 Y5.261
N8345 X-19.283 Y5.593
N8350 X-19.438 Y5.921
N8355 X-19.603 Y6.244
N8360 X-19.778 Y6.562
N8365 X-19.963 Y6.875
N8370 X-20.157 Y7.181
N8375 X-20.36 Y7.482
N8380 X-20.572 Y7.777
N8385 X-20.793 Y8.065
N8390 X-21.022 Y8.346
N8395 X-21.26 Y8.62
N8400 X-21.507 Y8.886
N8405 X-21.761 Y9.145
N8410 X-22.023 Y9.396
N8415 X-22.292 Y9.64
N8420 X-22.569 Y9.875
N8425 X-22.852 Y10.102
N8430 X-23.142 Y10.32
N8435 X-23.376 Y10.485
N8440 X-23.386 Y10.491
N8445 X-23.449 Y10.532
N8450 X-23.689 Y10.677
N8455 X-23.791 Y10.731
N8460 X-24.529 Y11.118
N8465 X-24.649 Y11.176
N8470 X-24.889 Y11.291
N8475 X-25.009 Y11.348
N8480 X-25.129 Y11.404
N8485 X-25.369 Y11.51
N8490 X-25.488 Y11.553
N8495 X-26.208 Y11.793
N8500 X-26.259 Y11.81
N8505 X-26.448 Y11.87
N8510 X-26.568 Y11.907
N8515 X-27.062 Y12.05
N8520 X-27.168 Y12.076
N8525 X-27.288 Y12.103
N8530 X-27.408 Y12.128
N8535 X-28.127 Y12.245
N8540 X-28.247 Y12.265
N8545 X-28.487 Y12.298
N8550 X-28.607 Y12.314
N8555 X-28.967 Y12.357
N8560 X-29.087 Y12.371
N8565 X-29.327 Y12.384
N8570 X-29.447 Y12.387
N8575 X-30.166
N8580 X-30.286 Y12.386
N8585 X-30.406 Y12.383
N8590 X-30.526 Y12.38
N8595 X-31.006 Y12.361
N8600 X-31.126 Y12.353
N8605 X-31.366 Y12.328
N8610 X-31.486 Y12.308
N8615 X-32.205 Y12.191
N8620 X-32.325 Y12.17
N8625 X-32.445 Y12.147
N8630 X-32.565 Y12.124
N8635 X-33.045 Y12.026
N8640 X-33.165 Y11.993
N8645 X-33.285 Y11.959
N8650 X-33.382 Y11.93
N8655 X-34.125 Y11.682
N8660 X-34.245 Y11.641
N8665 X-34.364 Y11.598
N8670 X-34.964 Y11.37
N8675 X-35.064 Y11.331
N8680 X-35.084 Y11.321
N8685 X-35.324 Y11.195
N8690 X-35.804 Y10.944
N8695 X-35.924 Y10.88
N8700 X-36.044 Y10.816
N8705 X-36.164 Y10.75
N8710 X-36.643 Y10.473
N8715 X-36.763 Y10.402
N8720 X-37.003 Y10.231
N8725 X-37.123 Y10.142
N8730 X-37.603 Y9.782
N8735 X-37.771 Y9.652
N8740 X-37.843 Y9.594
N8745 X-38.212 Y9.292
N8750 X-38.323 Y9.2
N8755 X-38.443 Y9.09
N8760 X-38.481 Y9.053
N8765 X-38.941 Y8.573
N8770 X-39.042 Y8.467
N8775 X-39.167 Y8.333
N8780 X-39.279 Y8.213
N8785 X-39.522 Y7.939
N8790 X-39.597 Y7.854
N8795 X-39.762 Y7.661
N8800 X-39.796 Y7.614
N8805 X-40.293 Y6.894
N8810 X-40.362 Y6.794
N8815 X-40.453 Y6.655
N8820 X-40.722 Y6.23
N8825 X-40.842 Y6.028
N8830 X-40.895 Y5.935
N8835 X-41.293 Y5.096
N8840 X-41.4 Y4.856
N8845 X-41.441 Y4.76
N8850 X-41.605 Y4.376
N8855 X-41.656 Y4.257
N8860 X-41.681 Y4.177
N8865 X-41.732 Y4.017
N8870 X-41.768 Y3.897
N8875 X-41.976 Y3.177
N8880 X-42.008 Y3.057
N8885 X-42.068 Y2.818
N8890 X-42.127 Y2.578
N8895 X-42.161 Y2.439
N8900 X-42.186 Y2.338
N8905 X-42.209 Y2.218
N8910 X-42.34 Y1.139
N8915 X-42.379 Y0.659
N8920 X-42.401 Y0.381
N8925 X-42.407 Y0.3
N8930 X-42.405 Y0.18
N8935 X-42.366 Y-0.779
N8940 X-42.359 Y-0.899
N8945 X-42.34 Y-1.139
N8950 X-42.301 Y-1.619
N8955 X-42.287 Y-1.739
N8960 X-42.239 Y-1.978
N8965 X-42.067 Y-2.818
N8970 X-42.038 Y-2.938
N8975 X-41.891 Y-3.537
N8980 X-41.86 Y-3.657
N8985 X-41.816 Y-3.777
N8990 X-41.543 Y-4.496
N8995 X-41.496 Y-4.616
N9000 X-41.441 Y-4.756
N9005 X-41.401 Y-4.856
N9010 X-41.196 Y-5.336
N9015 X-41.139 Y-5.456
N9020 X-41.078 Y-5.575
N9025 X-41.015 Y-5.695
N9030 X-40.722 Y-6.204
N9035 X-40.6 Y-6.415
N9040 X-40.529 Y-6.535
N9045 X-40.226 Y-7.014
N9050 X-40.148 Y-7.134
N9055 X-39.971 Y-7.374
N9060 X-39.873 Y-7.494
N9065 X-39.522 Y-7.924
N9070 X-39.402 Y-8.068
N9075 X-39.381 Y-8.093
N9080 X-39.282 Y-8.209
N9085 X-38.922 Y-8.615
N9090 X-38.85 Y-8.693
N9095 X-38.802 Y-8.743
N9100 X-38.733 Y-8.813
N9105 X-38.191 Y-9.292
N9110 X-38.083 Y-9.388
N9115 X-37.917 Y-9.532
N9120 X-37.843 Y-9.594
N9125 X-37.331 Y-10.012
N9130 X-37.243 Y-10.071
N9135 X-37.123 Y-10.15
N9140 X-37.003 Y-10.228
N9145 X-36.524 Y-10.531
N9150 X-36.393 Y-10.611
N9155 X-36.196 Y-10.731
N9160 X-36.164 Y-10.75
N9165 X-35.684 Y-11.027
N9170 X-35.564 Y-11.089
N9175 X-35.324 Y-11.196
N9180 X-34.844 Y-11.401
N9185 X-34.724 Y-11.452
N9190 X-34.484 Y-11.552
N9195 X-34.005 Y-11.734
N9200 X-33.885 Y-11.778
N9205 X-33.645 Y-11.858
N9210 X-33.525 Y-11.889
N9215 X-32.805 Y-12.067
N9220 X-32.685 Y-12.094
N9225 X-32.565 Y-12.122
N9230 X-32.445 Y-12.148
N9235 X-31.966 Y-12.246
N9240 X-31.846 Y-12.265
N9245 X-31.674 Y-12.29
N9250 X-31.606 Y-12.298
N9255 X-30.886 Y-12.356
N9260 X-30.766 Y-12.365
N9265 X-30.526 Y-12.38
N9270 X-30.406 Y-12.385
N9275 X-30.046 Y-12.4
N9280 X-29.926 Y-12.404
N9285 X-29.687 Y-12.4
N9290 X-29.567 Y-12.393
N9295 X-28.847 Y-12.334
N9300 X-28.727 Y-12.323
N9305 X-28.607 Y-12.312
N9310 X-28.487 Y-12.299
N9315 X-28.007 Y-12.241
N9320 X-27.887 Y-12.222
N9325 X-27.767 Y-12.201
N9330 X-27.648 Y-12.178
N9335 X-26.928 Y-12.001
N9340 X-26.808 Y-11.971
N9345 X-26.568 Y-11.907
N9350 X-26.448 Y-11.872
N9355 X-26.088 Y-11.768
N9360 X-25.968 Y-11.733
N9365 X-25.848 Y-11.688
N9370 X-25.728 Y-11.642
N9375 X-25.608 Y-11.594
N9380 X-24.889 Y-11.287
N9385 X-24.769 Y-11.233
N9390 X-24.529 Y-11.12
N9395 X-24.289 Y-11.006
N9400 X-24.219 Y-10.971
N9405 X-23.985 Y-10.851
N9410 X-23.929 Y-10.817
N9415 X-23.21 Y-10.362
N9420 X-23.09 Y-10.285
N9425 X-22.97 Y-10.204
N9430 X-22.61 Y-9.956
N9435 X-22.521 Y-9.892
N9440 X-22.363 Y-9.772
N9445 X-22.25 Y-9.683
N9450 X-21.65 Y-9.152
N9455 X-21.539 Y-9.053
N9460 X-21.41 Y-8.931
N9465 X-21.037 Y-8.573
N9470 X-20.931 Y-8.466
N9475 X-20.918 Y-8.453
N9480 X-20.811 Y-8.331
N9485 X-20.323 Y-7.734
N9490 X-20.226 Y-7.614
N9495 X-20.041 Y-7.374
N9500 X-19.731 Y-6.962
N9505 X-19.686 Y-6.894
N9510 X-19.611 Y-6.781
N9515 X-19.192 Y-6.055
N9520 X-19.131 Y-5.949
N9525 X-18.995 Y-5.695
N9530 X-18.932 Y-5.575
N9535 X-18.869 Y-5.456
N9540 X-18.807 Y-5.336
N9545 X-18.745 Y-5.216
N9550 X-18.685 Y-5.096
N9555 X-18.652 Y-5.009
N9560 X-18.321 Y-4.137
N9565 X-18.292 Y-4.058
N9570 X-18.278 Y-4.017
N9575 X-18.237 Y-3.897
N9580 X-18.077 Y-3.417
N9585 X-18.038 Y-3.297
N9590 X-18.006 Y-3.177
N9595 X-17.835 Y-2.338
N9600 X-17.811 Y-2.218
N9605 X-17.767 Y-1.978
N9610 X-17.689 Y-1.499
N9615 X-17.673 Y-1.379
N9620 X-17.649 Y-1.139
N9625 X-17.644 Y-1.019
N9630 X-17.615 Y-0.3
N9635 X-17.612 Y-0.18
N9640 X-17.61 Y-0.06
N9645 X-17.608 Y0.06
N9650 Y0.54
N9655 X-17.614 Y0.659
N9660 X-17.621 Y0.779
N9665 X-17.631 Y0.899
N9670 X-17.733 Y1.739
N9675 X-17.767 Y1.978
N9680 X-17.845 Y2.458
N9685 X-17.867 Y2.578
N9690 X-17.921 Y2.818
N9695 X-17.932 Y2.86
N9700 X-18.163 Y3.657
N9705 X-18.172 Y3.687
N9710 X-18.238 Y3.897
N9715 X-18.277 Y4.017
N9720 X-18.437 Y4.496
N9725 X-18.486 Y4.616
N9730 X-18.539 Y4.736
N9735 X-18.593 Y4.856
N9740 X-18.821 Y5.336
N9745 X-18.878 Y5.456
N9750 X-18.935 Y5.575
N9755 X-18.994 Y5.695
N9760 X-19.251 Y6.185
N9765 X-19.314 Y6.295
N9770 X-19.385 Y6.415
N9775 X-19.459 Y6.535
N9780 X-19.971 Y7.277
N9785 X-20.041 Y7.374
N9790 X-20.451 Y7.919
N9795 X-20.495 Y7.973
N9800 X-20.571 Y8.064
N9805 X-20.598 Y8.093
N9810 X-21.174 Y8.693
N9815 X-21.29 Y8.813
N9820 X-21.412 Y8.933
N9825 X-21.661 Y9.172
N9830 X-21.786 Y9.292
N9835 X-21.89 Y9.388
N9840 X-21.918 Y9.412
N9845 X-22.01 Y9.491
N9850 X-22.73 Y10.032
N9855 X-22.85 Y10.121
N9860 X-23.038 Y10.252
N9865 X-23.376 Y10.485
N9870 G3 X-23.991 Y10.147 I-0.216 J-0.337
N9875 G1 X-23.978 Y10.088 Z-1.995
N9880 X-23.965 Y10.03 Z-1.981
N9885 X-23.952 Y9.975 Z-1.958
N9890 X-23.919 Y9.933 Z-1.926
N9895 X-23.889 Y9.895 Z-1.885
N9900 X-23.863 Y9.863 Z-1.837
N9905 X-23.843 Y9.837 Z-1.783
N9910 X-23.822 Y9.821 Z-1.72
N9915 X-23.811 Y9.813 Z-1.661
N9920 X-23.807 Y9.811 Z-1.6
N9925 G0 Z5.
N9930 X-40.539 Y-1.995
N9935 Z-1.
N9940 G1 Z-1.4 F200.
N9945 X-40.547 Y-1.996 Z-1.478
N9950 X-40.569 Y-2.001 Z-1.553
N9955 X-40.605 Y-2.009 Z-1.622
N9960 X-40.654 Y-2.019 Z-1.683
N9965 X-40.713 Y-2.032 Z-1.733
N9970 X-40.78 Y-2.047 Z-1.77
N9975 X-40.854 Y-2.063 Z-1.792
N9980 X-40.93 Y-2.079 Z-1.8
N9985 G3 X-42.123 Y-2.475 I1.23 J-5.702
N9990 G1 X-42.135 Y-2.481
N9995 X-42.143 Y-2.493
N10000 X-42.144 Y-2.507
N10005 X-42.08 Y-2.818
N10010 X-42.027 Y-3.057
N10015 X-41.999 Y-3.177
N10020 X-41.969 Y-3.297
N10025 X-41.939 Y-3.417
N10030 X-41.871 Y-3.657
N10035 X-41.829 Y-3.777
N10040 X-41.441 Y-4.8
N10045 X-41.418 Y-4.856
N10050 X-41.319 Y-5.096
N10055 X-41.201 Y-5.371
N10060 X-41.158 Y-5.456
N10065 X-41.081 Y-5.6
N10070 X-41.03 Y-5.695
N10075 X-40.602 Y-6.437
N10080 X-40.545 Y-6.535
N10085 X-40.474 Y-6.655
N10090 X-40.4 Y-6.774
N10095 X-40.172 Y-7.134
N10100 X-40.122 Y-7.203
N10105 X-39.987 Y-7.374
N10110 X-39.762 Y-7.65
N10115 X-39.302 Y-8.213
N10120 X-39.197 Y-8.333
N10125 X-39.162 Y-8.373
N10130 X-39.042 Y-8.508
N10135 X-38.982 Y-8.573
N10140 X-38.802 Y-8.764
N10145 X-38.752 Y-8.813
N10150 X-37.94 Y-9.532
N10155 X-37.843 Y-9.617
N10160 X-37.801 Y-9.652
N10165 X-37.483 Y-9.912
N10170 X-37.357 Y-10.012
N10175 X-37.243 Y-10.091
N10180 X-36.23 Y-10.731
N10185 X-36.164 Y-10.772
N10190 X-35.804 Y-10.979
N10195 X-35.684 Y-11.049
N10200 X-35.603 Y-11.091
N10205 X-35.564 Y-11.108
N10210 X-34.478 Y-11.571
N10215 X-34.364 Y-11.618
N10220 X-34.005 Y-11.754
N10225 X-33.885 Y-11.797
N10230 X-33.645 Y-11.871
N10235 X-33.525 Y-11.902
N10240 X-32.565 Y-12.139
N10245 X-32.445 Y-12.166
N10250 X-32.325 Y-12.192
N10255 X-31.966 Y-12.265
N10260 X-31.846 Y-12.283
N10265 X-31.726 Y-12.297
N10270 X-31.606 Y-12.311
N10275 X-30.526 Y-12.398
N10280 X-30.406 Y-12.403
N10285 X-30.262 Y-12.41
N10290 X-30.046 Y-12.419
N10295 X-29.926 Y-12.422
N10300 X-29.687 Y-12.413
N10305 X-29.623 Y-12.41
N10310 X-28.607 Y-12.328
N10315 X-28.487 Y-12.317
N10320 X-28.247 Y-12.289
N10325 X-28.007 Y-12.26
N10330 X-27.887 Y-12.24
N10335 X-27.767 Y-12.216
N10340 X-27.648 Y-12.191
N10345 X-26.568 Y-11.925
N10350 X-26.448 Y-11.892
N10355 X-26.088 Y-11.788
N10360 X-25.968 Y-11.752
N10365 X-25.848 Y-11.705
N10370 X-25.728 Y-11.657
N10375 X-25.608 Y-11.607
N10380 X-24.889 Y-11.301
N10385 X-24.769 Y-11.248
N10390 X-24.649 Y-11.195
N10395 X-24.529 Y-11.141
N10400 X-24.289 Y-11.027
N10405 X-24.182 Y-10.971
N10410 X-24.049 Y-10.9
N10415 X-23.959 Y-10.851
N10420 X-22.97 Y-10.225
N10425 X-22.85 Y-10.144
N10430 X-22.61 Y-9.979
N10435 X-22.489 Y-9.892
N10440 X-22.338 Y-9.772
N10445 X-22.25 Y-9.7
N10450 X-21.519 Y-9.053
N10455 X-21.41 Y-8.955
N10460 X-21.26 Y-8.813
N10465 X-21.135 Y-8.693
N10470 X-21.01 Y-8.573
N10475 X-20.931 Y-8.495
N10480 X-20.895 Y-8.453
N10485 X-20.811 Y-8.351
N10490 X-20.306 Y-7.734
N10495 X-20.209 Y-7.614
N10500 X-20.017 Y-7.374
N10505 X-19.731 Y-6.993
N10510 X-19.668 Y-6.894
N10515 X-19.611 Y-6.804
N10520 X-19.593 Y-6.774
N10525 X-19.131 Y-5.975
N10530 X-19.109 Y-5.935
N10535 X-18.974 Y-5.695
N10540 X-18.91 Y-5.575
N10545 X-18.847 Y-5.456
N10550 X-18.787 Y-5.336
N10555 X-18.729 Y-5.216
N10560 X-18.671 Y-5.096
N10565 X-18.652 Y-5.045
N10570 X-18.262 Y-4.017
N10575 X-18.219 Y-3.897
N10580 X-18.172 Y-3.759
N10585 X-18.137 Y-3.657
N10590 X-18.052 Y-3.401
N10595 X-18.018 Y-3.297
N10600 X-17.993 Y-3.177
N10605 X-17.773 Y-2.098
N10610 X-17.749 Y-1.978
N10615 X-17.729 Y-1.858
N10620 X-17.67 Y-1.499
N10625 X-17.654 Y-1.379
N10630 X-17.637 Y-1.139
N10635 X-17.631 Y-1.019
N10640 X-17.592 Y-0.06
N10645 X-17.59 Y0.06
N10650 Y0.3
N10655 Y0.54
N10660 X-17.597 Y0.659
N10665 X-17.607 Y0.779
N10670 X-17.618 Y0.899
N10675 X-17.735 Y1.858
N10680 X-17.749 Y1.978
N10685 X-17.787 Y2.218
N10690 X-17.826 Y2.458
N10695 X-17.848 Y2.578
N10700 X-17.908 Y2.818
N10705 X-17.932 Y2.905
N10710 X-18.15 Y3.657
N10715 X-18.22 Y3.897
N10720 X-18.257 Y4.017
N10725 X-18.417 Y4.496
N10730 X-18.468 Y4.616
N10735 X-18.532 Y4.754
N10740 X-18.579 Y4.856
N10745 X-18.921 Y5.575
N10750 X-18.978 Y5.695
N10755 X-19.099 Y5.935
N10760 X-19.225 Y6.175
N10765 X-19.251 Y6.225
N10770 X-19.294 Y6.295
N10775 X-19.371 Y6.419
N10780 X-19.444 Y6.535
N10785 X-19.971 Y7.299
N10790 X-20.023 Y7.374
N10795 X-20.211 Y7.631
N10800 X-20.331 Y7.791
N10805 X-20.378 Y7.854
N10810 X-20.451 Y7.948
N10815 X-20.581 Y8.093
N10820 X-20.926 Y8.453
N10825 X-21.29 Y8.832
N10830 X-21.41 Y8.957
N10835 X-21.53 Y9.073
N10840 X-21.77 Y9.303
N10845 X-21.89 Y9.408
N10850 X-22.01 Y9.507
N10855 X-22.85 Y10.138
N10860 X-22.97 Y10.226
N10865 X-23.09 Y10.31
N10870 X-23.21 Y10.393
N10875 X-23.353 Y10.491
N10880 X-23.449 Y10.554
N10885 X-23.689 Y10.691
N10890 X-23.764 Y10.731
N10895 X-24.529 Y11.133
N10900 X-24.685 Y11.211
N10905 X-24.769 Y11.253
N10910 X-24.889 Y11.311
N10915 X-25.009 Y11.368
N10920 X-25.129 Y11.424
N10925 X-25.369 Y11.523
N10930 X-25.488 Y11.566
N10935 X-26.448 Y11.887
N10940 X-26.568 Y11.925
N10945 X-26.808 Y11.996
N10950 X-27.048 Y12.065
N10955 X-27.168 Y12.094
N10960 X-27.288 Y12.118
N10965 X-27.408 Y12.141
N10970 X-28.487 Y12.317
N10975 X-28.607 Y12.332
N10980 X-28.967 Y12.376
N10985 X-29.087 Y12.39
N10990 X-29.207 Y12.394
N10995 X-29.327 Y12.398
N11000 X-29.447 Y12.4
N11005 X-30.406
N11010 X-30.526 Y12.399
N11015 X-30.766 Y12.39
N11020 X-31.006 Y12.38
N11025 X-31.126 Y12.371
N11030 X-31.366 Y12.34
N11035 X-31.486 Y12.321
N11040 X-32.445 Y12.165
N11045 X-32.565 Y12.142
N11050 X-32.925 Y12.069
N11055 X-33.045 Y12.045
N11060 X-33.165 Y12.01
N11065 X-33.285 Y11.974
N11070 X-33.405 Y11.936
N11075 X-34.245 Y11.656
N11080 X-34.364 Y11.615
N11085 X-34.489 Y11.571
N11090 X-34.724 Y11.481
N11095 X-34.803 Y11.451
N11100 X-34.964 Y11.387
N11105 X-35.084 Y11.336
N11110 X-36.164 Y10.769
N11115 X-36.231 Y10.731
N11120 X-36.441 Y10.611
N11125 X-36.649 Y10.491
N11130 X-36.763 Y10.424
N11135 X-37.003 Y10.247
N11140 X-37.123 Y10.158
N11145 X-37.796 Y9.652
N11150 X-37.843 Y9.616
N11155 X-37.948 Y9.532
N11160 X-38.242 Y9.292
N11165 X-38.323 Y9.225
N11170 X-38.443 Y9.109
N11175 X-38.498 Y9.053
N11180 X-39.282 Y8.236
N11185 X-39.304 Y8.213
N11190 X-39.522 Y7.967
N11195 X-39.62 Y7.854
N11200 X-39.762 Y7.679
N11205 X-39.812 Y7.614
N11210 X-40.391 Y6.774
N11215 X-40.472 Y6.655
N11220 X-40.551 Y6.535
N11225 X-40.627 Y6.415
N11230 X-40.722 Y6.265
N11235 X-40.774 Y6.175
N11240 X-40.842 Y6.055
N11245 X-40.909 Y5.935
N11250 X-41.307 Y5.096
N11255 X-41.42 Y4.856
N11260 X-41.441 Y4.808
N11265 X-41.574 Y4.496
N11270 X-41.625 Y4.376
N11275 X-41.675 Y4.257
N11280 X-41.681 Y4.24
N11285 X-41.711 Y4.137
N11290 X-41.989 Y3.177
N11295 X-42.023 Y3.057
N11300 X-42.055 Y2.938
N11305 X-42.087 Y2.818
N11310 X-42.146 Y2.578
N11315 X-42.161 Y2.514
N11320 X-42.2 Y2.338
N11325 X-42.222 Y2.218
N11330 X-42.353 Y1.139
N11335 X-42.377 Y0.899
N11340 X-42.388 Y0.779
N11345 X-42.401 Y0.619
N11350 X-42.406 Y0.54
N11355 X-42.42 Y0.3
N11360 X-42.417 Y0.18
N11365 X-42.379 Y-0.779
N11370 X-42.373 Y-0.899
N11375 X-42.366 Y-1.019
N11380 X-42.359 Y-1.139
N11385 X-42.34 Y-1.379
N11390 X-42.328 Y-1.499
N11395 X-42.316 Y-1.619
N11400 X-42.301 Y-1.739
N11405 X-42.144 Y-2.507
N11410 G3 X-41.466 Y-2.69 I0.389 J0.094
N11415 G1 X-41.435 Y-2.638 Z-1.795
N11420 X-41.404 Y-2.587 Z-1.781
N11425 X-41.375 Y-2.539 Z-1.758
N11430 X-41.368 Y-2.492 Z-1.731
N11435 X-41.361 Y-2.45 Z-1.697
N11440 X-41.355 Y-2.413 Z-1.658
N11445 X-41.359 Y-2.368 Z-1.593
N11450 X-41.362 Y-2.337 Z-1.52
N11455 X-41.365 Y-2.324 Z-1.461
N11460 X-41.366 Y-2.319 Z-1.4
N11465 G0 Z5.
N11470 X-40.551 Y-2.
N11475 Z-0.8
N11480 G1 Z-1.2 F200.
N11485 X-40.558 Y-2.002 Z-1.278
N11490 X-40.581 Y-2.007 Z-1.353
N11495 X-40.617 Y-2.014 Z-1.422
N11500 X-40.665 Y-2.025 Z-1.483
N11505 X-40.725 Y-2.038 Z-1.533
N11510 X-40.792 Y-2.052 Z-1.57
N11515 X-40.866 Y-2.068 Z-1.592
N11520 X-40.942 Y-2.085 Z-1.6
N11525 G3 X-42.135 Y-2.48 I1.23 J-5.702
N11530 G1 X-42.147 Y-2.487
N11535 X-42.155 Y-2.498
N11540 X-42.156 Y-2.512
N11545 X-42.041 Y-3.074
N11550 X-42.017 Y-3.177
N11555 X-41.988 Y-3.297
N11560 X-41.958 Y-3.417
N11565 X-41.885 Y-3.657
N11570 X-41.843 Y-3.777
N11575 X-41.479 Y-4.736
N11580 X-41.441 Y-4.835
N11585 X-41.386 Y-4.976
N11590 X-41.339 Y-5.096
N11595 X-41.237 Y-5.336
N11600 X-41.201 Y-5.412
N11605 X-41.081 Y-5.629
N11610 X-41.045 Y-5.695
N11615 X-40.482 Y-6.67
N11620 X-40.421 Y-6.774
N11625 X-40.362 Y-6.87
N11630 X-40.242 Y-7.059
N11635 X-40.192 Y-7.134
N11640 X-40.122 Y-7.229
N11645 X-39.318 Y-8.213
N11650 X-39.217 Y-8.333
N11655 X-39.115 Y-8.453
N11660 X-39.042 Y-8.537
N11665 X-39.009 Y-8.573
N11670 X-38.802 Y-8.784
N11675 X-38.771 Y-8.813
N11680 X-37.959 Y-9.532
N11685 X-37.843 Y-9.634
N11690 X-37.681 Y-9.772
N11695 X-37.603 Y-9.838
N11700 X-37.537 Y-9.892
N11705 X-37.483 Y-9.934
N11710 X-37.363 Y-10.024
N11715 X-37.243 Y-10.106
N11720 X-36.254 Y-10.731
N11725 X-36.164 Y-10.787
N11730 X-35.924 Y-10.932
N11735 X-35.804 Y-11.001
N11740 X-35.684 Y-11.067
N11745 X-35.632 Y-11.091
N11750 X-35.564 Y-11.122
N11755 X-34.484 Y-11.582
N11760 X-34.364 Y-11.632
N11765 X-34.224 Y-11.69
N11770 X-34.125 Y-11.729
N11775 X-34.005 Y-11.774
N11780 X-33.908 Y-11.81
N11785 X-33.885 Y-11.817
N11790 X-33.645 Y-11.885
N11795 X-33.525 Y-11.915
N11800 X-32.445 Y-12.181
N11805 X-32.325 Y-12.209
N11810 X-32.205 Y-12.235
N11815 X-31.938 Y-12.29
N11820 X-31.846 Y-12.3
N11825 X-31.726 Y-12.312
N11830 X-31.606 Y-12.323
N11835 X-30.526 Y-12.41
N11840 X-30.286 Y-12.426
N11845 X-30.166 Y-12.433
N11850 X-30.046 Y-12.437
N11855 X-29.926 Y-12.441
N11860 X-29.687 Y-12.427
N11865 X-29.567 Y-12.418
N11870 X-28.607 Y-12.34
N11875 X-28.487 Y-12.33
N11880 X-28.247 Y-12.308
N11885 X-28.007 Y-12.279
N11890 X-27.887 Y-12.258
N11895 X-27.648 Y-12.204
N11900 X-26.448 Y-11.909
N11905 X-26.328 Y-11.876
N11910 X-26.208 Y-11.842
N11915 X-26.088 Y-11.807
N11920 X-25.968 Y-11.772
N11925 X-25.848 Y-11.723
N11930 X-25.728 Y-11.672
N11935 X-25.608 Y-11.621
N11940 X-24.645 Y-11.211
N11945 X-24.529 Y-11.16
N11950 X-24.289 Y-11.048
N11955 X-24.169 Y-10.983
N11960 X-24.049 Y-10.917
N11965 X-23.936 Y-10.851
N11970 X-22.97 Y-10.24
N11975 X-22.85 Y-10.164
N11980 X-22.61 Y-10.001
N11985 X-22.49 Y-9.918
N11990 X-22.457 Y-9.892
N11995 X-22.315 Y-9.772
N12000 X-22.25 Y-9.717
N12005 X-21.5 Y-9.053
N12010 X-21.41 Y-8.973
N12015 X-21.234 Y-8.813
N12020 X-21.17 Y-8.753
N12025 X-21.109 Y-8.693
N12030 X-20.931 Y-8.514
N12035 X-20.877 Y-8.453
N12040 X-20.091 Y-7.49
N12045 X-19.997 Y-7.374
N12050 X-19.814 Y-7.134
N12055 X-19.731 Y-7.024
N12060 X-19.724 Y-7.014
N12065 X-19.651 Y-6.894
N12070 X-19.611 Y-6.829
N12075 X-19.578 Y-6.774
N12080 X-18.955 Y-5.695
N12085 X-18.89 Y-5.575
N12090 X-18.826 Y-5.456
N12095 X-18.772 Y-5.346
N12100 X-18.658 Y-5.096
N12105 X-18.652 Y-5.08
N12110 X-18.248 Y-4.017
N12115 X-18.204 Y-3.897
N12120 X-18.16 Y-3.777
N12125 X-18.117 Y-3.657
N12130 X-18.037 Y-3.417
N12135 X-18.005 Y-3.297
N12140 X-17.931 Y-2.938
N12145 X-17.76 Y-2.098
N12150 X-17.736 Y-1.978
N12155 X-17.691 Y-1.739
N12160 X-17.671 Y-1.619
N12165 X-17.651 Y-1.499
N12170 X-17.636 Y-1.379
N12175 X-17.624 Y-1.139
N12180 X-17.618 Y-1.019
N12185 X-17.58 Y-0.06
N12190 X-17.576 Y0.06
N12195 X-17.572 Y0.218
N12200 X-17.571 Y0.3
N12205 Y0.54
N12210 X-17.572 Y0.581
N12215 X-17.593 Y0.779
N12220 X-17.606 Y0.899
N12225 X-17.737 Y1.978
N12230 X-17.769 Y2.218
N12235 X-17.788 Y2.338
N12240 X-17.812 Y2.488
N12245 X-17.829 Y2.578
N12250 X-17.894 Y2.818
N12255 X-17.932 Y2.951
N12260 X-18.206 Y3.897
N12265 X-18.242 Y4.017
N12270 X-18.292 Y4.178
N12275 X-18.318 Y4.257
N12280 X-18.4 Y4.496
N12285 X-18.412 Y4.529
N12290 X-18.451 Y4.616
N12295 X-18.964 Y5.695
N12300 X-19.078 Y5.935
N12305 X-19.204 Y6.175
N12310 X-19.251 Y6.26
N12315 X-19.371 Y6.446
N12320 X-19.428 Y6.535
N12325 X-20.008 Y7.374
N12330 X-20.175 Y7.614
N12335 X-20.211 Y7.663
N12340 X-20.354 Y7.854
N12345 X-20.451 Y7.973
N12350 X-20.571 Y8.101
N12355 X-20.691 Y8.226
N12360 X-21.484 Y9.053
N12365 X-21.53 Y9.098
N12370 X-21.65 Y9.214
N12375 X-21.77 Y9.329
N12380 X-21.87 Y9.412
N12385 X-22.01 Y9.522
N12390 X-22.85 Y10.153
N12395 X-22.982 Y10.252
N12400 X-23.09 Y10.331
N12405 X-23.146 Y10.371
N12410 X-23.329 Y10.498
N12415 X-23.449 Y10.576
N12420 X-23.689 Y10.706
N12425 X-23.737 Y10.731
N12430 X-24.769 Y11.273
N12435 X-24.889 Y11.332
N12440 X-25.009 Y11.389
N12445 X-25.129 Y11.445
N12450 X-25.369 Y11.538
N12455 X-25.461 Y11.571
N12460 X-26.448 Y11.9
N12465 X-26.539 Y11.93
N12470 X-26.808 Y12.016
N12475 X-27.048 Y12.085
N12480 X-27.168 Y12.112
N12485 X-27.408 Y12.154
N12490 X-28.487 Y12.329
N12495 X-28.607 Y12.347
N12500 X-28.727 Y12.365
N12505 X-28.847 Y12.381
N12510 X-28.967 Y12.395
N12515 X-29.087 Y12.409
N12520 X-29.096 Y12.41
N12525 X-29.207 Y12.411
N12530 X-29.327 Y12.412
N12535 X-29.447 Y12.413
N12540 X-30.406
N12545 X-30.526 Y12.412
N12550 X-30.766 Y12.408
N12555 X-30.886 Y12.404
N12560 X-31.006 Y12.399
N12565 X-31.126 Y12.389
N12570 X-31.366 Y12.353
N12575 X-31.726 Y12.295
N12580 X-32.445 Y12.178
N12585 X-32.493 Y12.17
N12590 X-32.685 Y12.135
N12595 X-32.805 Y12.113
N12600 X-33.045 Y12.064
N12605 X-33.095 Y12.05
N12610 X-33.285 Y11.989
N12615 X-33.405 Y11.949
N12620 X-34.364 Y11.629
N12625 X-34.484 Y11.588
N12630 X-34.724 Y11.501
N12635 X-34.849 Y11.451
N12640 X-34.964 Y11.403
N12645 X-35.084 Y11.35
N12650 X-36.164 Y10.783
N12655 X-36.284 Y10.718
N12660 X-36.404 Y10.653
N12665 X-36.479 Y10.611
N12670 X-36.687 Y10.491
N12675 X-36.763 Y10.444
N12680 X-36.883 Y10.354
N12685 X-37.843 Y9.633
N12690 X-37.972 Y9.532
N12695 X-38.124 Y9.412
N12700 X-38.203 Y9.348
N12705 X-38.443 Y9.126
N12710 X-38.516 Y9.053
N12715 X-39.282 Y8.255
N12720 X-39.322 Y8.213
N12725 X-39.435 Y8.093
N12730 X-39.541 Y7.973
N12735 X-39.642 Y7.852
N12740 X-39.762 Y7.7
N12745 X-39.827 Y7.614
N12750 X-40.572 Y6.535
N12755 X-40.602 Y6.488
N12760 X-40.725 Y6.295
N12765 X-40.795 Y6.175
N12770 X-40.859 Y6.055
N12775 X-40.923 Y5.935
N12780 X-41.441 Y4.842
N12785 X-41.489 Y4.736
N12790 X-41.561 Y4.574
N12795 X-41.593 Y4.496
N12800 X-41.688 Y4.257
N12805 X-41.725 Y4.137
N12810 X-42.072 Y2.938
N12815 X-42.106 Y2.818
N12820 X-42.136 Y2.698
N12825 X-42.166 Y2.578
N12830 X-42.19 Y2.458
N12835 X-42.214 Y2.338
N12840 X-42.234 Y2.218
N12845 X-42.394 Y0.899
N12850 X-42.401 Y0.839
N12855 X-42.416 Y0.659
N12860 X-42.426 Y0.54
N12865 X-42.43 Y0.42
N12870 X-42.433 Y0.3
N12875 X-42.43 Y0.18
N12880 X-42.382 Y-1.019
N12885 X-42.376 Y-1.139
N12890 X-42.358 Y-1.379
N12895 X-42.345 Y-1.499
N12900 X-42.331 Y-1.619
N12905 X-42.314 Y-1.739
N12910 X-42.156 Y-2.512
N12915 G3 X-41.478 Y-2.695 I0.389 J0.094
N12920 G1 X-41.447 Y-2.643 Z-1.595
N12925 X-41.416 Y-2.593 Z-1.581
N12930 X-41.387 Y-2.544 Z-1.558
N12935 X-41.38 Y-2.498 Z-1.531
N12940 X-41.373 Y-2.456 Z-1.497
N12945 X-41.367 Y-2.419 Z-1.458
N12950 X-41.371 Y-2.374 Z-1.393
N12955 X-41.374 Y-2.343 Z-1.32
N12960 X-41.377 Y-2.329 Z-1.261
N12965 X-41.378 Y-2.325 Z-1.2
N12970 G0 Z5.
N12975 X-40.107 Y-3.666
N12980 Z-0.6
N12985 G1 Z-1. F200.
N12990 X-40.114 Y-3.669 Z-1.078
N12995 X-40.135 Y-3.677 Z-1.153
N13000 X-40.17 Y-3.691 Z-1.222
N13005 X-40.216 Y-3.709 Z-1.283
N13010 X-40.273 Y-3.731 Z-1.333
N13015 X-40.337 Y-3.756 Z-1.37
N13020 X-40.407 Y-3.784 Z-1.392
N13025 X-40.479 Y-3.812 Z-1.4
N13030 G3 X-41.593 Y-4.394 I2.129 J-5.431
N13035 G1 X-41.605 Y-4.402
N13040 X-41.61 Y-4.415
N13045 X-41.609 Y-4.429
N13050 X-41.402 Y-4.976
N13055 X-41.356 Y-5.096
N13060 X-41.308 Y-5.216
N13065 X-41.257 Y-5.336
N13070 X-41.201 Y-5.447
N13075 X-41.059 Y-5.695
N13080 X-40.436 Y-6.774
N13085 X-40.362 Y-6.898
N13090 X-40.291 Y-7.014
N13095 X-40.242 Y-7.093
N13100 X-40.211 Y-7.134
N13105 X-40.122 Y-7.249
N13110 X-39.139 Y-8.453
N13115 X-39.042 Y-8.565
N13120 X-39.035 Y-8.573
N13125 X-38.922 Y-8.685
N13130 X-38.802 Y-8.801
N13135 X-37.842 Y-9.652
N13140 X-37.707 Y-9.772
N13145 X-37.603 Y-9.862
N13150 X-37.567 Y-9.892
N13155 X-37.483 Y-9.955
N13160 X-37.363 Y-10.04
N13165 X-37.243 Y-10.121
N13170 X-36.278 Y-10.731
N13175 X-36.164 Y-10.803
N13180 X-35.924 Y-10.953
N13185 X-35.894 Y-10.971
N13190 X-35.804 Y-11.023
N13195 X-35.684 Y-11.083
N13200 X-35.564 Y-11.135
N13205 X-34.245 Y-11.697
N13210 X-34.125 Y-11.746
N13215 X-33.961 Y-11.81
N13220 X-33.885 Y-11.837
N13225 X-33.645 Y-11.898
N13230 X-33.517 Y-11.93
N13235 X-32.325 Y-12.224
N13240 X-32.205 Y-12.252
N13245 X-31.966 Y-12.301
N13250 X-31.846 Y-12.317
N13255 X-30.286 Y-12.442
N13260 X-30.166 Y-12.45
N13265 X-30.046 Y-12.455
N13270 X-29.926 Y-12.459
N13275 X-29.807 Y-12.45
N13280 X-28.367 Y-12.334
N13285 X-28.247 Y-12.324
N13290 X-28.007 Y-12.297
N13295 X-27.949 Y-12.29
N13300 X-27.887 Y-12.276
N13305 X-27.648 Y-12.217
N13310 X-26.328 Y-11.892
N13315 X-26.208 Y-11.859
N13320 X-26.046 Y-11.81
N13325 X-25.968 Y-11.787
N13330 X-25.848 Y-11.737
N13335 X-24.613 Y-11.211
N13340 X-24.529 Y-11.174
N13345 X-24.289 Y-11.068
N13350 X-24.169 Y-11.003
N13355 X-24.049 Y-10.933
N13360 X-23.929 Y-10.862
N13365 X-22.964 Y-10.252
N13370 X-22.85 Y-10.179
N13375 X-22.592 Y-10.012
N13380 X-22.49 Y-9.94
N13385 X-22.428 Y-9.892
N13390 X-21.17 Y-8.777
N13395 X-21.086 Y-8.693
N13400 X-20.931 Y-8.531
N13405 X-20.861 Y-8.453
N13410 X-20.078 Y-7.494
N13415 X-19.98 Y-7.374
N13420 X-19.791 Y-7.134
N13425 X-19.731 Y-7.056
N13430 X-19.704 Y-7.014
N13435 X-19.564 Y-6.774
N13440 X-18.891 Y-5.61
N13445 X-18.872 Y-5.575
N13450 X-18.806 Y-5.456
N13455 X-18.772 Y-5.392
N13460 X-18.747 Y-5.336
N13465 X-18.644 Y-5.096
N13470 X-18.598 Y-4.976
N13475 X-18.144 Y-3.777
N13480 X-18.1 Y-3.657
N13485 X-18.052 Y-3.518
N13490 X-18.018 Y-3.417
N13495 X-17.992 Y-3.297
N13500 X-17.674 Y-1.739
N13505 X-17.654 Y-1.619
N13510 X-17.635 Y-1.499
N13515 X-17.62 Y-1.379
N13520 X-17.558 Y0.18
N13525 X-17.554 Y0.3
N13530 X-17.553 Y0.54
N13535 X-17.564 Y0.659
N13540 X-17.753 Y2.218
N13545 X-17.771 Y2.338
N13550 X-17.789 Y2.458
N13555 X-17.811 Y2.578
N13560 X-18.262 Y4.137
N13565 X-18.292 Y4.238
N13570 X-18.298 Y4.257
N13575 X-18.341 Y4.376
N13580 X-18.386 Y4.496
N13585 X-18.412 Y4.562
N13590 X-19.063 Y5.935
N13595 X-19.131 Y6.075
N13600 X-19.183 Y6.175
N13605 X-19.251 Y6.292
N13610 X-19.413 Y6.535
N13615 X-20.158 Y7.614
N13620 X-20.211 Y7.689
N13625 X-20.243 Y7.734
N13630 X-20.332 Y7.854
N13635 X-20.43 Y7.973
N13640 X-21.467 Y9.053
N13645 X-21.65 Y9.238
N13650 X-21.705 Y9.292
N13655 X-21.77 Y9.354
N13660 X-21.845 Y9.412
N13665 X-22.01 Y9.538
N13670 X-23.09 Y10.349
N13675 X-23.119 Y10.371
N13680 X-23.21 Y10.437
N13685 X-23.287 Y10.491
N13690 X-23.329 Y10.519
N13695 X-23.449 Y10.594
N13700 X-24.769 Y11.287
N13705 X-24.853 Y11.331
N13710 X-25.095 Y11.451
N13715 X-25.129 Y11.466
N13720 X-25.369 Y11.552
N13725 X-25.421 Y11.571
N13730 X-26.688 Y11.994
N13735 X-26.808 Y12.033
N13740 X-27.048 Y12.101
N13745 X-27.168 Y12.128
N13750 X-28.727 Y12.381
N13755 X-28.847 Y12.398
N13760 X-28.967 Y12.411
N13765 X-29.087 Y12.424
N13770 X-29.207 Y12.425
N13775 X-30.766
N13780 X-30.886 Y12.421
N13785 X-31.006 Y12.416
N13790 X-31.097 Y12.41
N13795 X-32.685 Y12.152
N13800 X-32.805 Y12.13
N13805 X-33.045 Y12.08
N13810 X-33.143 Y12.05
N13815 X-34.484 Y11.602
N13820 X-34.724 Y11.521
N13825 X-34.844 Y11.471
N13830 X-34.964 Y11.419
N13835 X-35.084 Y11.364
N13840 X-36.404 Y10.672
N13845 X-36.512 Y10.611
N13850 X-36.717 Y10.491
N13855 X-36.763 Y10.46
N13860 X-37.843 Y9.649
N13865 X-37.997 Y9.532
N13870 X-38.154 Y9.412
N13875 X-38.203 Y9.373
N13880 X-38.29 Y9.292
N13885 X-38.443 Y9.145
N13890 X-38.533 Y9.053
N13895 X-39.454 Y8.093
N13900 X-39.566 Y7.973
N13905 X-39.642 Y7.881
N13910 X-39.762 Y7.722
N13915 X-39.842 Y7.614
N13920 X-40.587 Y6.535
N13925 X-40.669 Y6.415
N13930 X-40.722 Y6.336
N13935 X-40.747 Y6.295
N13940 X-40.816 Y6.175
N13945 X-40.937 Y5.935
N13950 X-41.563 Y4.616
N13955 X-41.613 Y4.496
N13960 X-41.702 Y4.257
N13965 X-41.738 Y4.137
N13970 X-42.12 Y2.818
N13975 X-42.153 Y2.698
N13980 X-42.185 Y2.578
N13985 X-42.208 Y2.458
N13990 X-42.228 Y2.338
N13995 X-42.247 Y2.218
N14000 X-42.422 Y0.779
N14005 X-42.434 Y0.659
N14010 X-42.443 Y0.54
N14015 X-42.446 Y0.3
N14020 X-42.442 Y0.18
N14025 X-42.394 Y-1.019
N14030 X-42.389 Y-1.139
N14035 X-42.377 Y-1.379
N14040 X-42.362 Y-1.499
N14045 X-42.345 Y-1.619
N14050 X-42.326 Y-1.739
N14055 X-42.057 Y-3.057
N14060 X-42.041 Y-3.134
N14065 X-42.005 Y-3.297
N14070 X-41.977 Y-3.417
N14075 X-41.899 Y-3.657
N14080 X-41.856 Y-3.777
N14085 X-41.609 Y-4.429
N14090 G3 X-40.911 Y-4.501 I0.369 J0.155
N14095 G1 X-40.888 Y-4.445 Z-1.395
N14100 X-40.866 Y-4.39 Z-1.381
N14105 X-40.845 Y-4.337 Z-1.358
N14110 X-40.84 Y-4.274 Z-1.319
N14115 X-40.848 Y-4.229 Z-1.278
N14120 X-40.855 Y-4.19 Z-1.23
N14125 X-40.861 Y-4.159 Z-1.177
N14130 X-40.865 Y-4.136 Z-1.12
N14135 X-40.87 Y-4.124 Z-1.061
N14140 X-40.871 Y-4.119 Z-1.
N14145 G0 Z5.
N14150 X-40.118 Y-3.671
N14155 Z-0.4
N14160 G1 Z-0.8 F200.
N14165 X-40.126 Y-3.674 Z-0.878
N14170 X-40.147 Y-3.683 Z-0.953
N14175 X-40.181 Y-3.696 Z-1.022
N14180 X-40.228 Y-3.714 Z-1.083
N14185 X-40.284 Y-3.736 Z-1.133
N14190 X-40.348 Y-3.762 Z-1.17
N14195 X-40.418 Y-3.789 Z-1.192
N14200 X-40.491 Y-3.817 Z-1.2
N14205 G3 X-41.605 Y-4.399 I2.129 J-5.431
N14210 G1 X-41.616 Y-4.408
N14215 X-41.622 Y-4.42
N14220 X-41.62 Y-4.434
N14225 X-41.321 Y-5.223
N14230 X-41.274 Y-5.336
N14235 X-41.212 Y-5.456
N14240 X-40.312 Y-7.014
N14245 X-40.242 Y-7.121
N14250 X-40.122 Y-7.269
N14255 X-39.042 Y-8.591
N14260 X-38.939 Y-8.693
N14265 X-38.809 Y-8.813
N14270 X-37.591 Y-9.892
N14275 X-37.483 Y-9.972
N14280 X-37.363 Y-10.056
N14285 X-37.249 Y-10.132
N14290 X-35.922 Y-10.971
N14295 X-35.804 Y-11.044
N14300 X-35.7 Y-11.091
N14305 X-34.245 Y-11.711
N14310 X-34.125 Y-11.76
N14315 X-33.999 Y-11.81
N14320 X-33.885 Y-11.852
N14325 X-32.325 Y-12.237
N14330 X-32.205 Y-12.265
N14335 X-31.966 Y-12.314
N14340 X-31.846 Y-12.329
N14345 X-30.166 Y-12.465
N14350 X-30.046 Y-12.469
N14355 X-29.926 Y-12.472
N14360 X-29.807 Y-12.463
N14365 X-28.367 Y-12.346
N14370 X-28.247 Y-12.336
N14375 X-28.007 Y-12.311
N14380 X-27.89 Y-12.29
N14385 X-26.328 Y-11.905
N14390 X-26.208 Y-11.872
N14395 X-26. Y-11.81
N14400 X-25.968 Y-11.8
N14405 X-25.848 Y-11.751
N14410 X-24.289 Y-11.086
N14415 X-24.169 Y-11.028
N14420 X-23.929 Y-10.877
N14425 X-22.61 Y-10.043
N14430 X-22.563 Y-10.012
N14435 X-22.49 Y-9.956
N14440 X-22.409 Y-9.892
N14445 X-21.17 Y-8.794
N14450 X-21.05 Y-8.686
N14455 X-20.943 Y-8.573
N14460 X-19.964 Y-7.374
N14465 X-19.769 Y-7.134
N14470 X-19.731 Y-7.086
N14475 X-19.688 Y-7.014
N14480 X-18.772 Y-5.427
N14485 X-18.727 Y-5.336
N14490 X-18.631 Y-5.096
N14495 X-18.585 Y-4.976
N14500 X-18.039 Y-3.537
N14505 X-18.004 Y-3.417
N14510 X-17.979 Y-3.297
N14515 X-17.661 Y-1.739
N14520 X-17.641 Y-1.619
N14525 X-17.623 Y-1.499
N14530 X-17.608 Y-1.379
N14535 X-17.545 Y0.18
N14540 X-17.541 Y0.3
N14545 X-17.54 Y0.54
N14550 X-17.551 Y0.659
N14555 X-17.74 Y2.218
N14560 X-17.758 Y2.338
N14565 X-17.776 Y2.458
N14570 X-17.798 Y2.578
N14575 X-18.292 Y4.284
N14580 X-18.325 Y4.376
N14585 X-18.371 Y4.496
N14590 X-18.412 Y4.591
N14595 X-19.163 Y6.175
N14600 X-19.233 Y6.295
N14605 X-19.398 Y6.535
N14610 X-20.225 Y7.734
N14615 X-20.312 Y7.854
N14620 X-20.331 Y7.877
N14625 X-20.413 Y7.973
N14630 X-21.68 Y9.292
N14635 X-21.77 Y9.374
N14640 X-23.21 Y10.455
N14645 X-23.261 Y10.491
N14650 X-23.329 Y10.535
N14655 X-23.449 Y10.609
N14660 X-24.825 Y11.331
N14665 X-25.055 Y11.451
N14670 X-25.129 Y11.486
N14675 X-25.249 Y11.526
N14680 X-26.688 Y12.007
N14685 X-26.808 Y12.047
N14690 X-27.048 Y12.114
N14695 X-27.168 Y12.141
N14700 X-28.727 Y12.394
N14705 X-28.841 Y12.41
N14710 X-28.967 Y12.424
N14715 X-29.087 Y12.437
N14720 X-29.207 Y12.438
N14725 X-30.766
N14730 X-30.886 Y12.433
N14735 X-31.006 Y12.428
N14740 X-31.126 Y12.418
N14745 X-32.685 Y12.165
N14750 X-32.805 Y12.143
N14755 X-33.045 Y12.093
N14760 X-33.165 Y12.056
N14765 X-34.724 Y11.535
N14770 X-34.844 Y11.486
N14775 X-34.964 Y11.433
N14780 X-35.084 Y11.378
N14785 X-36.404 Y10.686
N14790 X-36.524 Y10.618
N14795 X-36.739 Y10.491
N14800 X-36.763 Y10.475
N14805 X-36.902 Y10.371
N14810 X-38.203 Y9.394
N14815 X-38.317 Y9.292
N14820 X-38.443 Y9.165
N14825 X-38.563 Y9.04
N14830 X-39.587 Y7.973
N14835 X-39.642 Y7.91
N14840 X-39.771 Y7.734
N14845 X-39.858 Y7.614
N14850 X-40.685 Y6.415
N14855 X-40.722 Y6.362
N14860 X-40.767 Y6.295
N14865 X-40.837 Y6.175
N14870 X-41.577 Y4.616
N14875 X-41.628 Y4.496
N14880 X-41.715 Y4.257
N14885 X-41.751 Y4.137
N14890 X-42.202 Y2.578
N14895 X-42.224 Y2.458
N14900 X-42.242 Y2.338
N14905 X-42.26 Y2.218
N14910 X-42.449 Y0.659
N14915 X-42.46 Y0.54
N14920 X-42.459 Y0.3
N14925 X-42.455 Y0.18
N14930 X-42.392 Y-1.379
N14935 X-42.377 Y-1.499
N14940 X-42.359 Y-1.619
N14945 X-42.339 Y-1.739
N14950 X-42.021 Y-3.297
N14955 X-41.994 Y-3.417
N14960 X-41.913 Y-3.657
N14965 X-41.87 Y-3.777
N14970 X-41.62 Y-4.434
N14975 G3 X-40.922 Y-4.506 I0.369 J0.155
N14980 G1 X-40.9 Y-4.45 Z-1.195
N14985 X-40.878 Y-4.395 Z-1.181
N14990 X-40.857 Y-4.343 Z-1.158
N14995 X-40.852 Y-4.28 Z-1.119
N15000 X-40.86 Y-4.234 Z-1.078
N15005 X-40.867 Y-4.195 Z-1.03
N15010 X-40.872 Y-4.164 Z-0.977
N15015 X-40.876 Y-4.142 Z-0.92
N15020 X-40.881 Y-4.129 Z-0.861
N15025 X-40.883 Y-4.125 Z-0.8
N15030 G0 Z5.
N15035 X-40.131 Y-3.675
N15040 Z-0.2
N15045 G1 Z-0.6 F200.
N15050 X-40.138 Y-3.678 Z-0.678
N15055 X-40.159 Y-3.686 Z-0.753
N15060 X-40.193 Y-3.7 Z-0.822
N15065 X-40.24 Y-3.718 Z-0.883
N15070 X-40.296 Y-3.74 Z-0.933
N15075 X-40.36 Y-3.765 Z-0.97
N15080 X-40.43 Y-3.793 Z-0.992
N15085 X-40.503 Y-3.821 Z-1.
N15090 G3 X-41.617 Y-4.403 I2.129 J-5.431
N15095 G1 X-41.628 Y-4.411
N15100 X-41.634 Y-4.424
N15105 X-41.633 Y-4.438
N15110 X-41.321 Y-5.259
N15115 X-41.291 Y-5.336
N15120 X-41.227 Y-5.456
N15125 X-40.327 Y-7.014
N15130 X-40.246 Y-7.134
N15135 X-40.15 Y-7.254
N15140 X-40.122 Y-7.289
N15145 X-39.042 Y-8.611
N15150 X-38.96 Y-8.693
N15155 X-38.828 Y-8.813
N15160 X-37.603 Y-9.898
N15165 X-37.483 Y-9.986
N15170 X-37.363 Y-10.07
N15175 X-37.273 Y-10.132
N15180 X-35.924 Y-10.985
N15185 X-35.804 Y-11.057
N15190 X-35.684 Y-11.11
N15195 X-35.564 Y-11.163
N15200 X-34.245 Y-11.725
N15205 X-34.125 Y-11.774
N15210 X-34.005 Y-11.821
N15215 X-33.885 Y-11.865
N15220 X-32.325 Y-12.25
N15225 X-32.205 Y-12.278
N15230 X-31.966 Y-12.327
N15235 X-31.846 Y-12.342
N15240 X-30.286 Y-12.468
N15245 X-30.166 Y-12.475
N15250 X-30.046 Y-12.48
N15255 X-29.926 Y-12.485
N15260 X-29.807 Y-12.475
N15265 X-28.367 Y-12.359
N15270 X-28.247 Y-12.349
N15275 X-28.007 Y-12.324
N15280 X-27.887 Y-12.302
N15285 X-26.328 Y-11.918
N15290 X-26.208 Y-11.886
N15295 X-26.088 Y-11.85
N15300 X-25.968 Y-11.814
N15305 X-25.957 Y-11.81
N15310 X-25.848 Y-11.764
N15315 X-24.289 Y-11.1
N15320 X-24.269 Y-11.091
N15325 X-24.169 Y-11.043
N15330 X-24.049 Y-10.968
N15335 X-22.61 Y-10.058
N15340 X-22.543 Y-10.012
N15345 X-22.49 Y-9.971
N15350 X-22.39 Y-9.892
N15355 X-21.17 Y-8.811
N15360 X-21.039 Y-8.693
N15365 X-20.931 Y-8.578
N15370 X-19.752 Y-7.134
N15375 X-19.731 Y-7.108
N15380 X-19.673 Y-7.014
N15385 X-18.772 Y-5.452
N15390 X-18.713 Y-5.336
N15395 X-18.617 Y-5.096
N15400 X-18.571 Y-4.976
N15405 X-18.052 Y-3.606
N15410 X-18.026 Y-3.537
N15415 X-17.993 Y-3.417
N15420 X-17.966 Y-3.297
N15425 X-17.648 Y-1.739
N15430 X-17.628 Y-1.619
N15435 X-17.61 Y-1.499
N15440 X-17.595 Y-1.379
N15445 X-17.532 Y0.18
N15450 X-17.529 Y0.3
N15455 X-17.528 Y0.54
N15460 X-17.538 Y0.659
N15465 X-17.728 Y2.218
N15470 X-17.744 Y2.338
N15475 X-17.763 Y2.458
N15480 X-17.785 Y2.578
N15485 X-18.292 Y4.329
N15490 X-18.308 Y4.376
N15495 X-18.356 Y4.496
N15500 X-18.41 Y4.616
N15505 X-19.149 Y6.175
N15510 X-19.219 Y6.295
N15515 X-19.382 Y6.535
N15520 X-20.211 Y7.735
N15525 X-20.294 Y7.854
N15530 X-20.331 Y7.899
N15535 X-20.395 Y7.973
N15540 X-21.662 Y9.292
N15545 X-21.77 Y9.389
N15550 X-23.21 Y10.471
N15555 X-23.24 Y10.491
N15560 X-23.329 Y10.549
N15565 X-23.428 Y10.611
N15570 X-23.449 Y10.623
N15575 X-24.798 Y11.331
N15580 X-25.029 Y11.451
N15585 X-25.129 Y11.499
N15590 X-25.249 Y11.54
N15595 X-26.778 Y12.05
N15600 X-26.808 Y12.06
N15605 X-27.048 Y12.127
N15610 X-27.168 Y12.153
N15615 X-28.745 Y12.41
N15620 X-28.847 Y12.423
N15625 X-28.967 Y12.436
N15630 X-29.087 Y12.449
N15635 X-29.207 Y12.45
N15640 X-30.766
N15645 X-30.886 Y12.446
N15650 X-31.006 Y12.441
N15655 X-31.126 Y12.431
N15660 X-32.73 Y12.17
N15665 X-32.805 Y12.156
N15670 X-33.045 Y12.106
N15675 X-33.165 Y12.069
N15680 X-34.724 Y11.549
N15685 X-34.844 Y11.499
N15690 X-34.964 Y11.447
N15695 X-35.084 Y11.393
N15700 X-36.404 Y10.7
N15705 X-36.524 Y10.633
N15710 X-36.643 Y10.563
N15715 X-36.763 Y10.491
N15720 X-36.923 Y10.371
N15725 X-38.203 Y9.41
N15730 X-38.323 Y9.308
N15735 X-38.568 Y9.053
N15740 X-39.605 Y7.973
N15745 X-39.642 Y7.933
N15750 X-39.7 Y7.854
N15755 X-39.787 Y7.734
N15760 X-39.873 Y7.614
N15765 X-40.701 Y6.415
N15770 X-40.722 Y6.384
N15775 X-40.782 Y6.295
N15780 X-40.842 Y6.195
N15785 X-41.59 Y4.616
N15790 X-41.642 Y4.496
N15795 X-41.728 Y4.257
N15800 X-41.764 Y4.137
N15805 X-42.215 Y2.578
N15810 X-42.237 Y2.458
N15815 X-42.255 Y2.338
N15820 X-42.272 Y2.218
N15825 X-42.462 Y0.659
N15830 X-42.472 Y0.54
N15835 X-42.471 Y0.3
N15840 X-42.468 Y0.18
N15845 X-42.405 Y-1.379
N15850 X-42.401 Y-1.428
N15855 X-42.372 Y-1.619
N15860 X-42.352 Y-1.739
N15865 X-42.034 Y-3.297
N15870 X-42.007 Y-3.417
N15875 X-41.921 Y-3.674
N15880 X-41.883 Y-3.777
N15885 X-41.633 Y-4.438
N15890 G3 X-40.934 Y-4.51 I0.369 J0.155
N15895 G1 X-40.912 Y-4.454 Z-0.995
N15900 X-40.89 Y-4.399 Z-0.981
N15905 X-40.869 Y-4.346 Z-0.958
N15910 X-40.864 Y-4.283 Z-0.919
N15915 X-40.872 Y-4.238 Z-0.878
N15920 X-40.879 Y-4.199 Z-0.83
N15925 X-40.884 Y-4.168 Z-0.777
N15930 X-40.888 Y-4.146 Z-0.72
N15935 X-40.893 Y-4.133 Z-0.661
N15940 X-40.895 Y-4.129 Z-0.6
N15945 G0 Z5.
N15950 X-47.219 Y-16.925
N15955 Z0.
N15960 G1 Z-0.4 F200.
N15965 X-47.212 Y-16.921 Z-0.478
N15970 X-47.193 Y-16.909 Z-0.553
N15975 X-47.162 Y-16.889 Z-0.622
N15980 X-47.12 Y-16.862 Z-0.683
N15985 X-47.069 Y-16.829 Z-0.733
N15990 X-47.011 Y-16.792 Z-0.77
N15995 X-46.948 Y-16.751 Z-0.792
N16000 X-46.882 Y-16.709 Z-0.8
N16005 G3 X-45.904 Y-15.92 I-3.152 J4.908
N16010 G1 X-45.884 Y-15.898
N16015 X-45.881 Y-15.889
N16020 X-45.882 Y-15.88
N16025 X-45.887 Y-15.872
N16030 X-45.987 Y-15.767
N16035 X-47.459 Y-14.088
N16040 X-47.564 Y-13.969
N16045 X-47.678 Y-13.837
N16050 X-47.771 Y-13.729
N16055 X-47.945 Y-13.489
N16060 X-48.038 Y-13.35
N16065 X-49.238 Y-11.555
N16070 X-49.358 Y-11.375
N16075 X-49.387 Y-11.331
N16080 X-49.455 Y-11.211
N16085 X-49.522 Y-11.091
N16090 X-49.583 Y-10.971
N16095 X-50.588 Y-8.933
N16100 X-50.646 Y-8.813
N16105 X-50.704 Y-8.693
N16110 X-50.755 Y-8.573
N16115 X-50.8 Y-8.453
N16120 X-50.843 Y-8.333
N16125 X-51.576 Y-6.175
N16130 X-51.656 Y-5.935
N16135 X-51.689 Y-5.815
N16140 X-51.72 Y-5.695
N16145 X-51.745 Y-5.575
N16150 X-52.199 Y-3.297
N16155 X-52.222 Y-3.177
N16160 X-52.244 Y-3.057
N16165 X-52.264 Y-2.938
N16170 X-52.276 Y-2.818
N16175 X-52.287 Y-2.698
N16180 X-52.444 Y-0.3
N16185 X-52.45 Y-0.18
N16190 X-52.455 Y-0.06
N16195 Y0.06
N16200 X-52.45 Y0.18
N16205 X-52.444 Y0.3
N16210 X-52.287 Y2.698
N16215 X-52.276 Y2.818
N16220 X-52.264 Y2.938
N16225 X-52.244 Y3.057
N16230 X-52.222 Y3.177
N16235 X-52.199 Y3.297
N16240 X-51.745 Y5.575
N16245 X-51.72 Y5.695
N16250 X-51.689 Y5.815
N16255 X-51.656 Y5.935
N16260 X-51.576 Y6.175
N16265 X-50.843 Y8.333
N16270 X-50.797 Y8.46
N16275 X-50.755 Y8.573
N16280 X-50.704 Y8.693
N16285 X-50.646 Y8.813
N16290 X-50.588 Y8.933
N16295 X-49.583 Y10.971
N16300 X-49.522 Y11.091
N16305 X-49.455 Y11.211
N16310 X-49.387 Y11.331
N16315 X-49.308 Y11.451
N16320 X-49.067 Y11.81
N16325 X-48.026 Y13.369
N16330 X-47.945 Y13.489
N16335 X-47.771 Y13.729
N16340 X-47.678 Y13.837
N16345 X-47.559 Y13.975
N16350 X-46.479 Y15.206
N16355 X-45.987 Y15.767
N16360 X-45.873 Y15.887
N16365 X-45.744 Y16.007
N16370 X-43.96 Y17.571
N16375 X-43.72 Y17.778
N16380 X-43.685 Y17.805
N16385 X-43.48 Y17.95
N16390 X-43.36 Y18.032
N16395 X-41.546 Y19.244
N16400 X-41.321 Y19.393
N16405 X-41.201 Y19.461
N16410 X-41.081 Y19.526
N16415 X-40.962 Y19.587
N16420 X-38.922 Y20.593
N16425 X-38.802 Y20.651
N16430 X-38.683 Y20.707
N16435 X-38.563 Y20.76
N16440 X-38.323 Y20.847
N16445 X-36.164 Y21.579
N16450 X-35.974 Y21.642
N16455 X-35.924 Y21.659
N16460 X-35.804 Y21.692
N16465 X-35.684 Y21.721
N16470 X-35.564 Y21.748
N16475 X-33.165 Y22.225
N16480 X-32.925 Y22.266
N16485 X-32.805 Y22.277
N16490 X-32.685 Y22.287
N16495 X-32.565 Y22.295
N16500 X-30.286 Y22.445
N16505 X-30.166 Y22.452
N16510 X-30.046 Y22.455
N16515 X-29.926 Y22.458
N16520 X49.957
N16525 X50.077 Y22.454
N16530 X50.197 Y22.448
N16535 X50.317 Y22.435
N16540 X50.437 Y22.417
N16545 X50.557 Y22.393
N16550 X50.677 Y22.363
N16555 X50.681 Y22.362
N16560 X50.797 Y22.322
N16565 X50.917 Y22.279
N16570 X51.001 Y22.242
N16575 X51.157 Y22.167
N16580 X51.237 Y22.122
N16585 X51.397 Y22.021
N16590 X51.425 Y22.002
N16595 X51.517 Y21.933
N16600 X51.58 Y21.882
N16605 X51.637 Y21.834
N16610 X51.71 Y21.762
N16615 X51.757 Y21.716
N16620 X51.828 Y21.642
N16625 X51.877 Y21.587
N16630 X51.928 Y21.522
N16635 X51.997 Y21.434
N16640 X52.116 Y21.249
N16645 X52.163 Y21.163
N16650 X52.236 Y21.013
N16655 X52.276 Y20.923
N16660 X52.32 Y20.803
N16665 X52.356 Y20.699
N16670 X52.39 Y20.563
N16675 X52.416 Y20.443
N16680 X52.434 Y20.323
N16685 X52.447 Y20.203
N16690 X52.454 Y20.084
N16695 X52.458 Y19.964
N16700 Y-19.964
N16705 X52.454 Y-20.084
N16710 X52.447 Y-20.203
N16715 X52.434 Y-20.323
N16720 X52.416 Y-20.443
N16725 X52.39 Y-20.563
N16730 X52.356 Y-20.699
N16735 X52.32 Y-20.803
N16740 X52.276 Y-20.923
N16745 X52.236 Y-21.013
N16750 X52.163 Y-21.163
N16755 X52.116 Y-21.249
N16760 X51.997 Y-21.434
N16765 X51.928 Y-21.522
N16770 X51.877 Y-21.587
N16775 X51.828 Y-21.642
N16780 X51.757 Y-21.716
N16785 X51.71 Y-21.762
N16790 X51.637 Y-21.834
N16795 X51.58 Y-21.882
N16800 X51.517 Y-21.933
N16805 X51.425 Y-22.002
N16810 X51.397 Y-22.021
N16815 X51.237 Y-22.122
N16820 X51.157 Y-22.167
N16825 X51.001 Y-22.242
N16830 X50.917 Y-22.279
N16835 X50.797 Y-22.322
N16840 X50.681 Y-22.362
N16845 X50.677 Y-22.363
N16850 X50.557 Y-22.393
N16855 X50.437 Y-22.417
N16860 X50.317 Y-22.435
N16865 X50.197 Y-22.448
N16870 X50.077 Y-22.454
N16875 X49.957 Y-22.458
N16880 X-29.926
N16885 X-30.046 Y-22.455
N16890 X-30.166 Y-22.452
N16895 X-30.286 Y-22.445
N16900 X-32.565 Y-22.295
N16905 X-32.685 Y-22.287
N16910 X-32.805 Y-22.277
N16915 X-32.925 Y-22.266
N16920 X-33.165 Y-22.225
N16925 X-35.564 Y-21.748
N16930 X-35.684 Y-21.721
N16935 X-35.804 Y-21.692
N16940 X-35.924 Y-21.659
N16945 X-36.044 Y-21.619
N16950 X-36.164 Y-21.579
N16955 X-38.323 Y-20.847
N16960 X-38.563 Y-20.76
N16965 X-38.683 Y-20.707
N16970 X-38.802 Y-20.651
N16975 X-38.922 Y-20.593
N16980 X-40.962 Y-19.587
N16985 X-41.081 Y-19.526
N16990 X-41.201 Y-19.461
N16995 X-41.321 Y-19.393
N17000 X-41.561 Y-19.234
N17005 X-43.36 Y-18.032
N17010 X-43.48 Y-17.95
N17015 X-43.685 Y-17.805
N17020 X-43.72 Y-17.778
N17025 X-43.967 Y-17.566
N17030 X-45.744 Y-16.007
N17035 X-45.873 Y-15.887
N17040 X-45.887 Y-15.872
N17045 G3 X-46.56 Y-16.075 I-0.281 J-0.285
N17050 G1 X-46.564 Y-16.116 Z-0.798
N17055 X-46.568 Y-16.157 Z-0.791
N17060 X-46.554 Y-16.219 Z-0.772
N17065 X-46.541 Y-16.277 Z-0.742
N17070 X-46.529 Y-16.329 Z-0.704
N17075 X-46.5 Y-16.371 Z-0.65
N17080 X-46.477 Y-16.405 Z-0.588
N17085 X-46.461 Y-16.429 Z-0.52
N17090 X-46.452 Y-16.439 Z-0.461
N17095 X-46.449 Y-16.442 Z-0.4
N17100 G0 Z5.
N17105 X-40.008 Y-4.09
N17110 Z0.
N17115 G1 Z-0.4 F200.
N17120 X-40.016 Y-4.091 Z-0.478
N17125 X-40.038 Y-4.094 Z-0.553
N17130 X-40.075 Y-4.098 Z-0.622
N17135 X-40.124 Y-4.104 Z-0.683
N17140 X-40.185 Y-4.11 Z-0.733
N17145 X-40.253 Y-4.118 Z-0.77
N17150 X-40.328 Y-4.126 Z-0.792
N17155 X-40.405 Y-4.135 Z-0.8
N17160 G3 X-41.632 Y-4.409 I0.65 J-5.797
N17165 G1 X-41.66 Y-4.42
N17170 X-41.669 Y-4.431
N17175 X-41.673 Y-4.445
N17180 X-41.67 Y-4.459
N17185 X-41.441 Y-5.063
N17190 X-41.336 Y-5.336
N17195 X-41.321 Y-5.372
N17200 X-41.276 Y-5.456
N17205 X-40.362 Y-7.039
N17210 X-40.296 Y-7.134
N17215 X-40.203 Y-7.254
N17220 X-40.122 Y-7.357
N17225 X-39.227 Y-8.453
N17230 X-39.162 Y-8.53
N17235 X-39.042 Y-8.673
N17240 X-39.025 Y-8.693
N17245 X-38.922 Y-8.786
N17250 X-37.674 Y-9.892
N17255 X-37.603 Y-9.954
N17260 X-37.521 Y-10.012
N17265 X-37.348 Y-10.132
N17270 X-37.243 Y-10.201
N17275 X-35.924 Y-11.035
N17280 X-35.815 Y-11.091
N17285 X-35.684 Y-11.154
N17290 X-35.564 Y-11.209
N17295 X-34.245 Y-11.771
N17300 X-34.149 Y-11.81
N17305 X-34.005 Y-11.867
N17310 X-33.885 Y-11.91
N17315 X-32.325 Y-12.294
N17320 X-32.205 Y-12.322
N17325 X-31.966 Y-12.37
N17330 X-31.846 Y-12.385
N17335 X-30.286 Y-12.511
N17340 X-30.166 Y-12.518
N17345 X-30.046 Y-12.523
N17350 X-29.926 Y-12.527
N17355 X-29.807 Y-12.518
N17360 X-28.367 Y-12.402
N17365 X-28.247 Y-12.392
N17370 X-28.007 Y-12.368
N17375 X-27.887 Y-12.346
N17380 X-26.199 Y-11.93
N17385 X-26.088 Y-11.902
N17390 X-25.968 Y-11.861
N17395 X-25.847 Y-11.81
N17400 X-24.289 Y-11.147
N17405 X-24.169 Y-11.085
N17410 X-24.049 Y-11.018
N17415 X-22.61 Y-10.108
N17420 X-22.49 Y-10.021
N17425 X-22.37 Y-9.928
N17430 X-22.326 Y-9.892
N17435 X-21.108 Y-8.813
N17440 X-21.05 Y-8.757
N17445 X-20.875 Y-8.573
N17450 X-20.811 Y-8.499
N17455 X-19.794 Y-7.254
N17460 X-19.731 Y-7.176
N17465 X-19.701 Y-7.134
N17470 X-19.624 Y-7.014
N17475 X-18.724 Y-5.456
N17480 X-18.664 Y-5.336
N17485 X-18.571 Y-5.096
N17490 X-18.052 Y-3.726
N17495 X-18.026 Y-3.657
N17500 X-17.95 Y-3.417
N17505 X-17.932 Y-3.344
N17510 X-17.604 Y-1.739
N17515 X-17.585 Y-1.619
N17520 X-17.567 Y-1.499
N17525 X-17.552 Y-1.379
N17530 X-17.49 Y0.18
N17535 X-17.486 Y0.3
N17540 X-17.485 Y0.54
N17545 X-17.495 Y0.659
N17550 X-17.684 Y2.218
N17555 X-17.692 Y2.275
N17560 X-17.719 Y2.458
N17565 X-17.74 Y2.578
N17570 X-18.192 Y4.137
N17575 X-18.227 Y4.257
N17580 X-18.292 Y4.454
N17585 X-18.306 Y4.496
N17590 X-18.362 Y4.616
N17595 X-19.102 Y6.175
N17600 X-19.131 Y6.234
N17605 X-19.165 Y6.295
N17610 X-19.251 Y6.42
N17615 X-20.241 Y7.854
N17620 X-20.331 Y7.968
N17625 X-21.603 Y9.292
N17630 X-21.65 Y9.341
N17635 X-21.729 Y9.412
N17640 X-23.09 Y10.434
N17645 X-23.169 Y10.491
N17650 X-23.352 Y10.611
N17655 X-23.449 Y10.671
N17660 X-24.769 Y11.364
N17665 X-24.889 Y11.425
N17670 X-25.009 Y11.486
N17675 X-25.129 Y11.544
N17680 X-25.206 Y11.571
N17685 X-26.688 Y12.065
N17690 X-26.808 Y12.105
N17695 X-27.048 Y12.172
N17700 X-27.168 Y12.197
N17705 X-28.727 Y12.45
N17710 X-28.847 Y12.467
N17715 X-29.087 Y12.492
N17720 X-29.207 Y12.493
N17725 X-30.766
N17730 X-30.886 Y12.489
N17735 X-31.006 Y12.484
N17740 X-31.126 Y12.474
N17745 X-32.805 Y12.201
N17750 X-32.925 Y12.18
N17755 X-33.045 Y12.152
N17760 X-33.165 Y12.114
N17765 X-34.724 Y11.594
N17770 X-34.785 Y11.571
N17775 X-34.964 Y11.494
N17780 X-35.065 Y11.451
N17785 X-36.436 Y10.731
N17790 X-36.524 Y10.682
N17795 X-36.649 Y10.611
N17800 X-36.763 Y10.545
N17805 X-36.883 Y10.455
N17810 X-38.111 Y9.532
N17815 X-38.203 Y9.461
N17820 X-38.323 Y9.364
N17825 X-38.397 Y9.292
N17830 X-39.664 Y7.973
N17835 X-39.758 Y7.854
N17840 X-39.882 Y7.676
N17845 X-40.67 Y6.535
N17850 X-40.722 Y6.459
N17855 X-40.842 Y6.276
N17860 X-40.898 Y6.175
N17865 X-41.638 Y4.616
N17870 X-41.681 Y4.519
N17875 X-41.772 Y4.257
N17880 X-41.801 Y4.162
N17885 X-42.26 Y2.578
N17890 X-42.281 Y2.458
N17895 X-42.299 Y2.338
N17900 X-42.316 Y2.218
N17905 X-42.505 Y0.659
N17910 X-42.515 Y0.54
N17915 X-42.514 Y0.3
N17920 X-42.51 Y0.18
N17925 X-42.448 Y-1.379
N17930 X-42.435 Y-1.499
N17935 X-42.42 Y-1.619
N17940 X-42.078 Y-3.297
N17945 X-42.05 Y-3.417
N17950 X-41.972 Y-3.657
N17955 X-41.929 Y-3.777
N17960 X-41.67 Y-4.459
N17965 G3 X-40.972 Y-4.531 I0.369 J0.155
N17970 G1 X-40.949 Y-4.475 Z-0.795
N17975 X-40.927 Y-4.42 Z-0.781
N17980 X-40.906 Y-4.367 Z-0.758
N17985 X-40.901 Y-4.304 Z-0.719
N17990 X-40.909 Y-4.259 Z-0.678
N17995 X-40.916 Y-4.22 Z-0.63
N18000 X-40.922 Y-4.189 Z-0.577
N18005 X-40.926 Y-4.167 Z-0.52
N18010 X-40.931 Y-4.154 Z-0.461
N18015 X-40.933 Y-4.15 Z-0.4
N18020 G0 Z5.
N18025 X-40.054 Y-4.108
N18030 Z0.2
N18035 G1 Z-0.2 F200.
N18040 X-40.061 Y-4.109 Z-0.278
N18045 X-40.084 Y-4.111 Z-0.353
N18050 X-40.121 Y-4.116 Z-0.422
N18055 X-40.17 Y-4.121 Z-0.483
N18060 X-40.23 Y-4.128 Z-0.533
N18065 X-40.299 Y-4.136 Z-0.57
N18070 X-40.374 Y-4.144 Z-0.592
N18075 X-40.451 Y-4.153 Z-0.6
N18080 G3 X-41.678 Y-4.426 I0.65 J-5.797
N18085 G1 X-41.706 Y-4.437
N18090 X-41.755 Y-4.503
N18095 X-41.775 Y-4.583
N18100 X-41.762 Y-4.664
N18105 X-41.507 Y-5.336
N18110 X-41.449 Y-5.456
N18115 X-41.385 Y-5.575
N18120 X-41.32 Y-5.695
N18125 X-40.559 Y-7.014
N18130 X-40.482 Y-7.145
N18135 X-40.41 Y-7.254
N18140 X-39.235 Y-8.693
N18145 X-39.162 Y-8.78
N18150 X-39.127 Y-8.813
N18155 X-38.996 Y-8.933
N18160 X-37.777 Y-10.012
N18165 X-37.723 Y-10.058
N18170 X-37.636 Y-10.132
N18175 X-37.603 Y-10.159
N18180 X-37.483 Y-10.237
N18185 X-36.132 Y-11.091
N18190 X-35.924 Y-11.222
N18195 X-35.804 Y-11.279
N18200 X-34.245 Y-11.943
N18205 X-34.125 Y-11.989
N18210 X-33.953 Y-12.05
N18215 X-33.885 Y-12.072
N18220 X-32.325 Y-12.457
N18225 X-32.205 Y-12.485
N18230 X-31.961 Y-12.53
N18235 X-31.846 Y-12.544
N18240 X-30.286 Y-12.669
N18245 X-30.166 Y-12.677
N18250 X-30.046 Y-12.682
N18255 X-29.926 Y-12.686
N18260 X-29.807 Y-12.677
N18265 X-28.247 Y-12.551
N18270 X-28.002 Y-12.53
N18275 X-27.887 Y-12.509
N18280 X-26.328 Y-12.125
N18285 X-26.208 Y-12.095
N18290 X-26.032 Y-12.05
N18295 X-25.968 Y-12.033
N18300 X-25.848 Y-11.983
N18305 X-24.289 Y-11.319
N18310 X-24.169 Y-11.258
N18315 X-24.049 Y-11.197
N18320 X-23.929 Y-11.13
N18325 X-22.49 Y-10.22
N18330 X-22.37 Y-10.131
N18335 X-22.25 Y-10.036
N18340 X-20.931 Y-8.867
N18345 X-20.87 Y-8.813
N18350 X-20.811 Y-8.749
N18355 X-19.731 Y-7.427
N18360 X-19.688 Y-7.374
N18365 X-19.603 Y-7.254
N18370 X-19.491 Y-7.096
N18375 X-19.441 Y-7.014
N18380 X-18.61 Y-5.575
N18385 X-18.549 Y-5.456
N18390 X-18.532 Y-5.421
N18395 X-18.493 Y-5.336
N18400 X-17.902 Y-3.777
N18405 X-17.859 Y-3.657
N18410 X-17.788 Y-3.417
N18415 X-17.761 Y-3.297
N18420 X-17.443 Y-1.739
N18425 X-17.424 Y-1.619
N18430 X-17.408 Y-1.499
N18435 X-17.394 Y-1.379
N18440 X-17.331 Y0.18
N18445 X-17.327 Y0.3
N18450 X-17.325 Y0.54
N18455 X-17.332 Y0.63
N18460 X-17.525 Y2.218
N18465 X-17.555 Y2.458
N18470 X-17.572 Y2.566
N18475 X-17.575 Y2.578
N18480 X-18.052 Y4.223
N18485 X-18.136 Y4.496
N18490 X-18.172 Y4.584
N18495 X-18.927 Y6.175
N18500 X-18.993 Y6.295
N18505 X-19.065 Y6.415
N18510 X-19.131 Y6.525
N18515 X-19.138 Y6.535
N18520 X-20.048 Y7.854
N18525 X-20.091 Y7.915
N18530 X-20.139 Y7.973
N18535 X-20.24 Y8.093
N18540 X-20.331 Y8.197
N18545 X-21.53 Y9.445
N18550 X-21.628 Y9.532
N18555 X-21.77 Y9.641
N18560 X-23.09 Y10.632
N18565 X-23.21 Y10.714
N18570 X-23.237 Y10.731
N18575 X-23.329 Y10.787
N18580 X-24.822 Y11.571
N18585 X-24.889 Y11.605
N18590 X-25.081 Y11.69
N18595 X-25.129 Y11.711
N18600 X-25.249 Y11.752
N18605 X-26.688 Y12.232
N18610 X-26.808 Y12.272
N18615 X-26.88 Y12.29
N18620 X-27.048 Y12.332
N18625 X-27.168 Y12.357
N18630 X-28.727 Y12.61
N18635 X-28.847 Y12.626
N18640 X-29.087 Y12.65
N18645 X-29.207 Y12.651
N18650 X-30.766
N18655 X-30.886 Y12.648
N18660 X-31.006 Y12.644
N18665 X-31.126 Y12.634
N18670 X-32.685 Y12.381
N18675 X-32.805 Y12.361
N18680 X-32.925 Y12.34
N18685 X-33.045 Y12.318
N18690 X-33.139 Y12.29
N18695 X-34.724 Y11.761
N18700 X-34.844 Y11.716
N18705 X-34.964 Y11.67
N18710 X-35.084 Y11.62
N18715 X-36.643 Y10.801
N18720 X-36.763 Y10.735
N18725 X-37.003 Y10.561
N18730 X-37.098 Y10.491
N18735 X-38.215 Y9.652
N18740 X-38.323 Y9.567
N18745 X-38.443 Y9.471
N18750 X-38.501 Y9.412
N18755 X-39.642 Y8.225
N18760 X-39.762 Y8.092
N18765 X-39.868 Y7.973
N18770 X-39.882 Y7.954
N18775 X-40.862 Y6.535
N18780 X-40.962 Y6.385
N18785 X-41.016 Y6.295
N18790 X-41.813 Y4.616
N18795 X-41.864 Y4.496
N18800 X-41.938 Y4.257
N18805 X-41.973 Y4.137
N18810 X-42.425 Y2.578
N18815 X-42.445 Y2.458
N18820 X-42.475 Y2.218
N18825 X-42.664 Y0.659
N18830 X-42.675 Y0.54
N18835 X-42.673 Y0.3
N18840 X-42.669 Y0.18
N18845 X-42.606 Y-1.379
N18850 X-42.592 Y-1.499
N18855 X-42.576 Y-1.619
N18860 X-42.557 Y-1.739
N18865 X-42.239 Y-3.297
N18870 X-42.212 Y-3.417
N18875 X-42.141 Y-3.657
N18880 X-42.098 Y-3.777
N18885 X-41.762 Y-4.664
N18890 G3 X-41.063 Y-4.736 I0.369 J0.155
N18895 G1 X-41.041 Y-4.68 Z-0.595
N18900 X-41.019 Y-4.625 Z-0.581
N18905 X-40.998 Y-4.572 Z-0.558
N18910 X-40.993 Y-4.509 Z-0.519
N18915 X-41.001 Y-4.464 Z-0.478
N18920 X-41.008 Y-4.425 Z-0.43
N18925 X-41.013 Y-4.394 Z-0.377
N18930 X-41.017 Y-4.371 Z-0.32
N18935 X-41.022 Y-4.359 Z-0.261
N18940 X-41.024 Y-4.354 Z-0.2
N18945 G0 Z5.
N18950 X-47.231 Y-16.866
N18955 Z0.2
N18960 G1 Z-0.2 F200.
N18965 X-47.225 Y-16.862 Z-0.278
N18970 X-47.205 Y-16.85 Z-0.353
N18975 X-47.174 Y-16.831 Z-0.422
N18980 X-47.131 Y-16.805 Z-0.483
N18985 X-47.079 Y-16.774 Z-0.533
N18990 X-47.02 Y-16.738 Z-0.57
N18995 X-46.956 Y-16.699 Z-0.592
N19000 X-46.889 Y-16.659 Z-0.6
N19005 G3 X-45.89 Y-15.896 I-3.018 J4.992
N19010 G1 X-45.874 Y-15.881
N19015 X-45.845 Y-15.797
N19020 X-45.852 Y-15.709
N19025 X-45.895 Y-15.631
N19030 X-47.564 Y-13.729
N19035 X-47.678 Y-13.585
N19040 X-47.755 Y-13.489
N19045 X-47.918 Y-13.245
N19050 X-49.198 Y-11.331
N19055 X-49.238 Y-11.266
N19060 X-49.358 Y-11.065
N19065 X-49.406 Y-10.971
N19070 X-49.524 Y-10.731
N19075 X-50.437 Y-8.88
N19080 X-50.47 Y-8.813
N19085 X-50.557 Y-8.635
N19090 X-50.583 Y-8.573
N19095 X-50.63 Y-8.453
N19100 X-50.676 Y-8.333
N19105 X-51.49 Y-5.935
N19110 X-51.517 Y-5.85
N19115 X-51.528 Y-5.815
N19120 X-51.558 Y-5.695
N19125 X-51.584 Y-5.575
N19130 X-51.637 Y-5.312
N19135 X-52.061 Y-3.177
N19140 X-52.084 Y-3.057
N19145 X-52.104 Y-2.938
N19150 X-52.116 Y-2.816
N19155 X-52.128 Y-2.698
N19160 X-52.285 Y-0.3
N19165 X-52.292 Y-0.18
N19170 X-52.297 Y-0.06
N19175 Y0.06
N19180 X-52.292 Y0.18
N19185 X-52.285 Y0.3
N19190 X-52.128 Y2.698
N19195 X-52.116 Y2.818
N19200 X-52.104 Y2.938
N19205 X-52.084 Y3.057
N19210 X-52.061 Y3.177
N19215 X-51.632 Y5.336
N19220 X-51.584 Y5.575
N19225 X-51.558 Y5.695
N19230 X-51.528 Y5.815
N19235 X-51.517 Y5.85
N19240 X-51.49 Y5.935
N19245 X-50.676 Y8.333
N19250 X-50.63 Y8.453
N19255 X-50.583 Y8.573
N19260 X-50.557 Y8.635
N19265 X-50.47 Y8.813
N19270 X-50.293 Y9.172
N19275 X-49.465 Y10.851
N19280 X-49.406 Y10.971
N19285 X-49.358 Y11.065
N19290 X-49.238 Y11.266
N19295 X-49.198 Y11.331
N19300 X-47.916 Y13.249
N19305 X-47.755 Y13.489
N19310 X-47.66 Y13.609
N19315 X-47.564 Y13.729
N19320 X-45.879 Y15.65
N19325 X-45.759 Y15.771
N19330 X-45.639 Y15.888
N19335 X-43.72 Y17.571
N19340 X-43.6 Y17.666
N19345 X-43.48 Y17.759
N19350 X-43.414 Y17.805
N19355 X-41.321 Y19.204
N19360 X-41.259 Y19.244
N19365 X-41.05 Y19.364
N19370 X-40.962 Y19.411
N19375 X-38.802 Y20.476
N19380 X-38.62 Y20.563
N19385 X-38.563 Y20.589
N19390 X-38.323 Y20.679
N19395 X-36.164 Y21.412
N19400 X-35.924 Y21.493
N19405 X-35.831 Y21.522
N19410 X-35.804 Y21.53
N19415 X-35.684 Y21.561
N19420 X-35.564 Y21.586
N19425 X-33.165 Y22.064
N19430 X-33.045 Y22.087
N19435 X-32.925 Y22.107
N19440 X-32.805 Y22.118
N19445 X-32.685 Y22.128
N19450 X-32.565 Y22.137
N19455 X-30.286 Y22.286
N19460 X-30.166 Y22.293
N19465 X-30.046 Y22.297
N19470 X-29.926 Y22.3
N19475 X49.957
N19480 X50.077 Y22.295
N19485 X50.197 Y22.29
N19490 X50.317 Y22.275
N19495 X50.437 Y22.256
N19500 X50.503 Y22.242
N19505 X50.677 Y22.196
N19510 X50.797 Y22.155
N19515 X50.886 Y22.122
N19520 X50.917 Y22.109
N19525 X51.037 Y22.048
N19530 X51.157 Y21.987
N19535 X51.277 Y21.911
N19540 X51.322 Y21.882
N19545 X51.397 Y21.827
N19550 X51.517 Y21.723
N19555 X51.61 Y21.642
N19560 X51.637 Y21.614
N19565 X51.757 Y21.479
N19570 X51.822 Y21.402
N19575 X51.877 Y21.328
N19580 X51.907 Y21.283
N19585 X51.982 Y21.163
N19590 X52.045 Y21.043
N19595 X52.105 Y20.923
N19600 X52.152 Y20.803
N19605 X52.194 Y20.683
N19610 X52.236 Y20.527
N19615 X52.255 Y20.443
N19620 X52.274 Y20.323
N19625 X52.289 Y20.203
N19630 X52.296 Y20.084
N19635 X52.3 Y19.964
N19640 Y-19.964
N19645 X52.296 Y-20.084
N19650 X52.289 Y-20.203
N19655 X52.274 Y-20.323
N19660 X52.255 Y-20.443
N19665 X52.236 Y-20.527
N19670 X52.194 Y-20.683
N19675 X52.152 Y-20.803
N19680 X52.105 Y-20.923
N19685 X52.045 Y-21.043
N19690 X51.982 Y-21.163
N19695 X51.907 Y-21.283
N19700 X51.877 Y-21.328
N19705 X51.822 Y-21.402
N19710 X51.757 Y-21.479
N19715 X51.637 Y-21.614
N19720 X51.61 Y-21.642
N19725 X51.517 Y-21.723
N19730 X51.397 Y-21.827
N19735 X51.322 Y-21.882
N19740 X51.277 Y-21.911
N19745 X51.157 Y-21.987
N19750 X51.037 Y-22.048
N19755 X50.917 Y-22.109
N19760 X50.886 Y-22.122
N19765 X50.797 Y-22.155
N19770 X50.677 Y-22.196
N19775 X50.503 Y-22.242
N19780 X50.437 Y-22.256
N19785 X50.317 Y-22.275
N19790 X50.197 Y-22.29
N19795 X50.077 Y-22.295
N19800 X49.957 Y-22.3
N19805 X-29.926
N19810 X-30.046 Y-22.297
N19815 X-30.166 Y-22.293
N19820 X-30.286 Y-22.286
N19825 X-32.565 Y-22.137
N19830 X-32.685 Y-22.128
N19835 X-32.805 Y-22.118
N19840 X-32.925 Y-22.107
N19845 X-33.045 Y-22.087
N19850 X-33.165 Y-22.064
N19855 X-35.564 Y-21.586
N19860 X-35.684 Y-21.561
N19865 X-35.804 Y-21.53
N19870 X-35.831 Y-21.522
N19875 X-35.924 Y-21.493
N19880 X-36.193 Y-21.402
N19885 X-38.323 Y-20.679
N19890 X-38.563 Y-20.589
N19895 X-38.62 Y-20.563
N19900 X-38.802 Y-20.476
N19905 X-40.962 Y-19.411
N19910 X-41.05 Y-19.364
N19915 X-41.259 Y-19.244
N19920 X-41.321 Y-19.204
N19925 X-43.414 Y-17.805
N19930 X-43.48 Y-17.759
N19935 X-43.6 Y-17.666
N19940 X-43.72 Y-17.571
N19945 X-45.641 Y-15.887
N19950 X-45.763 Y-15.767
N19955 X-45.879 Y-15.65
N19960 X-45.895 Y-15.631
N19965 G3 X-46.575 Y-15.808 I-0.291 J-0.274
N19970 G1 X-46.581 Y-15.857 Z-0.597
N19975 X-46.587 Y-15.905 Z-0.588
N19980 X-46.573 Y-15.968 Z-0.565
N19985 X-46.559 Y-16.026 Z-0.532
N19990 X-46.548 Y-16.077 Z-0.49
N19995 X-46.523 Y-16.115 Z-0.439
N20000 X-46.504 Y-16.145 Z-0.382
N20005 X-46.49 Y-16.166 Z-0.32
N20010 X-46.481 Y-16.176 Z-0.261
N20015 X-46.478 Y-16.179 Z-0.2
N20020 G0 Z5.
N20025 X-51.274 Y-9.024
N20030 Z0.4
N20035 G1 Z0. F200.
N20040 X-51.272 Y-9.017 Z-0.078
N20045 X-51.266 Y-8.995 Z-0.153
N20050 X-51.257 Y-8.959 Z-0.222
N20055 X-51.245 Y-8.911 Z-0.283
N20060 X-51.23 Y-8.852 Z-0.333
N20065 X-51.212 Y-8.785 Z-0.37
N20070 X-51.194 Y-8.712 Z-0.392
N20075 X-51.175 Y-8.637 Z-0.4
N20080 G3 X-50.996 Y-7.393 I-5.651 J1.447
N20085 G1 Y-7.211
N20090 X-50.961 Y-7.033
N20095 X-50.823 Y-6.698
N20100 X-50.742 Y-6.522
N20105 X-50.662 Y-6.301
N20110 X-50.585 Y-6.021
N20115 X-50.517 Y-5.665
N20120 X-50.477 Y-5.304
N20125 X-50.46 Y-4.941
N20130 Y-4.578
N20135 X-50.473 Y-4.216
N20140 X-50.488 Y-3.853
N20145 X-50.504 Y-3.491
N20150 X-50.522 Y-3.128
N20155 X-50.541 Y-2.766
N20160 X-50.561 Y-2.403
N20165 X-50.582 Y-2.041
N20170 X-50.602 Y-1.679
N20175 X-50.617 Y-1.316
N20180 X-50.625 Y-0.953
