%
(1)
(T1  D=6. CR=0. - ZMIN=-10.499 - FLAT END MILL)
N10 G90 G94 G17 G91.1
N15 G21
N20 G53 G0 Z0.
(ADAPTIVE3)
N25 M9
N30 T1 M6
N35 S2500 M3
N40 G54
N45 M8
N55 G0 X0.411 Y5.457
N60 G43 Z15. H1
N65 G0 Z5.
N70 Z-0.8
N75 G1 Z-1.4 F100.
N80 X0.41 Y5.45 Z-1.494
N85 X0.404 Y5.429 Z-1.585
N90 X0.395 Y5.394 Z-1.672
N95 X0.383 Y5.346 Z-1.753
N100 X0.368 Y5.287 Z-1.824
N105 X0.35 Y5.218 Z-1.885
N110 X0.33 Y5.14 Z-1.935
N115 X0.308 Y5.056 Z-1.971
N120 X0.286 Y4.967 Z-1.993
N125 X0.262 Y4.876 Z-2.
N130 G3 X-0.006 Y3.01 I8.476 J-2.171
N135 G1 Y2.991
N140 X0.049 Y2.565
N145 X0.096 Y2.138
N150 X0.137 Y1.711
N155 X0.171 Y1.283
N160 X0.201 Y0.854
N165 X0.227 Y0.425
N170 X0.248 Y-0.004
N175 X0.267 Y-0.433
N180 X0.283 Y-0.862
N185 X0.297 Y-1.291
N190 X0.309 Y-1.721
N195 X0.319 Y-2.15
N200 X0.327 Y-2.579
N205 X0.335 Y-3.009
N210 X0.341 Y-3.438
N215 X0.346 Y-3.868
N220 X0.351 Y-4.297
N225 X0.355 Y-4.727
N230 X0.358 Y-5.156
N235 X0.361 Y-5.586
N240 X0.363 Y-6.015
N245 X0.366 Y-6.445
N250 X0.367 Y-6.874
N255 X0.369 Y-7.304
N260 X0.371 Y-8.163
N265 X0.373 Y-9.022
N270 X0.375 Y-10.311
N275 X0.376 Y-11.599
N280 X0.377 Y-13.747
N285 X0.378 Y-17.183
N290 Y-27.492
N295 Y-37.371
N300 X0.262 Y-37.784
N305 X0.04 Y-38.152
N310 X-0.244 Y-38.474
N315 X-0.569 Y-38.755
N320 X-0.922 Y-38.999
N325 X-1.296 Y-39.211
N330 X-1.685 Y-39.394
N335 X-2.084 Y-39.552
N340 X-2.492 Y-39.688
N345 X-2.905 Y-39.805
N350 X-3.322 Y-39.906
N355 X-3.743 Y-39.993
N360 X-4.166 Y-40.068
N365 X-4.591 Y-40.132
N370 X-5.017 Y-40.186
N375 X-5.444 Y-40.234
N380 X-5.871 Y-40.274
N385 X-6.299 Y-40.309
N390 X-6.728 Y-40.338
N395 X-7.157 Y-40.364
N400 X-7.586 Y-40.385
N405 X-8.015 Y-40.404
N410 X-8.444 Y-40.42
N415 X-8.873 Y-40.434
N420 X-9.301 Y-40.477
N425 X-9.729 Y-40.514
N430 X-10.157 Y-40.545
N435 X-10.586 Y-40.572
N440 X-11.015 Y-40.595
N445 X-11.444 Y-40.615
N450 X-11.873 Y-40.632
N455 X-12.302 Y-40.646
N460 X-12.731 Y-40.659
N465 X-13.161 Y-40.669
N470 X-13.59 Y-40.678
N475 X-14.02 Y-40.686
N480 X-14.449 Y-40.693
N485 X-14.879 Y-40.698
N490 X-15.308 Y-40.703
N495 X-15.738 Y-40.707
N500 X-16.167 Y-40.711
N505 X-16.597 Y-40.714
N510 X-17.026 Y-40.716
N515 X-17.456 Y-40.718
N520 X-17.885 Y-40.72
N525 X-18.315 Y-40.722
N530 X-19.174 Y-40.724
N535 X-20.033 Y-40.726
N540 X-20.892 Y-40.727
N545 X-22.181 Y-40.729
N550 X-23.899 Y-40.73
N555 X-26.476 Y-40.731
N560 X-32.06
N565 X-58.69
N570 X-80.234
N575 X-80.548 Y-40.767
N580 X-80.845 Y-40.871
N585 X-81.112 Y-41.04
N590 X-81.334 Y-41.264
N595 X-81.356 Y-41.293
N600 X-81.425 Y-41.37
N605 X-81.605 Y-41.551
N610 X-81.719 Y-41.653
N615 X-81.945 Y-41.833
N620 X-81.965 Y-41.847
N625 X-82.145 Y-41.963
N630 X-82.223 Y-42.013
N635 X-82.325 Y-42.072
N640 X-82.505 Y-42.164
N645 X-82.57 Y-42.193
N650 X-82.685 Y-42.239
N655 X-82.865 Y-42.308
N660 X-83.069 Y-42.373
N665 X-83.225 Y-42.41
N670 X-83.405 Y-42.447
N675 X-83.585 Y-42.473
N680 X-83.764 Y-42.489
N685 X-83.944 Y-42.499
N690 X-84.124 Y-42.5
N695 X-84.304
N700 X-120.836
N705 X-121.015 Y-42.498
N710 X-121.195 Y-42.493
N715 X-121.375 Y-42.477
N720 X-121.555 Y-42.454
N725 X-121.735 Y-42.419
N730 X-121.915 Y-42.377
N735 X-121.931 Y-42.373
N740 X-122.095 Y-42.323
N745 X-122.275 Y-42.256
N750 X-122.427 Y-42.193
N755 X-122.455 Y-42.18
N760 X-122.635 Y-42.093
N765 X-122.815 Y-41.988
N770 X-122.995 Y-41.874
N775 X-123.055 Y-41.833
N780 X-123.175 Y-41.742
N785 X-123.355 Y-41.587
N790 X-123.475 Y-41.473
N795 X-123.643 Y-41.293
N800 X-123.715 Y-41.208
N805 X-123.788 Y-41.113
N810 X-123.895 Y-40.964
N815 X-123.915 Y-40.933
N820 X-124.029 Y-40.753
N825 X-124.075 Y-40.666
N830 X-124.122 Y-40.573
N835 X-124.208 Y-40.393
N840 X-124.282 Y-40.213
N845 X-124.34 Y-40.033
N850 X-124.392 Y-39.853
N855 X-124.435 Y-39.662
N860 X-124.462 Y-39.493
N865 X-124.485 Y-39.313
N870 X-124.495 Y-39.133
N875 X-124.5 Y-38.953
N880 Y-38.774
N885 Y-1.164
N890 X-124.498 Y-0.984
N895 X-124.493 Y-0.804
N900 X-124.476 Y-0.624
N905 X-124.454 Y-0.444
N910 X-124.419 Y-0.264
N915 X-124.374 Y-0.084
N920 X-124.323 Y0.096
N925 X-124.258 Y0.276
N930 X-124.255 Y0.284
N935 X-124.179 Y0.456
N940 X-124.094 Y0.636
N945 X-124.075 Y0.67
N950 X-123.991 Y0.816
N955 X-123.895 Y0.961
N960 X-123.741 Y1.176
N965 X-123.715 Y1.208
N970 X-123.587 Y1.355
N975 X-123.535 Y1.411
N980 X-123.411 Y1.535
N985 X-123.355 Y1.588
N990 X-123.207 Y1.715
N995 X-123.175 Y1.741
N1000 X-122.96 Y1.895
N1005 X-122.815 Y1.992
N1010 X-122.669 Y2.075
N1015 X-122.635 Y2.094
N1020 X-122.455 Y2.179
N1025 X-122.283 Y2.255
N1030 X-122.275 Y2.258
N1035 X-122.095 Y2.324
N1040 X-121.915 Y2.375
N1045 X-121.735 Y2.419
N1050 X-121.555 Y2.454
N1055 X-121.375 Y2.477
N1060 X-121.195 Y2.493
N1065 X-121.015 Y2.498
N1070 X-120.836 Y2.5
N1075 X-83.225
N1080 X-83.045
N1085 X-82.865 Y2.495
N1090 X-82.685 Y2.485
N1095 X-82.505 Y2.464
N1100 X-82.325 Y2.443
N1105 X-75.666 Y1.604
N1110 X-75.486 Y1.582
N1115 X-75.307 Y1.561
N1120 X-75.127 Y1.541
N1125 X-68.108 Y0.925
N1130 X-67.928 Y0.913
N1135 X-67.748 Y0.904
N1140 X-67.208 Y0.877
N1145 X-60.91 Y0.562
N1150 X-60.73 Y0.556
N1155 X-60.55 Y0.551
N1160 X-60.37 Y0.549
N1165 X-53.712 Y0.468
N1170 X-53.532 Y0.467
N1175 X-53.352
N1180 X-46.334 Y0.647
N1185 X-46.154 Y0.652
N1190 X-45.974 Y0.659
N1195 X-45.794 Y0.667
N1200 X-14.481 Y2.059
N1205 X-14.301 Y2.067
N1210 X-14.121 Y2.077
N1215 X-13.941 Y2.088
N1220 X-13.761 Y2.101
N1225 X-13.581 Y2.109
N1230 X-13.402 Y2.114
N1235 X-13.222
N1240 X-13.042 Y2.112
N1245 X-12.862 Y2.11
N1250 X-12.682 Y2.102
N1255 X-12.502 Y2.089
N1260 X-12.322 Y2.075
N1265 X-12.142 Y2.059
N1270 X-11.962 Y2.039
N1275 X-11.782 Y2.013
N1280 X-11.602 Y1.979
N1285 X-11.422 Y1.944
N1290 X-11.062 Y1.874
N1295 X-10.882 Y1.838
N1300 X-10.702 Y1.801
N1305 X-10.522 Y1.758
N1310 X-10.342 Y1.708
N1315 X-10.162 Y1.648
N1320 X-9.982 Y1.584
N1325 X-9.845 Y1.535
N1330 X-9.434 Y1.412
N1335 X-9.384 Y1.393
N1340 X-9.331 Y1.374
N1345 X-9.278 Y1.354
N1350 X-9.222 Y1.334
N1355 X-9.166 Y1.315
N1360 X-9.107 Y1.295
N1365 X-9.047 Y1.275
N1370 X-8.986 Y1.255
N1375 X-8.922 Y1.235
N1380 X-8.857 Y1.215
N1385 X-8.79 Y1.195
N1390 X-8.72 Y1.175
N1395 X-8.649 Y1.154
N1400 X-8.575 Y1.134
N1405 X-8.499 Y1.114
N1410 X-8.42 Y1.093
N1415 X-8.338 Y1.073
N1420 X-8.254 Y1.052
N1425 X-8.167 Y1.031
N1430 X-8.076 Y1.011
N1435 X-7.982 Y0.99
N1440 X-7.885 Y0.969
N1445 X-7.783 Y0.948
N1450 X-7.678 Y0.927
N1455 X-7.568 Y0.906
N1460 X-7.453 Y0.885
N1465 X-7.333 Y0.864
N1470 X-7.207 Y0.843
N1475 X-7.075 Y0.822
N1480 X-6.936 Y0.801
N1485 X-6.789 Y0.78
N1490 X-6.634 Y0.759
N1495 X-6.471 Y0.737
N1500 X-6.296 Y0.716
N1505 X-6.111 Y0.695
N1510 X-5.912 Y0.673
N1515 X-5.698 Y0.652
N1520 X-5.484 Y0.632
N1525 X-5.067 Y0.527
N1530 X-4.698 Y0.308
N1535 X-4.372 Y0.029
N1540 X-4.085 Y-0.292
N1545 X-3.836 Y-0.641
N1550 X-3.618 Y-1.011
N1555 X-3.546 Y-1.159
N1560 X-3.431 Y-1.352
N1565 X-3.288 Y-1.524
N1570 X-3.119 Y-1.67
N1575 G3 X-2.26 Y-1.475 I0.339 J0.495
N1580 X-2.522 Y-0.634 I-0.52 J0.3
N1585 G1 X-9.366 Y2.635
N1590 G3 X-10.175 Y2.333 I-0.259 J-0.541
N1595 X-9.845 Y1.535 I0.55 J-0.24
N1600 G1 X-9.339 Y1.355
N1605 X-9.263 Y1.328
N1610 X-9.083 Y1.257
N1615 X-8.895 Y1.176
N1620 X-6.563 Y0.15
N1625 X-5.843 Y-0.166
N1630 X-5.622 Y-0.264
N1635 X-5.483 Y-0.327
N1640 X-5.231 Y-0.444
N1645 X-5.124 Y-0.496
N1650 X-4.944 Y-0.584
N1655 X-4.862 Y-0.624
N1660 X-4.584 Y-0.767
N1665 X-4.515 Y-0.804
N1670 X-4.404 Y-0.864
N1675 X-4.224 Y-0.963
N1680 X-4.044 Y-1.066
N1685 X-3.877 Y-1.164
N1690 X-3.864 Y-1.172
N1695 X-3.684 Y-1.282
N1700 X-3.589 Y-1.344
N1705 X-3.405 Y-1.466
N1710 X-3.324 Y-1.52
N1715 X-3.319 Y-1.524
N1720 X-3.144 Y-1.652
N1725 X-3.074 Y-1.704
N1730 X-2.964 Y-1.789
N1735 X-2.849 Y-1.884
N1740 X-2.784 Y-1.939
N1745 X-2.647 Y-2.064
N1750 X-2.604 Y-2.104
N1755 X-2.464 Y-2.244
N1760 X-2.424 Y-2.288
N1765 X-2.304 Y-2.423
N1770 X-2.244 Y-2.498
N1775 X-2.162 Y-2.603
N1780 X-2.064 Y-2.747
N1785 X-1.928 Y-2.963
N1790 X-1.884 Y-3.045
N1795 X-1.836 Y-3.143
N1800 X-1.755 Y-3.323
N1805 X-1.684 Y-3.503
N1810 X-1.627 Y-3.683
N1815 X-1.585 Y-3.863
N1820 X-1.549 Y-4.043
N1825 X-1.528 Y-4.223
N1830 X-1.524 Y-4.255
N1835 X-1.514 Y-4.403
N1840 X-1.511 Y-4.583
N1845 X-1.521 Y-4.763
N1850 X-1.524 Y-4.817
N1855 X-1.539 Y-4.943
N1860 X-1.567 Y-5.123
N1865 X-1.608 Y-5.303
N1870 X-1.617 Y-5.344
N1875 X-1.678 Y-5.769
N1880 X-1.73 Y-6.196
N1885 X-1.774 Y-6.623
N1890 X-1.811 Y-7.051
N1895 X-1.842 Y-7.479
N1900 X-1.869 Y-7.908
N1905 X-1.892 Y-8.337
N1910 X-1.911 Y-8.766
N1915 X-1.928 Y-9.195
N1920 X-1.942 Y-9.624
N1925 X-1.954 Y-10.054
N1930 X-1.964 Y-10.483
N1935 X-1.973 Y-10.913
N1940 X-1.98 Y-11.342
N1945 X-1.986 Y-11.772
N1950 X-1.991 Y-12.201
N1955 X-1.996 Y-12.631
N1960 X-2. Y-13.06
N1965 X-2.003 Y-13.49
N1970 X-2.006 Y-13.919
N1975 X-2.008 Y-14.349
N1980 X-2.01 Y-14.778
N1985 X-2.012 Y-15.208
N1990 X-2.013 Y-15.637
N1995 X-2.016 Y-16.496
N2000 X-2.017 Y-17.355
N2005 X-2.019 Y-18.644
N2010 X-2.02 Y-19.932
N2015 X-2.021 Y-22.08
N2020 X-2.022 Y-25.516
N2025 Y-33.677
N2030 X-2.042 Y-34.106
N2035 X-2.147 Y-34.523
N2040 X-2.323 Y-34.915
N2045 X-2.555 Y-35.276
N2050 X-2.831 Y-35.606
N2055 X-3.141 Y-35.903
N2060 X-3.478 Y-36.169
N2065 X-3.835 Y-36.407
N2070 X-4.21 Y-36.618
N2075 X-4.596 Y-36.805
N2080 X-4.993 Y-36.97
N2085 X-5.397 Y-37.115
N2090 X-5.807 Y-37.243
N2095 X-6.222 Y-37.355
N2100 X-6.64 Y-37.454
N2105 X-7.059 Y-37.546
N2110 X-7.481 Y-37.63
N2115 X-7.903 Y-37.706
N2120 X-8.327 Y-37.775
N2125 X-8.752 Y-37.837
N2130 X-9.178 Y-37.893
N2135 X-9.605 Y-37.943
N2140 X-10.032 Y-37.988
N2145 X-10.46 Y-38.028
N2150 X-10.888 Y-38.064
N2155 X-11.316 Y-38.095
N2160 X-11.745 Y-38.124
N2165 X-12.173 Y-38.149
N2170 X-12.602 Y-38.171
N2175 X-13.031 Y-38.19
N2180 X-13.461 Y-38.208
N2185 X-13.89 Y-38.223
N2190 X-14.319 Y-38.236
N2195 X-14.749 Y-38.248
N2200 X-15.178 Y-38.258
N2205 X-15.607 Y-38.268
N2210 X-16.037 Y-38.276
N2215 X-16.466 Y-38.283
N2220 X-16.896 Y-38.289
N2225 X-17.325 Y-38.294
N2230 X-17.755 Y-38.299
N2235 X-18.184 Y-38.303
N2240 X-18.614 Y-38.307
N2245 X-19.043 Y-38.31
N2250 X-19.473 Y-38.313
N2255 X-19.902 Y-38.315
N2260 X-20.332 Y-38.317
N2265 X-20.761 Y-38.319
N2270 X-21.191 Y-38.32
N2275 X-22.05 Y-38.323
N2280 X-22.909 Y-38.325
N2285 X-24.198 Y-38.327
N2290 X-25.486 Y-38.328
N2295 X-27.204 Y-38.33
N2300 X-29.781
N2305 X-34.506 Y-38.331
N2310 X-72.304
N2315 X-77.459
N2320 X-77.888 Y-38.332
N2325 X-78.318 Y-38.339
N2330 X-78.747 Y-38.356
N2335 X-79.175 Y-38.392
N2340 X-79.352 Y-38.415
N2345 X-79.642 Y-38.485
N2350 X-79.911 Y-38.615
N2355 X-80.146 Y-38.8
N2360 X-80.337 Y-39.03
N2365 X-80.474 Y-39.295
N2370 X-80.552 Y-39.583
N2375 G3 X-79.364 Y-39.745 I0.596 J-0.073
N2380 X-79.361 Y-39.73 I-0.593 J0.088
N2385 G1 X-79.35 Y-39.637 Z-1.993
N2390 X-79.339 Y-39.546 Z-1.971
N2395 X-79.328 Y-39.46 Z-1.935
N2400 X-79.318 Y-39.38 Z-1.885
N2405 X-79.31 Y-39.309 Z-1.824
N2410 X-79.302 Y-39.248 Z-1.753
N2415 X-79.296 Y-39.199 Z-1.672
N2420 X-79.292 Y-39.164 Z-1.585
N2425 X-79.289 Y-39.142 Z-1.494
N2430 X-79.288 Y-39.134 Z-1.4
N2435 G0 Z5.
N2440 X-0.534 Y-3.065
N2445 Z-0.8
N2450 G1 Z-1.4 F100.
N2455 X-0.537 Y-3.071 Z-1.494
N2460 X-0.549 Y-3.09 Z-1.585
N2465 X-0.567 Y-3.121 Z-1.672
N2470 X-0.592 Y-3.164 Z-1.753
N2475 X-0.622 Y-3.216 Z-1.824
N2480 X-0.659 Y-3.278 Z-1.885
N2485 X-0.699 Y-3.347 Z-1.935
N2490 X-0.743 Y-3.423 Z-1.971
N2495 X-0.789 Y-3.502 Z-1.993
N2500 X-0.837 Y-3.583 Z-2.
N2505 G3 X-1.608 Y-5.303 I7.552 J-4.418
N2510 G1 X-1.659 Y-5.483
N2515 X-1.72 Y-5.663
N2520 X-1.782 Y-5.843
N2525 X-1.884 Y-6.136
N2530 X-1.971 Y-6.382
N2535 X-2.064 Y-6.637
N2540 X-2.103 Y-6.742
N2545 X-2.647 Y-8.182
N2550 X-2.715 Y-8.362
N2555 X-2.786 Y-8.542
N2560 X-2.864 Y-8.722
N2565 X-2.95 Y-8.902
N2570 X-3.214 Y-9.442
N2575 X-3.383 Y-9.836
N2580 X-3.537 Y-10.238
N2585 X-3.667 Y-10.647
N2590 X-3.777 Y-11.062
N2595 X-3.871 Y-11.481
N2600 X-3.951 Y-11.903
N2605 X-4.019 Y-12.327
N2610 X-4.077 Y-12.753
N2615 X-4.127 Y-13.18
N2620 X-4.169 Y-13.607
N2625 X-4.206 Y-14.035
N2630 X-4.237 Y-14.463
N2635 X-4.263 Y-14.892
N2640 X-4.286 Y-15.321
N2645 X-4.306 Y-15.75
N2650 X-4.322 Y-16.179
N2655 X-4.337 Y-16.609
N2660 X-4.349 Y-17.038
N2665 X-4.359 Y-17.467
N2670 X-4.368 Y-17.897
N2675 X-4.376 Y-18.326
N2680 X-4.382 Y-18.756
N2685 X-4.388 Y-19.185
N2690 X-4.393 Y-19.615
N2695 X-4.397 Y-20.044
N2700 X-4.401 Y-20.474
N2705 X-4.404 Y-20.903
N2710 X-4.406 Y-21.333
N2715 X-4.408 Y-21.762
N2720 X-4.41 Y-22.192
N2725 X-4.412 Y-22.621
N2730 X-4.413 Y-23.051
N2735 X-4.416 Y-23.91
N2740 X-4.417 Y-24.769
N2745 X-4.419 Y-26.057
N2750 X-4.42 Y-27.346
N2755 X-4.421 Y-29.494
N2760 Y-30.782
N2765 X-4.444 Y-31.211
N2770 X-4.53 Y-31.632
N2775 X-4.679 Y-32.035
N2780 X-4.881 Y-32.414
N2785 X-5.128 Y-32.765
N2790 X-5.412 Y-33.088
N2795 X-5.725 Y-33.382
N2800 X-6.06 Y-33.65
N2805 X-6.415 Y-33.893
N2810 X-6.784 Y-34.112
N2815 X-7.166 Y-34.309
N2820 X-7.557 Y-34.487
N2825 X-7.956 Y-34.646
N2830 X-8.361 Y-34.789
N2835 X-8.771 Y-34.916
N2840 X-9.185 Y-35.03
N2845 X-9.602 Y-35.132
N2850 X-10.022 Y-35.223
N2855 X-10.444 Y-35.304
N2860 X-10.868 Y-35.376
N2865 X-11.292 Y-35.44
N2870 X-11.718 Y-35.496
N2875 X-12.145 Y-35.547
N2880 X-12.572 Y-35.592
N2885 X-13. Y-35.631
N2890 X-13.428 Y-35.666
N2895 X-13.856 Y-35.698
N2900 X-14.285 Y-35.725
N2905 X-14.713 Y-35.75
N2910 X-15.142 Y-35.771
N2915 X-15.572 Y-35.79
N2920 X-16.001 Y-35.807
N2925 X-16.43 Y-35.822
N2930 X-16.859 Y-35.835
N2935 X-17.289 Y-35.847
N2940 X-17.718 Y-35.857
N2945 X-18.148 Y-35.866
N2950 X-18.577 Y-35.874
N2955 X-19.006 Y-35.881
N2960 X-19.436 Y-35.887
N2965 X-19.865 Y-35.892
N2970 X-20.295 Y-35.897
N2975 X-20.724 Y-35.901
N2980 X-21.154 Y-35.905
N2985 X-21.583 Y-35.908
N2990 X-22.013 Y-35.911
N2995 X-22.443 Y-35.913
N3000 X-22.872 Y-35.916
N3005 X-23.302 Y-35.918
N3010 X-23.731 Y-35.919
N3015 X-24.59 Y-35.922
N3020 X-25.449 Y-35.924
N3025 X-26.308 Y-35.926
N3030 X-27.597 Y-35.928
N3035 X-29.315 Y-35.929
N3040 X-31.033 Y-35.93
N3045 X-34.04 Y-35.931
N3050 X-40.483
N3055 X-75.274
N3060 X-75.704 Y-35.932
N3065 X-76.133 Y-35.935
N3070 X-76.563 Y-35.94
N3075 X-76.992 Y-35.951
N3080 X-77.421 Y-35.969
N3085 X-77.85 Y-36.
N3090 X-78.276 Y-36.048
N3095 X-78.7 Y-36.119
N3100 X-79.118 Y-36.217
N3105 X-79.506 Y-36.339
N3110 X-79.625 Y-36.387
N3115 X-79.87 Y-36.515
N3120 X-80.085 Y-36.689
N3125 X-80.261 Y-36.902
N3130 X-80.392 Y-37.145
N3135 X-80.473 Y-37.41
N3140 X-80.5 Y-37.685
N3145 Y-38.774
N3150 Y-38.953
N3155 G3 X-79.301 Y-38.929 I0.6 J0.02
N3160 Y-38.914 I-0.6 J-0.005
N3165 G1 X-79.304 Y-38.82 Z-1.993
N3170 X-79.307 Y-38.728 Z-1.971
N3175 X-79.31 Y-38.642 Z-1.935
N3180 X-79.313 Y-38.561 Z-1.885
N3185 X-79.315 Y-38.49 Z-1.824
N3190 X-79.317 Y-38.429 Z-1.753
N3195 X-79.319 Y-38.379 Z-1.672
N3200 X-79.32 Y-38.343 Z-1.585
N3205 X-79.321 Y-38.321 Z-1.494
N3210 Y-38.314 Z-1.4
N3215 G0 Z5.
N3220 X-1.441 Y-7.721
N3225 Z-0.8
N3230 G1 Z-1.4 F100.
N3235 X-1.447 Y-7.725 Z-1.494
N3240 X-1.465 Y-7.737 Z-1.585
N3245 X-1.495 Y-7.757 Z-1.672
N3250 X-1.537 Y-7.784 Z-1.753
N3255 X-1.588 Y-7.818 Z-1.824
N3260 X-1.648 Y-7.857 Z-1.885
N3265 X-1.715 Y-7.901 Z-1.935
N3270 X-1.788 Y-7.948 Z-1.971
N3275 X-1.864 Y-7.999 Z-1.993
N3280 X-1.943 Y-8.05 Z-2.
N3285 G3 X-3.214 Y-9.442 I2.08 J-3.178
N3290 G1 X-3.566 Y-10.161
N3295 X-3.656 Y-10.341
N3300 X-3.746 Y-10.521
N3305 X-4.118 Y-11.241
N3310 X-4.212 Y-11.421
N3315 X-4.224 Y-11.443
N3320 X-4.315 Y-11.601
N3325 X-4.421 Y-11.781
N3330 X-5.124 Y-12.949
N3335 X-5.18 Y-13.041
N3340 X-5.303 Y-13.22
N3345 X-5.416 Y-13.398
N3350 X-5.614 Y-13.779
N3355 X-5.784 Y-14.173
N3360 X-5.929 Y-14.578
N3365 X-6.053 Y-14.989
N3370 X-6.16 Y-15.405
N3375 X-6.252 Y-15.825
N3380 X-6.33 Y-16.247
N3385 X-6.398 Y-16.671
N3390 X-6.456 Y-17.096
N3395 X-6.507 Y-17.523
N3400 X-6.55 Y-17.95
N3405 X-6.587 Y-18.378
N3410 X-6.619 Y-18.807
N3415 X-6.647 Y-19.235
N3420 X-6.671 Y-19.664
N3425 X-6.692 Y-20.093
N3430 X-6.71 Y-20.522
N3435 X-6.725 Y-20.952
N3440 X-6.738 Y-21.381
N3445 X-6.75 Y-21.81
N3450 X-6.76 Y-22.24
N3455 X-6.768 Y-22.669
N3460 X-6.776 Y-23.099
N3465 X-6.782 Y-23.528
N3470 X-6.787 Y-23.957
N3475 X-6.792 Y-24.387
N3480 X-6.796 Y-24.816
N3485 X-6.8 Y-25.246
N3490 X-6.803 Y-25.676
N3495 X-6.805 Y-26.105
N3500 X-6.808 Y-26.535
N3505 X-6.81 Y-26.964
N3510 X-6.811 Y-27.394
N3515 X-6.813 Y-27.823
N3520 X-6.814 Y-28.253
N3525 X-6.856 Y-28.68
N3530 X-6.954 Y-29.099
N3535 X-7.104 Y-29.501
N3540 X-7.303 Y-29.882
N3545 X-7.543 Y-30.238
N3550 X-7.818 Y-30.568
N3555 X-8.122 Y-30.871
N3560 X-8.45 Y-31.148
N3565 X-8.798 Y-31.4
N3570 X-9.162 Y-31.628
N3575 X-9.539 Y-31.834
N3580 X-9.926 Y-32.02
N3585 X-10.322 Y-32.186
N3590 X-10.725 Y-32.335
N3595 X-11.133 Y-32.469
N3600 X-11.546 Y-32.588
N3605 X-11.962 Y-32.695
N3610 X-12.381 Y-32.789
N3615 X-12.802 Y-32.874
N3620 X-13.225 Y-32.949
N3625 X-13.649 Y-33.016
N3630 X-14.075 Y-33.075
N3635 X-14.501 Y-33.128
N3640 X-14.928 Y-33.174
N3645 X-15.356 Y-33.216
N3650 X-15.783 Y-33.252
N3655 X-16.212 Y-33.285
N3660 X-16.64 Y-33.313
N3665 X-17.069 Y-33.339
N3670 X-17.498 Y-33.361
N3675 X-17.927 Y-33.381
N3680 X-18.356 Y-33.399
N3685 X-18.785 Y-33.415
N3690 X-19.215 Y-33.428
N3695 X-19.644 Y-33.441
N3700 X-20.074 Y-33.451
N3705 X-20.503 Y-33.461
N3710 X-20.932 Y-33.469
N3715 X-21.362 Y-33.476
N3720 X-21.791 Y-33.483
N3725 X-22.221 Y-33.489
N3730 X-22.65 Y-33.494
N3735 X-23.08 Y-33.498
N3740 X-23.509 Y-33.502
N3745 X-23.939 Y-33.506
N3750 X-24.368 Y-33.509
N3755 X-24.798 Y-33.511
N3760 X-25.227 Y-33.514
N3765 X-25.657 Y-33.516
N3770 X-26.086 Y-33.518
N3775 X-26.945 Y-33.521
N3780 X-27.805 Y-33.523
N3785 X-28.664 Y-33.525
N3790 X-29.952 Y-33.527
N3795 X-31.241 Y-33.528
N3800 X-32.959 Y-33.529
N3805 X-35.536 Y-33.53
N3810 X-39.402 Y-33.531
N3815 X-53.576
N3820 X-72.905
N3825 X-73.334
N3830 X-73.764 Y-33.532
N3835 X-74.193 Y-33.534
N3840 X-74.623 Y-33.537
N3845 X-75.052 Y-33.542
N3850 X-75.482 Y-33.551
N3855 X-75.911 Y-33.565
N3860 X-76.34 Y-33.585
N3865 X-76.769 Y-33.614
N3870 X-77.196 Y-33.653
N3875 X-77.623 Y-33.704
N3880 X-78.048 Y-33.769
N3885 X-78.469 Y-33.851
N3890 X-78.886 Y-33.955
N3895 X-79.295 Y-34.085
N3900 X-79.678 Y-34.237
N3905 X-79.719 Y-34.257
N3910 X-79.981 Y-34.425
N3915 X-80.199 Y-34.646
N3920 X-80.364 Y-34.91
N3925 X-80.465 Y-35.204
N3930 X-80.5 Y-35.513
N3935 Y-37.685
N3940 G3 X-79.3 Y-37.658 I0.6 J0.021
N3945 X-79.301 Y-37.643 I-0.6 J-0.006
N3950 G1 X-79.304 Y-37.549 Z-1.993
N3955 X-79.307 Y-37.458 Z-1.971
N3960 X-79.31 Y-37.371 Z-1.935
N3965 X-79.313 Y-37.29 Z-1.885
N3970 X-79.316 Y-37.219 Z-1.824
N3975 X-79.318 Y-37.158 Z-1.753
N3980 X-79.319 Y-37.109 Z-1.672
N3985 X-79.321 Y-37.073 Z-1.585
N3990 Y-37.051 Z-1.494
N3995 X-79.322 Y-37.043 Z-1.4
N4000 G0 Z5.
N4005 X-3.284 Y-11.797
N4010 Z-0.8
N4015 G1 Z-1.4 F100.
N4020 X-3.29 Y-11.8 Z-1.494
N4025 X-3.31 Y-11.809 Z-1.585
N4030 X-3.343 Y-11.824 Z-1.672
N4035 X-3.388 Y-11.844 Z-1.753
N4040 X-3.444 Y-11.869 Z-1.824
N4045 X-3.509 Y-11.898 Z-1.885
N4050 X-3.582 Y-11.931 Z-1.935
N4055 X-3.662 Y-11.967 Z-1.971
N4060 X-3.745 Y-12.005 Z-1.993
N4065 X-3.831 Y-12.043 Z-2.
N4070 G3 X-5.303 Y-13.22 I1.56 J-3.463
N4075 G1 X-5.431 Y-13.4
N4080 X-5.843 Y-13.979
N4085 X-6.074 Y-14.3
N4090 X-6.743 Y-15.228
N4095 X-6.854 Y-15.38
N4100 X-6.99 Y-15.56
N4105 X-7.103 Y-15.702
N4110 X-7.283 Y-15.919
N4115 X-7.521 Y-16.236
N4120 X-7.736 Y-16.577
N4125 X-7.935 Y-16.957
N4130 X-8.107 Y-17.351
N4135 X-8.256 Y-17.754
N4140 X-8.384 Y-18.164
N4145 X-8.495 Y-18.579
N4150 X-8.591 Y-18.997
N4155 X-8.674 Y-19.419
N4160 X-8.747 Y-19.842
N4165 X-8.809 Y-20.267
N4170 X-8.863 Y-20.693
N4175 X-8.911 Y-21.12
N4180 X-8.952 Y-21.548
N4185 X-8.987 Y-21.976
N4190 X-9.018 Y-22.404
N4195 X-9.045 Y-22.833
N4200 X-9.068 Y-23.262
N4205 X-9.088 Y-23.691
N4210 X-9.106 Y-24.12
N4215 X-9.121 Y-24.549
N4220 X-9.134 Y-24.978
N4225 X-9.146 Y-25.408
N4230 X-9.164 Y-25.837
N4235 X-9.223 Y-26.262
N4240 X-9.332 Y-26.678
N4245 X-9.489 Y-27.078
N4250 X-9.692 Y-27.456
N4255 X-9.934 Y-27.811
N4260 X-10.21 Y-28.14
N4265 X-10.514 Y-28.443
N4270 X-10.842 Y-28.721
N4275 X-11.19 Y-28.973
N4280 X-11.553 Y-29.202
N4285 X-11.929 Y-29.409
N4290 X-12.316 Y-29.596
N4295 X-12.712 Y-29.764
N4300 X-13.114 Y-29.914
N4305 X-13.522 Y-30.049
N4310 X-13.934 Y-30.17
N4315 X-14.35 Y-30.277
N4320 X-14.768 Y-30.373
N4325 X-15.189 Y-30.459
N4330 X-15.612 Y-30.535
N4335 X-16.036 Y-30.603
N4340 X-16.461 Y-30.663
N4345 X-16.888 Y-30.717
N4350 X-17.315 Y-30.764
N4355 X-17.742 Y-30.806
N4360 X-18.17 Y-30.844
N4365 X-18.598 Y-30.877
N4370 X-19.027 Y-30.906
N4375 X-19.455 Y-30.932
N4380 X-19.884 Y-30.955
N4385 X-20.313 Y-30.976
N4390 X-20.742 Y-30.994
N4395 X-21.172 Y-31.01
N4400 X-21.601 Y-31.024
N4405 X-22.03 Y-31.036
N4410 X-22.46 Y-31.048
N4415 X-22.889 Y-31.057
N4420 X-23.319 Y-31.066
N4425 X-23.748 Y-31.074
N4430 X-24.177 Y-31.08
N4435 X-24.607 Y-31.086
N4440 X-25.036 Y-31.092
N4445 X-25.466 Y-31.096
N4450 X-25.895 Y-31.1
N4455 X-26.325 Y-31.104
N4460 X-26.754 Y-31.107
N4465 X-27.184 Y-31.11
N4470 X-27.614 Y-31.113
N4475 X-28.043 Y-31.115
N4480 X-28.473 Y-31.117
N4485 X-28.902 Y-31.118
N4490 X-29.761 Y-31.121
N4495 X-30.62 Y-31.123
N4500 X-31.479 Y-31.125
N4505 X-32.768 Y-31.127
N4510 X-34.056 Y-31.128
N4515 X-35.774 Y-31.129
N4520 X-38.352 Y-31.13
N4525 X-43.076 Y-31.131
N4530 X-46.942
N4535 X-70.996
N4540 X-71.425
N4545 X-71.855 Y-31.132
N4550 X-72.284 Y-31.133
N4555 X-72.714 Y-31.135
N4560 X-73.143 Y-31.138
N4565 X-73.573 Y-31.142
N4570 X-74.002 Y-31.149
N4575 X-74.432 Y-31.16
N4580 X-74.861 Y-31.174
N4585 X-75.29 Y-31.193
N4590 X-75.719 Y-31.218
N4595 X-76.147 Y-31.25
N4600 X-76.575 Y-31.29
N4605 X-77.001 Y-31.339
N4610 X-77.427 Y-31.4
N4615 X-77.85 Y-31.473
N4620 X-78.271 Y-31.559
N4625 X-78.688 Y-31.663
N4630 X-79.098 Y-31.788
N4635 X-79.5 Y-31.94
N4640 X-79.688 Y-32.026
N4645 X-79.959 Y-32.192
N4650 X-80.186 Y-32.414
N4655 X-80.358 Y-32.682
N4660 X-80.464 Y-32.981
N4665 X-80.5 Y-33.297
N4670 Y-35.513
N4675 G3 X-79.3 Y-35.486 I0.6 J0.021
N4680 X-79.301 Y-35.471 I-0.6 J-0.006
N4685 G1 X-79.304 Y-35.377 Z-1.993
N4690 X-79.307 Y-35.286 Z-1.971
N4695 X-79.31 Y-35.199 Z-1.935
N4700 X-79.313 Y-35.118 Z-1.885
N4705 X-79.316 Y-35.047 Z-1.824
N4710 X-79.318 Y-34.986 Z-1.753
N4715 X-79.319 Y-34.937 Z-1.672
N4720 X-79.321 Y-34.901 Z-1.585
N4725 Y-34.879 Z-1.494
N4730 X-79.322 Y-34.871 Z-1.4
N4735 G0 Z5.
N4740 X-5.153 Y-14.667
N4745 Z-0.8
N4750 G1 Z-1.4 F100.
N4755 X-5.16 Y-14.669 Z-1.494
N4760 X-5.181 Y-14.677 Z-1.585
N4765 X-5.215 Y-14.689 Z-1.672
N4770 X-5.261 Y-14.705 Z-1.753
N4775 X-5.319 Y-14.726 Z-1.824
N4780 X-5.386 Y-14.75 Z-1.885
N4785 X-5.462 Y-14.776 Z-1.935
N4790 X-5.544 Y-14.805 Z-1.971
N4795 X-5.63 Y-14.836 Z-1.993
N4800 X-5.718 Y-14.867 Z-2.
N4805 G3 X-7.283 Y-15.919 I1.27 J-3.58
N4810 G1 X-7.643 Y-16.352
N4815 X-7.735 Y-16.46
N4820 X-7.823 Y-16.56
N4825 X-7.898 Y-16.64
N4830 X-8.405 Y-17.179
N4835 X-8.575 Y-17.359
N4840 X-8.747 Y-17.539
N4845 X-9.435 Y-18.259
N4850 X-9.639 Y-18.495
N4855 X-9.857 Y-18.792
N4860 X-10.083 Y-19.158
N4865 X-10.279 Y-19.54
N4870 X-10.449 Y-19.934
N4875 X-10.598 Y-20.337
N4880 X-10.727 Y-20.747
N4885 X-10.84 Y-21.161
N4890 X-10.939 Y-21.579
N4895 X-11.025 Y-22.
N4900 X-11.1 Y-22.423
N4905 X-11.166 Y-22.848
N4910 X-11.226 Y-23.273
N4915 X-11.307 Y-23.695
N4920 X-11.425 Y-24.108
N4925 X-11.584 Y-24.507
N4930 X-11.784 Y-24.887
N4935 X-12.021 Y-25.245
N4940 X-12.291 Y-25.579
N4945 X-12.588 Y-25.889
N4950 X-12.909 Y-26.174
N4955 X-13.251 Y-26.435
N4960 X-13.608 Y-26.673
N4965 X-13.98 Y-26.889
N4970 X-14.362 Y-27.084
N4975 X-14.754 Y-27.26
N4980 X-15.153 Y-27.419
N4985 X-15.558 Y-27.561
N4990 X-15.968 Y-27.689
N4995 X-16.382 Y-27.804
N5000 X-16.8 Y-27.906
N5005 X-17.219 Y-27.998
N5010 X-17.641 Y-28.079
N5015 X-18.064 Y-28.152
N5020 X-18.489 Y-28.217
N5025 X-18.914 Y-28.275
N5030 X-19.341 Y-28.327
N5035 X-19.768 Y-28.372
N5040 X-20.196 Y-28.413
N5045 X-20.624 Y-28.449
N5050 X-21.052 Y-28.481
N5055 X-21.48 Y-28.51
N5060 X-21.909 Y-28.535
N5065 X-22.338 Y-28.557
N5070 X-22.767 Y-28.577
N5075 X-23.196 Y-28.595
N5080 X-23.626 Y-28.611
N5085 X-24.055 Y-28.625
N5090 X-24.484 Y-28.637
N5095 X-24.914 Y-28.648
N5100 X-25.343 Y-28.657
N5105 X-25.773 Y-28.666
N5110 X-26.202 Y-28.673
N5115 X-26.631 Y-28.68
N5120 X-27.061 Y-28.686
N5125 X-27.49 Y-28.691
N5130 X-27.92 Y-28.696
N5135 X-28.349 Y-28.7
N5140 X-28.779 Y-28.704
N5145 X-29.208 Y-28.707
N5150 X-29.638 Y-28.71
N5155 X-30.067 Y-28.712
N5160 X-30.497 Y-28.714
N5165 X-30.927 Y-28.716
N5170 X-31.356 Y-28.718
N5175 X-32.215 Y-28.721
N5180 X-33.074 Y-28.723
N5185 X-33.933 Y-28.725
N5190 X-35.222 Y-28.727
N5195 X-36.51 Y-28.728
N5200 X-38.228 Y-28.729
N5205 X-40.806 Y-28.73
N5210 X-45.101 Y-28.731
N5215 X-53.691
N5220 X-68.725
N5225 X-69.584
N5230 X-70.013 Y-28.732
N5235 X-70.443
N5240 X-70.872 Y-28.733
N5245 X-71.302 Y-28.735
N5250 X-71.731 Y-28.738
N5255 X-72.161 Y-28.742
N5260 X-72.59 Y-28.748
N5265 X-73.02 Y-28.756
N5270 X-73.449 Y-28.767
N5275 X-73.879 Y-28.78
N5280 X-74.308 Y-28.798
N5285 X-74.737 Y-28.82
N5290 X-75.165 Y-28.848
N5295 X-75.594 Y-28.881
N5300 X-76.021 Y-28.922
N5305 X-76.448 Y-28.969
N5310 X-76.874 Y-29.025
N5315 X-77.298 Y-29.092
N5320 X-77.721 Y-29.17
N5325 X-78.141 Y-29.26
N5330 X-78.557 Y-29.365
N5335 X-78.968 Y-29.49
N5340 X-79.372 Y-29.637
N5345 X-79.764 Y-29.812
N5350 X-79.765 Y-29.813
N5355 X-80.013 Y-29.983
N5360 X-80.218 Y-30.203
N5365 X-80.372 Y-30.461
N5370 X-80.468 Y-30.746
N5375 X-80.5 Y-31.045
N5380 Y-33.297
N5385 G3 X-79.3 Y-33.27 I0.6 J0.021
N5390 X-79.301 Y-33.255 I-0.6 J-0.006
N5395 G1 X-79.304 Y-33.161 Z-1.993
N5400 X-79.307 Y-33.07 Z-1.971
N5405 X-79.31 Y-32.983 Z-1.935
N5410 X-79.313 Y-32.903 Z-1.885
N5415 X-79.316 Y-32.831 Z-1.824
N5420 X-79.318 Y-32.77 Z-1.753
N5425 X-79.319 Y-32.721 Z-1.672
N5430 X-79.321 Y-32.685 Z-1.585
N5435 Y-32.663 Z-1.494
N5440 X-79.322 Y-32.655 Z-1.4
N5445 G0 Z5.
N5450 X-7.223 Y-17.159
N5455 Z-0.8
N5460 G1 Z-1.4 F100.
N5465 X-7.23 Y-17.161 Z-1.494
N5470 X-7.252 Y-17.167 Z-1.585
N5475 X-7.286 Y-17.176 Z-1.672
N5480 X-7.334 Y-17.189 Z-1.753
N5485 X-7.393 Y-17.206 Z-1.824
N5490 X-7.462 Y-17.225 Z-1.885
N5495 X-7.539 Y-17.246 Z-1.935
N5500 X-7.623 Y-17.27 Z-1.971
N5505 X-7.711 Y-17.294 Z-1.993
N5510 X-7.801 Y-17.319 Z-2.
N5515 G3 X-9.435 Y-18.259 I1.017 J-3.659
N5520 G1 X-9.608 Y-18.439
N5525 X-9.622 Y-18.454
N5530 X-9.802 Y-18.627
N5535 X-9.984 Y-18.799
N5540 X-10.342 Y-19.137
N5545 X-10.522 Y-19.303
N5550 X-10.562 Y-19.339
N5555 X-10.702 Y-19.456
N5560 X-11.062 Y-19.757
N5565 X-11.209 Y-19.879
N5570 X-11.422 Y-20.054
N5575 X-11.617 Y-20.231
N5580 X-11.829 Y-20.457
N5585 X-12.061 Y-20.748
N5590 X-12.301 Y-21.105
N5595 X-12.524 Y-21.472
N5600 X-12.752 Y-21.836
N5605 X-12.994 Y-22.19
N5610 X-13.255 Y-22.531
N5615 X-13.536 Y-22.856
N5620 X-13.837 Y-23.163
N5625 X-14.156 Y-23.451
N5630 X-14.491 Y-23.719
N5635 X-14.842 Y-23.966
N5640 X-15.206 Y-24.195
N5645 X-15.581 Y-24.404
N5650 X-15.965 Y-24.596
N5655 X-16.358 Y-24.771
N5660 X-16.757 Y-24.93
N5665 X-17.161 Y-25.074
N5670 X-17.571 Y-25.204
N5675 X-17.984 Y-25.322
N5680 X-18.4 Y-25.428
N5685 X-18.819 Y-25.524
N5690 X-19.239 Y-25.61
N5695 X-19.662 Y-25.687
N5700 X-20.086 Y-25.756
N5705 X-20.511 Y-25.819
N5710 X-20.937 Y-25.874
N5715 X-21.363 Y-25.924
N5720 X-21.791 Y-25.968
N5725 X-22.218 Y-26.008
N5730 X-22.646 Y-26.044
N5735 X-23.075 Y-26.075
N5740 X-23.093 Y-26.077
N5745 X-23.172 Y-26.084
N5750 X-23.25 Y-26.096
N5755 X-23.328 Y-26.112
N5760 X-24.199 Y-26.322
N5765 X-24.379 Y-26.364
N5770 X-24.739 Y-26.449
N5775 X-25.112 Y-26.537
N5780 X-25.279 Y-26.573
N5785 X-25.459 Y-26.607
N5790 X-25.639 Y-26.639
N5795 X-26.081 Y-26.717
N5800 X-26.178 Y-26.733
N5805 X-26.358 Y-26.759
N5810 X-26.538 Y-26.783
N5815 X-27.078 Y-26.847
N5820 X-27.258 Y-26.866
N5825 X-27.438 Y-26.884
N5830 X-28.878 Y-27.018
N5835 X-29.058 Y-27.035
N5840 X-29.238 Y-27.047
N5845 X-29.418 Y-27.058
N5850 X-29.958 Y-27.092
N5855 X-30.137 Y-27.098
N5860 X-30.317 Y-27.101
N5865 X-30.857 Y-27.104
N5870 X-31.037 Y-27.103
N5875 X-31.217 Y-27.101
N5880 X-31.397 Y-27.093
N5885 X-32.837 Y-27.02
N5890 X-33.017 Y-27.009
N5895 X-33.197 Y-26.997
N5900 X-34.636 Y-26.882
N5905 X-34.816 Y-26.866
N5910 X-34.996 Y-26.842
N5915 X-35.176 Y-26.812
N5920 X-35.356 Y-26.777
N5925 X-35.781 Y-26.716
N5930 X-36.207 Y-26.658
N5935 X-36.634 Y-26.61
N5940 X-37.061 Y-26.569
N5945 X-37.489 Y-26.533
N5950 X-37.918 Y-26.503
N5955 X-38.347 Y-26.478
N5960 X-38.776 Y-26.456
N5965 X-39.205 Y-26.438
N5970 X-39.634 Y-26.422
N5975 X-40.063 Y-26.409
N5980 X-40.493 Y-26.397
N5985 X-40.922 Y-26.388
N5990 X-41.352 Y-26.379
N5995 X-41.781 Y-26.372
N6000 X-42.211 Y-26.366
N6005 X-42.64 Y-26.361
N6010 X-43.07 Y-26.357
N6015 X-43.499 Y-26.353
N6020 X-43.929 Y-26.35
N6025 X-44.358 Y-26.347
N6030 X-44.788 Y-26.345
N6035 X-45.217 Y-26.343
N6040 X-45.647 Y-26.341
N6045 X-46.076 Y-26.339
N6050 X-46.935 Y-26.337
N6055 X-47.794 Y-26.335
N6060 X-49.083 Y-26.334
N6065 X-50.371 Y-26.333
N6070 X-52.519 Y-26.332
N6075 X-55.955 Y-26.331
N6080 X-66.693
N6085 X-67.982
N6090 X-68.411 Y-26.332
N6095 X-68.841
N6100 X-69.271 Y-26.333
N6105 X-69.7 Y-26.335
N6110 X-70.13 Y-26.337
N6115 X-70.559 Y-26.339
N6120 X-70.989 Y-26.344
N6125 X-71.418 Y-26.349
N6130 X-71.848 Y-26.356
N6135 X-72.277 Y-26.365
N6140 X-72.706 Y-26.377
N6145 X-73.136 Y-26.392
N6150 X-73.565 Y-26.41
N6155 X-73.994 Y-26.432
N6160 X-74.422 Y-26.458
N6165 X-74.851 Y-26.489
N6170 X-75.279 Y-26.525
N6175 X-75.706 Y-26.568
N6180 X-76.133 Y-26.617
N6185 X-76.559 Y-26.674
N6190 X-76.983 Y-26.74
N6195 X-77.406 Y-26.816
N6200 X-77.827 Y-26.902
N6205 X-78.244 Y-27.002
N6210 X-78.659 Y-27.115
N6215 X-79.067 Y-27.249
N6220 X-79.467 Y-27.405
N6225 X-79.7 Y-27.515
N6230 X-79.968 Y-27.682
N6235 X-80.191 Y-27.903
N6240 X-80.36 Y-28.17
N6245 X-80.465 Y-28.467
N6250 X-80.5 Y-28.78
N6255 Y-31.045
N6260 G3 X-79.3 Y-31.018 I0.6 J0.021
N6265 X-79.301 Y-31.003 I-0.6 J-0.006
N6270 G1 X-79.304 Y-30.909 Z-1.993
N6275 X-79.307 Y-30.817 Z-1.971
N6280 X-79.31 Y-30.73 Z-1.935
N6285 X-79.313 Y-30.65 Z-1.885
N6290 X-79.316 Y-30.579 Z-1.824
N6295 X-79.318 Y-30.518 Z-1.753
N6300 X-79.319 Y-30.468 Z-1.672
N6305 X-79.321 Y-30.432 Z-1.585
N6310 Y-30.41 Z-1.494
N6315 X-79.322 Y-30.403 Z-1.4
N6320 G0 Z5.
N6325 X-33.236 Y-28.046
N6330 Z-0.8
N6335 G1 Z-1.4 F100.
N6340 X-33.242 Y-28.041 Z-1.494
N6345 X-33.258 Y-28.026 Z-1.585
N6350 X-33.285 Y-28.002 Z-1.672
N6355 X-33.321 Y-27.969 Z-1.753
N6360 X-33.367 Y-27.928 Z-1.824
N6365 X-33.42 Y-27.881 Z-1.885
N6370 X-33.48 Y-27.827 Z-1.935
N6375 X-33.545 Y-27.769 Z-1.971
N6380 X-33.613 Y-27.708 Z-1.993
N6385 X-33.683 Y-27.646 Z-2.
N6390 G3 X-35.356 Y-26.777 I-2.532 J-2.831
N6395 G1 X-36.616 Y-26.53
N6400 X-36.976 Y-26.459
N6405 X-38.595 Y-26.131
N6410 X-38.775 Y-26.093
N6415 X-38.955 Y-26.054
N6420 X-42.554 Y-25.18
N6425 X-42.734 Y-25.137
N6430 X-42.914 Y-25.094
N6435 X-44.425 Y-24.737
N6440 X-44.534 Y-24.713
N6445 X-44.714 Y-24.673
N6450 X-44.894 Y-24.637
N6455 X-45.974 Y-24.434
N6460 X-46.399 Y-24.376
N6465 X-46.824 Y-24.31
N6470 X-47.25 Y-24.255
N6475 X-47.676 Y-24.207
N6480 X-48.104 Y-24.167
N6485 X-48.532 Y-24.132
N6490 X-48.961 Y-24.103
N6495 X-49.39 Y-24.078
N6500 X-49.819 Y-24.056
N6505 X-50.248 Y-24.038
N6510 X-50.677 Y-24.022
N6515 X-51.106 Y-24.009
N6520 X-51.536 Y-23.998
N6525 X-51.965 Y-23.988
N6530 X-52.394 Y-23.98
N6535 X-52.824 Y-23.973
N6540 X-53.253 Y-23.967
N6545 X-53.683 Y-23.961
N6550 X-54.112 Y-23.957
N6555 X-54.542 Y-23.953
N6560 X-54.971 Y-23.95
N6565 X-55.401 Y-23.947
N6570 X-55.83 Y-23.945
N6575 X-56.26 Y-23.943
N6580 X-56.69 Y-23.941
N6585 X-57.119 Y-23.94
N6590 X-57.978 Y-23.937
N6595 X-58.837 Y-23.936
N6600 X-60.126 Y-23.934
N6605 X-61.414 Y-23.933
N6610 X-63.562 Y-23.932
N6615 X-65.71
N6620 X-66.569
N6625 X-66.998
N6630 X-67.428 Y-23.933
N6635 X-67.857
N6640 X-68.287 Y-23.935
N6645 X-68.716 Y-23.936
N6650 X-69.146 Y-23.939
N6655 X-69.575 Y-23.942
N6660 X-70.005 Y-23.946
N6665 X-70.434 Y-23.952
N6670 X-70.864 Y-23.959
N6675 X-71.293 Y-23.967
N6680 X-71.723 Y-23.978
N6685 X-72.152 Y-23.991
N6690 X-72.581 Y-24.007
N6695 X-73.01 Y-24.026
N6700 X-73.439 Y-24.048
N6705 X-73.868 Y-24.075
N6710 X-74.296 Y-24.105
N6715 X-74.724 Y-24.141
N6720 X-75.152 Y-24.181
N6725 X-75.579 Y-24.228
N6730 X-76.005 Y-24.281
N6735 X-76.43 Y-24.341
N6740 X-76.855 Y-24.409
N6745 X-77.277 Y-24.487
N6750 X-77.697 Y-24.575
N6755 X-78.115 Y-24.674
N6760 X-78.53 Y-24.787
N6765 X-78.939 Y-24.917
N6770 X-79.341 Y-25.068
N6775 X-79.732 Y-25.246
N6780 X-79.767 Y-25.264
N6785 X-80.014 Y-25.435
N6790 X-80.219 Y-25.654
N6795 X-80.373 Y-25.912
N6800 X-80.468 Y-26.197
N6805 X-80.5 Y-26.495
N6810 Y-28.78
N6815 G3 X-79.3 Y-28.753 I0.6 J0.021
N6820 X-79.301 Y-28.738 I-0.6 J-0.006
N6825 G1 X-79.304 Y-28.645 Z-1.993
N6830 X-79.307 Y-28.553 Z-1.971
N6835 X-79.31 Y-28.466 Z-1.935
N6840 X-79.313 Y-28.386 Z-1.885
N6845 X-79.316 Y-28.314 Z-1.824
N6850 X-79.318 Y-28.253 Z-1.753
N6855 X-79.319 Y-28.204 Z-1.672
N6860 X-79.321 Y-28.168 Z-1.585
N6865 Y-28.146 Z-1.494
N6870 X-79.322 Y-28.139 Z-1.4
N6875 G0 Z5.
N6880 X-43.843 Y-25.686
N6885 Z-0.8
N6890 G1 Z-1.4 F100.
N6895 X-43.849 Y-25.681 Z-1.494
N6900 X-43.866 Y-25.666 Z-1.585
N6905 X-43.893 Y-25.643 Z-1.672
N6910 X-43.93 Y-25.61 Z-1.753
N6915 X-43.975 Y-25.57 Z-1.824
N6920 X-44.029 Y-25.522 Z-1.885
N6925 X-44.089 Y-25.469 Z-1.935
N6930 X-44.155 Y-25.412 Z-1.971
N6935 X-44.223 Y-25.351 Z-1.993
N6940 X-44.294 Y-25.289 Z-2.
N6945 G3 X-45.974 Y-24.434 I-2.509 J-2.851
N6950 G1 X-48.313 Y-23.996
N6955 X-48.493 Y-23.963
N6960 X-48.673 Y-23.931
N6965 X-48.853 Y-23.901
N6970 X-50.311 Y-23.658
N6975 X-50.473 Y-23.634
N6980 X-50.653 Y-23.609
N6985 X-51.012 Y-23.561
N6990 X-54.252 Y-23.13
N6995 X-54.356 Y-23.118
N7000 X-54.612 Y-23.09
N7005 X-55.871 Y-22.965
N7010 X-56.231 Y-22.931
N7015 X-60.01 Y-22.63
N7020 X-60.19 Y-22.617
N7025 X-60.37 Y-22.61
N7030 X-60.55 Y-22.603
N7035 X-61.81 Y-22.561
N7040 X-62.17 Y-22.551
N7045 X-65.949 Y-22.451
N7050 X-66.129 Y-22.449
N7055 X-76.386
N7060 X-76.815 Y-22.471
N7065 X-77.244 Y-22.495
N7070 X-77.671 Y-22.539
N7075 X-78.096 Y-22.601
N7080 X-78.518 Y-22.683
N7085 X-78.934 Y-22.789
N7090 X-79.343 Y-22.92
N7095 X-79.63 Y-23.038
N7100 X-79.873 Y-23.166
N7105 X-80.087 Y-23.34
N7110 X-80.262 Y-23.553
N7115 X-80.393 Y-23.796
N7120 X-80.473 Y-24.059
N7125 X-80.5 Y-24.333
N7130 G3 X-79.696 Y-24.877 I0.6 J0.021
N7135 G1 X-78.986 Y-24.62
N7140 X-76.419 Y-23.691
N7145 X-76.203 Y-23.613
N7150 G3 X-76.386 Y-22.449 I-0.204 J0.564
N7155 G1 X-79.805
N7160 X-80.045 Y-22.472
N7165 G3 X-79.88 Y-23.498 I0.143 J-0.503
N7170 G1 X-79.802 Y-23.494
N7175 G3 X-79.805 Y-22.449 I-0.022 J0.523
N7180 G1 X-79.985 Y-22.457
N7185 X-80.075 Y-22.48
N7190 X-80.165 Y-22.518
N7195 X-80.212 Y-22.545
N7200 X-80.258 Y-22.578
N7205 X-80.345 Y-22.659
N7210 X-80.385 Y-22.708
N7215 X-80.418 Y-22.758
N7220 X-80.461 Y-22.848
N7225 X-80.487 Y-22.938
N7230 X-80.499 Y-23.028
N7235 X-80.5 Y-23.118
N7240 Y-26.495
N7245 G3 X-79.3 Y-26.468 I0.6 J0.021
N7250 X-79.301 Y-26.453 I-0.6 J-0.006
N7255 G1 X-79.304 Y-26.36 Z-1.993
N7260 X-79.307 Y-26.268 Z-1.971
N7265 X-79.31 Y-26.181 Z-1.935
N7270 X-79.313 Y-26.101 Z-1.885
N7275 X-79.316 Y-26.029 Z-1.824
N7280 X-79.318 Y-25.968 Z-1.753
N7285 X-79.319 Y-25.919 Z-1.672
N7290 X-79.321 Y-25.883 Z-1.585
N7295 Y-25.861 Z-1.494
N7300 X-79.322 Y-25.854 Z-1.4
N7305 G0 Z5.
N7310 X-9.094 Y-19.227
N7315 Z-0.8
N7320 G1 Z-1.4 F100.
N7325 X-9.101 Y-19.228 Z-1.494
N7330 X-9.123 Y-19.231 Z-1.585
N7335 X-9.159 Y-19.236 Z-1.672
N7340 X-9.207 Y-19.244 Z-1.753
N7345 X-9.268 Y-19.253 Z-1.824
N7350 X-9.338 Y-19.264 Z-1.885
N7355 X-9.418 Y-19.276 Z-1.935
N7360 X-9.504 Y-19.289 Z-1.971
N7365 X-9.594 Y-19.303 Z-1.993
N7370 X-9.687 Y-19.317 Z-2.
N7375 G3 X-11.422 Y-20.054 I0.571 J-3.755
N7380 G1 X-11.428 Y-20.059
N7385 X-11.602 Y-20.196
N7390 X-12.682 Y-21.042
N7395 X-12.809 Y-21.138
N7400 X-13.541 Y-21.678
N7405 X-13.581 Y-21.706
N7410 X-13.761 Y-21.828
N7415 X-14.36 Y-22.218
N7420 X-14.481 Y-22.297
N7425 X-14.661 Y-22.404
N7430 X-15.277 Y-22.758
N7435 X-15.921 Y-23.128
N7440 X-16.281 Y-23.335
N7445 X-16.641 Y-23.541
N7450 X-16.821 Y-23.643
N7455 X-16.847 Y-23.658
N7460 X-17.001 Y-23.74
N7465 X-17.194 Y-23.838
N7470 X-17.554 Y-24.018
N7475 X-17.72 Y-24.1
N7480 X-17.9 Y-24.188
N7485 X-17.922 Y-24.198
N7490 X-18.08 Y-24.266
N7495 X-18.62 Y-24.498
N7500 X-18.758 Y-24.557
N7505 X-18.8 Y-24.575
N7510 X-18.98 Y-24.647
N7515 X-20.42 Y-25.22
N7520 X-20.6 Y-25.288
N7525 X-20.78 Y-25.354
N7530 X-21.32 Y-25.55
N7535 X-21.5 Y-25.611
N7540 X-21.68 Y-25.668
N7545 X-21.859 Y-25.722
N7550 X-22.219 Y-25.829
N7555 X-22.399 Y-25.881
N7560 X-22.579 Y-25.93
N7565 X-22.759 Y-25.976
N7570 X-23.328 Y-26.112
N7575 G3 X-23.746 Y-26.851 I0.16 J-0.578
N7580 X-23.007 Y-27.269 I0.578 J0.16
N7585 G1 X-22.917 Y-27.244 Z-1.993
N7590 X-22.828 Y-27.219 Z-1.971
N7595 X-22.745 Y-27.196 Z-1.935
N7600 X-22.667 Y-27.174 Z-1.885
N7605 X-22.598 Y-27.155 Z-1.824
N7610 X-22.539 Y-27.139 Z-1.753
N7615 X-22.492 Y-27.126 Z-1.672
N7620 X-22.457 Y-27.116 Z-1.585
N7625 X-22.436 Y-27.11 Z-1.494
N7630 X-22.429 Y-27.108 Z-1.4
N7635 G0 Z5.
N7640 X-78.178 Y-40.027
N7645 Z-0.8
N7650 G1 Z-1.4 F100.
N7655 X-78.186 Y-40.026 Z-1.494
N7660 X-78.208 Y-40.025 Z-1.585
N7665 X-78.244 Y-40.024 Z-1.672
N7670 X-78.293 Y-40.022 Z-1.753
N7675 X-78.354 Y-40.02 Z-1.824
N7680 X-78.425 Y-40.017 Z-1.885
N7685 X-78.506 Y-40.013 Z-1.935
N7690 X-78.592 Y-40.01 Z-1.971
N7695 X-78.684 Y-40.006 Z-1.993
N7700 X-78.778 Y-40.003 Z-2.
N7705 G3 X-80.658 Y-40.131 I-0.348 J-8.743
N7710 G1 X-80.676 Y-40.135
N7715 X-80.691 Y-40.146
N7720 X-80.7 Y-40.162
N7725 G3 X-79.944 Y-40.895 I0.578 J-0.16
N7730 G1 X-79.879 Y-40.86 Z-1.995
N7735 X-79.814 Y-40.827 Z-1.982
N7740 X-79.752 Y-40.794 Z-1.959
N7745 X-79.699 Y-40.735 Z-1.921
N7750 X-79.651 Y-40.68 Z-1.871
N7755 X-79.608 Y-40.632 Z-1.812
N7760 X-79.587 Y-40.585 Z-1.75
N7765 X-79.57 Y-40.547 Z-1.682
N7770 X-79.557 Y-40.517 Z-1.61
N7775 X-79.548 Y-40.496 Z-1.533
N7780 X-79.545 Y-40.485 Z-1.467
N7785 X-79.544 Y-40.482 Z-1.4
N7790 G0 Z5.
N7795 X-7.975 Y1.714
N7800 Z-0.7
N7805 G1 Z-1.3 F100.
N7810 X-7.971 Y1.708 Z-1.394
N7815 X-7.958 Y1.69 Z-1.485
N7820 X-7.938 Y1.66 Z-1.572
N7825 X-7.909 Y1.62 Z-1.653
N7830 X-7.874 Y1.57 Z-1.724
N7835 X-7.834 Y1.511 Z-1.785
N7840 X-7.788 Y1.445 Z-1.835
N7845 X-7.738 Y1.374 Z-1.871
N7850 X-7.685 Y1.299 Z-1.893
N7855 X-7.632 Y1.222 Z-1.9
N7860 G3 X-6.203 Y-0.008 I3.115 J2.173
N7865 G1 X-6.023 Y-0.09
N7870 X-5.843 Y-0.172
N7875 X-5.649 Y-0.264
N7880 X-5.483 Y-0.345
N7885 X-5.286 Y-0.444
N7890 X-5.124 Y-0.528
N7895 X-4.942 Y-0.624
N7900 X-4.764 Y-0.723
N7905 X-4.619 Y-0.804
N7910 X-4.584 Y-0.824
N7915 X-4.404 Y-0.93
N7920 X-4.315 Y-0.984
N7925 X-4.224 Y-1.042
N7930 X-4.033 Y-1.164
N7935 X-3.864 Y-1.279
N7940 X-3.684 Y-1.406
N7945 X-3.528 Y-1.524
N7950 X-3.504 Y-1.543
N7955 X-3.324 Y-1.693
N7960 X-3.311 Y-1.704
N7965 X-3.144 Y-1.854
N7970 X-3.113 Y-1.884
N7975 X-2.964 Y-2.037
N7980 X-2.938 Y-2.064
N7985 X-2.784 Y-2.241
N7990 X-2.645 Y-2.423
N7995 X-2.523 Y-2.603
N8000 X-2.422 Y-2.783
N8005 X-2.328 Y-2.963
N8010 X-2.249 Y-3.143
N8015 X-2.244 Y-3.155
N8020 X-2.187 Y-3.323
N8025 X-2.132 Y-3.503
N8030 X-2.091 Y-3.683
N8035 X-2.064 Y-3.833
N8040 X-2.06 Y-3.863
N8045 X-2.037 Y-4.043
N8050 X-2.029 Y-4.223
N8055 X-2.03 Y-4.403
N8060 X-2.038 Y-4.583
N8065 X-2.064 Y-4.783
N8070 X-2.094 Y-4.943
N8075 X-2.135 Y-5.123
N8080 X-2.192 Y-5.303
N8085 X-2.244 Y-5.462
N8090 X-2.314 Y-5.663
N8095 X-2.44 Y-6.022
N8100 X-2.566 Y-6.382
N8105 X-2.604 Y-6.486
N8110 X-3.244 Y-8.182
N8115 X-3.318 Y-8.362
N8120 X-3.399 Y-8.542
N8125 X-3.485 Y-8.722
N8130 X-4.044 Y-9.865
N8135 X-4.102 Y-9.981
N8140 X-4.192 Y-10.161
N8145 X-4.657 Y-11.061
N8150 X-4.753 Y-11.241
N8155 X-4.764 Y-11.26
N8160 X-4.856 Y-11.421
N8165 X-5.397 Y-12.321
N8170 X-5.483 Y-12.463
N8175 X-5.616 Y-12.681
N8180 X-5.663 Y-12.757
N8185 X-5.735 Y-12.861
N8190 X-5.843 Y-13.014
N8195 X-6.383 Y-13.77
N8200 X-6.563 Y-14.021
N8205 X-7.284 Y-15.02
N8210 X-7.417 Y-15.2
N8215 X-7.463 Y-15.258
N8220 X-7.562 Y-15.38
N8225 X-8.011 Y-15.92
N8230 X-8.163 Y-16.1
N8235 X-8.328 Y-16.28
N8240 X-8.903 Y-16.89
N8245 X-9.867 Y-17.899
N8250 X-9.982 Y-18.017
N8255 X-10.043 Y-18.079
N8260 X-10.162 Y-18.198
N8265 X-10.8 Y-18.799
N8270 X-10.882 Y-18.874
N8275 X-11.062 Y-19.027
N8280 X-11.219 Y-19.159
N8285 X-11.435 Y-19.339
N8290 X-11.602 Y-19.477
N8295 X-11.782 Y-19.623
N8300 X-11.877 Y-19.699
N8305 X-12.862 Y-20.47
N8310 X-13.042 Y-20.611
N8315 X-13.222 Y-20.747
N8320 X-13.581 Y-21.012
N8325 X-13.752 Y-21.138
N8330 X-14.007 Y-21.318
N8335 X-14.121 Y-21.395
N8340 X-14.661 Y-21.747
N8345 X-14.844 Y-21.858
N8350 X-15.021 Y-21.964
N8355 X-16.281 Y-22.688
N8360 X-16.821 Y-22.998
N8365 X-17.001 Y-23.1
N8370 X-17.181 Y-23.201
N8375 X-17.361 Y-23.295
N8380 X-17.9 Y-23.565
N8385 X-18.093 Y-23.658
N8390 X-18.26 Y-23.734
N8395 X-18.8 Y-23.966
N8400 X-18.923 Y-24.018
N8405 X-19.16 Y-24.115
N8410 X-20.42 Y-24.617
N8415 X-20.724 Y-24.737
N8420 X-20.78 Y-24.759
N8425 X-21.14 Y-24.889
N8430 X-21.32 Y-24.955
N8435 X-21.5 Y-25.019
N8440 X-21.68 Y-25.083
N8445 X-21.723 Y-25.097
N8450 X-22.039 Y-25.192
N8455 X-22.326 Y-25.277
N8460 X-22.579 Y-25.351
N8465 X-22.759 Y-25.398
N8470 X-23.001 Y-25.457
N8475 X-24.5 Y-25.817
N8480 X-25.099 Y-25.958
N8485 X-25.269 Y-25.997
N8490 X-25.459 Y-26.037
N8495 X-25.639 Y-26.071
N8500 X-25.998 Y-26.134
N8505 X-26.178 Y-26.166
N8510 X-26.358 Y-26.193
N8515 X-26.538 Y-26.219
N8520 X-27.078 Y-26.283
N8525 X-27.258 Y-26.302
N8530 X-27.438 Y-26.321
N8535 X-28.878 Y-26.455
N8540 X-29.058 Y-26.471
N8545 X-29.238 Y-26.485
N8550 X-29.418 Y-26.497
N8555 X-29.958 Y-26.531
N8560 X-30.118 Y-26.537
N8565 X-30.317 Y-26.542
N8570 X-30.857 Y-26.544
N8575 X-31.037 Y-26.543
N8580 X-31.217 Y-26.539
N8585 X-31.287 Y-26.537
N8590 X-32.837 Y-26.459
N8595 X-33.017 Y-26.45
N8600 X-33.197 Y-26.437
N8605 X-34.456 Y-26.336
N8610 X-34.636 Y-26.321
N8615 X-34.816 Y-26.303
N8620 X-34.996 Y-26.275
N8625 X-35.176 Y-26.242
N8630 X-36.616 Y-25.961
N8635 X-36.796 Y-25.925
N8640 X-36.976 Y-25.889
N8645 X-38.595 Y-25.561
N8650 X-38.775 Y-25.52
N8655 X-38.955 Y-25.478
N8660 X-42.375 Y-24.648
N8665 X-42.554 Y-24.604
N8670 X-42.749 Y-24.557
N8675 X-42.914 Y-24.518
N8680 X-44.354 Y-24.178
N8685 X-44.534 Y-24.138
N8690 X-44.714 Y-24.102
N8695 X-44.894 Y-24.068
N8700 X-48.313 Y-23.427
N8705 X-48.493 Y-23.394
N8710 X-48.673 Y-23.363
N8715 X-48.853 Y-23.332
N8720 X-49.933 Y-23.152
N8725 X-50.113 Y-23.123
N8730 X-50.293 Y-23.094
N8735 X-50.473 Y-23.069
N8740 X-54.252 Y-22.566
N8745 X-54.432 Y-22.544
N8750 X-55.901 Y-22.398
N8755 X-56.231 Y-22.37
N8760 X-60.01 Y-22.069
N8765 X-60.19 Y-22.056
N8770 X-60.37 Y-22.049
N8775 X-60.55 Y-22.043
N8780 X-61.63 Y-22.007
N8785 X-61.81 Y-22.001
N8790 X-65.949 Y-21.891
N8795 X-66.129 Y-21.889
N8800 X-79.805
N8805 X-79.985 Y-21.897
N8810 X-80.075 Y-21.92
N8815 X-80.165 Y-21.958
N8820 X-80.227 Y-21.993
N8825 X-80.288 Y-22.038
N8830 X-80.345 Y-22.094
N8835 X-80.394 Y-22.156
N8840 X-80.432 Y-22.218
N8845 X-80.47 Y-22.308
N8850 X-80.492 Y-22.398
N8855 X-80.5 Y-22.578
N8860 Y-22.938
N8865 G3 X-79.559 Y-23.41 I0.6 J0.021
N8870 G1 X-79.507 Y-23.358 Z-1.895
N8875 X-79.455 Y-23.306 Z-1.882
N8880 X-79.406 Y-23.256 Z-1.859
N8885 X-79.373 Y-23.184 Z-1.821
N8890 X-79.344 Y-23.118 Z-1.771
N8895 X-79.317 Y-23.058 Z-1.712
N8900 X-79.312 Y-23.012 Z-1.655
N8905 X-79.307 Y-22.972 Z-1.593
N8910 X-79.303 Y-22.94 Z-1.527
N8915 X-79.3 Y-22.917 Z-1.457
N8920 Y-22.911 Z-1.433
N8925 X-79.301 Y-22.9 Z-1.367
N8930 Y-22.896 Z-1.3
N8935 G0 Z5.
N8940 X-8.333 Y1.872
N8945 Z-0.6
N8950 G1 Z-1.2 F100.
N8955 X-8.329 Y1.866 Z-1.294
N8960 X-8.316 Y1.848 Z-1.385
N8965 X-8.296 Y1.819 Z-1.472
N8970 X-8.267 Y1.778 Z-1.553
N8975 X-8.233 Y1.728 Z-1.624
N8980 X-8.192 Y1.669 Z-1.685
N8985 X-8.146 Y1.603 Z-1.735
N8990 X-8.096 Y1.532 Z-1.771
N8995 X-8.044 Y1.457 Z-1.793
N9000 X-7.99 Y1.38 Z-1.8
N9005 G3 X-6.563 Y0.148 I3.117 J2.17
N9010 G1 X-6.447 Y0.096
N9015 X-6.383 Y0.066
N9020 X-6.203 Y-0.019
N9025 X-6.023 Y-0.107
N9030 X-5.843 Y-0.196
N9035 X-5.71 Y-0.264
N9040 X-5.663 Y-0.288
N9045 X-5.483 Y-0.384
N9050 X-5.303 Y-0.483
N9055 X-5.124 Y-0.584
N9060 X-5.054 Y-0.624
N9065 X-4.944 Y-0.689
N9070 X-4.758 Y-0.804
N9075 X-4.584 Y-0.914
N9080 X-4.404 Y-1.035
N9085 X-4.221 Y-1.164
N9090 X-4.044 Y-1.297
N9095 X-3.986 Y-1.344
N9100 X-3.864 Y-1.446
N9105 X-3.772 Y-1.524
N9110 X-3.684 Y-1.606
N9115 X-3.504 Y-1.783
N9120 X-3.412 Y-1.884
N9125 X-3.26 Y-2.064
N9130 X-3.144 Y-2.219
N9135 X-3.128 Y-2.244
N9140 X-3.014 Y-2.423
N9145 X-2.91 Y-2.603
N9150 X-2.824 Y-2.783
N9155 X-2.784 Y-2.873
N9160 X-2.75 Y-2.963
N9165 X-2.686 Y-3.143
N9170 X-2.638 Y-3.323
N9175 X-2.604 Y-3.462
N9180 X-2.568 Y-3.683
N9185 X-2.552 Y-3.863
N9190 X-2.544 Y-4.043
N9195 X-2.546 Y-4.223
N9200 X-2.561 Y-4.403
N9205 X-2.583 Y-4.583
N9210 X-2.604 Y-4.699
N9215 X-2.617 Y-4.763
N9220 X-2.667 Y-4.943
N9225 X-2.721 Y-5.123
N9230 X-2.909 Y-5.663
N9235 X-2.971 Y-5.843
N9240 X-3.035 Y-6.022
N9245 X-3.144 Y-6.331
N9250 X-3.163 Y-6.382
N9255 X-3.706 Y-7.822
N9260 X-3.775 Y-8.002
N9265 X-3.864 Y-8.219
N9270 X-3.932 Y-8.362
N9275 X-4.224 Y-8.959
N9280 X-4.459 Y-9.442
N9285 X-4.548 Y-9.622
N9290 X-4.639 Y-9.801
N9295 X-4.731 Y-9.981
N9300 X-5.124 Y-10.74
N9305 X-5.198 Y-10.881
N9310 X-5.303 Y-11.074
N9315 X-5.4 Y-11.241
N9320 X-5.843 Y-11.978
N9325 X-5.941 Y-12.141
N9330 X-6.051 Y-12.321
N9335 X-6.169 Y-12.501
N9340 X-6.295 Y-12.681
N9345 X-6.383 Y-12.804
N9350 X-6.937 Y-13.58
N9355 X-7.066 Y-13.76
N9360 X-7.715 Y-14.66
N9365 X-7.851 Y-14.84
N9370 X-7.991 Y-15.02
N9375 X-8.439 Y-15.56
N9380 X-8.543 Y-15.681
N9385 X-8.594 Y-15.74
N9390 X-8.723 Y-15.881
N9395 X-9.098 Y-16.28
N9400 X-9.267 Y-16.46
N9405 X-9.802 Y-17.019
N9410 X-10.162 Y-17.396
N9415 X-10.3 Y-17.539
N9420 X-10.522 Y-17.765
N9425 X-10.661 Y-17.899
N9430 X-11.062 Y-18.277
N9435 X-11.235 Y-18.439
N9440 X-11.242 Y-18.446
N9445 X-11.422 Y-18.598
N9450 X-11.662 Y-18.799
N9455 X-11.782 Y-18.899
N9460 X-11.962 Y-19.049
N9465 X-12.098 Y-19.159
N9470 X-13.402 Y-20.18
N9475 X-13.478 Y-20.239
N9480 X-13.581 Y-20.316
N9485 X-13.719 Y-20.419
N9490 X-13.963 Y-20.599
N9495 X-14.121 Y-20.715
N9500 X-14.301 Y-20.841
N9505 X-14.481 Y-20.962
N9510 X-15.021 Y-21.313
N9515 X-15.029 Y-21.318
N9520 X-15.201 Y-21.42
N9525 X-15.336 Y-21.498
N9530 X-16.641 Y-22.248
N9535 X-17.001 Y-22.455
N9540 X-17.216 Y-22.578
N9545 X-17.361 Y-22.659
N9550 X-17.541 Y-22.758
N9555 X-17.72 Y-22.85
N9560 X-18.08 Y-23.03
N9565 X-18.261 Y-23.118
N9570 X-18.44 Y-23.2
N9575 X-18.62 Y-23.279
N9580 X-19.082 Y-23.478
N9585 X-19.16 Y-23.511
N9590 X-19.34 Y-23.583
N9595 X-20.884 Y-24.198
N9600 X-20.96 Y-24.227
N9605 X-21.14 Y-24.294
N9610 X-21.68 Y-24.49
N9615 X-21.859 Y-24.552
N9620 X-22.039 Y-24.608
N9625 X-22.579 Y-24.769
N9630 X-22.759 Y-24.82
N9635 X-22.939 Y-24.866
N9640 X-24.559 Y-25.255
N9645 X-24.919 Y-25.34
N9650 X-25.099 Y-25.382
N9655 X-25.279 Y-25.424
N9660 X-25.459 Y-25.466
N9665 X-25.639 Y-25.502
N9670 X-25.819 Y-25.534
N9675 X-25.998 Y-25.566
N9680 X-26.178 Y-25.598
N9685 X-26.417 Y-25.637
N9690 X-26.538 Y-25.654
N9695 X-27.078 Y-25.719
N9700 X-27.258 Y-25.738
N9705 X-27.438 Y-25.757
N9710 X-28.878 Y-25.891
N9715 X-29.058 Y-25.908
N9720 X-29.238 Y-25.923
N9725 X-29.418 Y-25.937
N9730 X-29.958 Y-25.97
N9735 X-30.137 Y-25.977
N9740 X-30.317 Y-25.982
N9745 X-30.857 Y-25.985
N9750 X-31.037 Y-25.983
N9755 X-31.217 Y-25.978
N9760 X-31.397 Y-25.97
N9765 X-32.837 Y-25.898
N9770 X-33.017 Y-25.887
N9775 X-33.197 Y-25.876
N9780 X-34.456 Y-25.776
N9785 X-34.636 Y-25.759
N9790 X-34.816 Y-25.737
N9795 X-34.996 Y-25.706
N9800 X-35.176 Y-25.672
N9805 X-36.616 Y-25.391
N9810 X-36.796 Y-25.355
N9815 X-36.976 Y-25.319
N9820 X-38.236 Y-25.064
N9825 X-38.415 Y-25.027
N9830 X-38.595 Y-24.989
N9835 X-38.775 Y-24.946
N9840 X-42.375 Y-24.072
N9845 X-42.599 Y-24.018
N9850 X-42.734 Y-23.985
N9855 X-42.914 Y-23.942
N9860 X-44.119 Y-23.658
N9865 X-44.354 Y-23.604
N9870 X-44.534 Y-23.566
N9875 X-48.313 Y-22.858
N9880 X-48.493 Y-22.825
N9885 X-48.673 Y-22.794
N9890 X-48.886 Y-22.758
N9895 X-50.113 Y-22.553
N9900 X-50.293 Y-22.529
N9905 X-51.372 Y-22.385
N9910 X-54.252 Y-22.002
N9915 X-54.432 Y-21.982
N9920 X-54.612 Y-21.963
N9925 X-55.511 Y-21.873
N9930 X-55.871 Y-21.838
N9935 X-56.051 Y-21.823
N9940 X-60.129 Y-21.498
N9945 X-60.19 Y-21.495
N9950 X-60.37 Y-21.488
N9955 X-60.55 Y-21.482
N9960 X-61.45 Y-21.452
N9965 X-61.81 Y-21.441
N9970 X-65.949 Y-21.332
N9975 X-66.129 Y-21.329
N9980 X-79.805
N9985 X-79.985 Y-21.338
N9990 X-80.075 Y-21.36
N9995 X-80.165 Y-21.398
N10000 X-80.235 Y-21.441
N10005 X-80.304 Y-21.498
N10010 X-80.345 Y-21.542
N10015 X-80.398 Y-21.61
N10020 X-80.438 Y-21.678
N10025 X-80.474 Y-21.768
N10030 X-80.494 Y-21.858
N10035 X-80.5 Y-22.038
N10040 Y-22.398
N10045 G3 X-79.559 Y-22.87 I0.6 J0.021
N10050 G1 X-79.507 Y-22.818 Z-1.795
N10055 X-79.455 Y-22.767 Z-1.782
N10060 X-79.406 Y-22.717 Z-1.759
N10065 X-79.373 Y-22.644 Z-1.721
N10070 X-79.344 Y-22.578 Z-1.671
N10075 X-79.317 Y-22.518 Z-1.612
N10080 X-79.312 Y-22.472 Z-1.555
N10085 X-79.307 Y-22.432 Z-1.493
N10090 X-79.303 Y-22.4 Z-1.427
N10095 X-79.3 Y-22.377 Z-1.357
N10100 Y-22.371 Z-1.333
N10105 X-79.301 Y-22.36 Z-1.267
N10110 Y-22.356 Z-1.2
N10115 G0 Z5.
N10120 X-8.865 Y2.118
N10125 Z-0.5
N10130 G1 Z-1.1 F100.
N10135 X-8.861 Y2.112 Z-1.194
N10140 X-8.849 Y2.094 Z-1.285
N10145 X-8.828 Y2.064 Z-1.372
N10150 X-8.8 Y2.024 Z-1.453
N10155 X-8.765 Y1.974 Z-1.524
N10160 X-8.725 Y1.915 Z-1.585
N10165 X-8.679 Y1.849 Z-1.635
N10170 X-8.63 Y1.777 Z-1.671
N10175 X-8.578 Y1.702 Z-1.693
N10180 X-8.525 Y1.624 Z-1.7
N10185 G3 X-7.103 Y0.387 I3.127 J2.156
N10190 G1 X-6.923 Y0.304
N10195 X-6.863 Y0.276
N10200 X-6.743 Y0.219
N10205 X-6.563 Y0.132
N10210 X-6.489 Y0.096
N10215 X-6.383 Y0.043
N10220 X-6.203 Y-0.049
N10225 X-6.023 Y-0.145
N10230 X-5.843 Y-0.242
N10235 X-5.803 Y-0.264
N10240 X-5.663 Y-0.344
N10245 X-5.492 Y-0.444
N10250 X-5.303 Y-0.558
N10255 X-5.199 Y-0.624
N10260 X-5.124 Y-0.673
N10265 X-4.944 Y-0.791
N10270 X-4.925 Y-0.804
N10275 X-4.764 Y-0.918
N10280 X-4.673 Y-0.984
N10285 X-4.584 Y-1.054
N10290 X-4.445 Y-1.164
N10295 X-4.404 Y-1.197
N10300 X-4.241 Y-1.344
N10305 X-4.224 Y-1.36
N10310 X-4.053 Y-1.524
N10315 X-3.864 Y-1.731
N10320 X-3.742 Y-1.884
N10325 X-3.684 Y-1.962
N10330 X-3.612 Y-2.064
N10335 X-3.504 Y-2.234
N10340 X-3.498 Y-2.244
N10345 X-3.405 Y-2.423
N10350 X-3.324 Y-2.588
N10355 X-3.317 Y-2.603
N10360 X-3.247 Y-2.783
N10365 X-3.19 Y-2.963
N10370 X-3.144 Y-3.126
N10375 X-3.14 Y-3.143
N10380 X-3.106 Y-3.323
N10385 X-3.08 Y-3.503
N10390 X-3.062 Y-3.683
N10395 X-3.06 Y-3.863
N10400 X-3.066 Y-4.043
N10405 X-3.08 Y-4.223
N10410 X-3.109 Y-4.403
N10415 X-3.144 Y-4.57
N10420 X-3.194 Y-4.763
N10425 X-3.254 Y-4.943
N10430 X-3.504 Y-5.664
N10435 X-3.566 Y-5.843
N10440 X-3.63 Y-6.022
N10445 X-3.695 Y-6.202
N10450 X-3.76 Y-6.382
N10455 X-4.236 Y-7.642
N10460 X-4.306 Y-7.822
N10465 X-4.381 Y-8.002
N10470 X-4.467 Y-8.182
N10475 X-4.554 Y-8.362
N10480 X-4.944 Y-9.158
N10485 X-4.995 Y-9.262
N10490 X-5.124 Y-9.517
N10495 X-5.177 Y-9.622
N10500 X-5.642 Y-10.521
N10505 X-5.737 Y-10.701
N10510 X-5.836 Y-10.881
N10515 X-6.023 Y-11.193
N10520 X-6.383 Y-11.792
N10525 X-6.486 Y-11.961
N10530 X-6.563 Y-12.086
N10535 X-6.601 Y-12.141
N10540 X-6.727 Y-12.321
N10545 X-6.743 Y-12.343
N10550 X-7.463 Y-13.351
N10555 X-7.643 Y-13.602
N10560 X-7.887 Y-13.94
N10565 X-8.183 Y-14.35
N10570 X-8.279 Y-14.48
N10575 X-8.363 Y-14.592
N10580 X-8.419 Y-14.66
N10585 X-8.903 Y-15.242
N10590 X-9.024 Y-15.38
N10595 X-9.191 Y-15.56
N10600 X-9.263 Y-15.637
N10605 X-9.529 Y-15.92
N10610 X-9.622 Y-16.019
N10615 X-10.732 Y-17.179
N10620 X-10.882 Y-17.335
N10625 X-10.906 Y-17.359
N10630 X-11.062 Y-17.508
N10635 X-11.476 Y-17.899
N10640 X-11.602 Y-18.013
N10645 X-11.677 Y-18.079
N10650 X-11.782 Y-18.17
N10655 X-12.142 Y-18.47
N10660 X-12.324 Y-18.619
N10665 X-12.502 Y-18.762
N10670 X-13.761 Y-19.749
N10675 X-13.941 Y-19.885
N10680 X-14.121 Y-20.019
N10685 X-14.301 Y-20.152
N10690 X-14.419 Y-20.239
N10695 X-14.481 Y-20.284
N10700 X-14.661 Y-20.411
N10705 X-14.841 Y-20.529
N10710 X-15.021 Y-20.646
N10715 X-15.226 Y-20.778
N10720 X-15.381 Y-20.876
N10725 X-15.561 Y-20.981
N10730 X-15.835 Y-21.138
N10735 X-17.001 Y-21.808
N10740 X-17.541 Y-22.118
N10745 X-17.721 Y-22.218
N10750 X-17.9 Y-22.314
N10755 X-18.44 Y-22.584
N10760 X-18.62 Y-22.668
N10765 X-18.825 Y-22.758
N10770 X-19.16 Y-22.902
N10775 X-19.245 Y-22.938
N10780 X-19.34 Y-22.977
N10785 X-19.52 Y-23.051
N10790 X-21.045 Y-23.658
N10795 X-21.14 Y-23.694
N10800 X-21.32 Y-23.762
N10805 X-21.5 Y-23.829
N10810 X-21.68 Y-23.894
N10815 X-22.023 Y-24.018
N10820 X-22.039 Y-24.023
N10825 X-22.219 Y-24.077
N10830 X-22.399 Y-24.132
N10835 X-22.621 Y-24.198
N10840 X-22.759 Y-24.237
N10845 X-22.939 Y-24.288
N10850 X-23.119 Y-24.332
N10855 X-24.807 Y-24.737
N10860 X-24.919 Y-24.764
N10865 X-25.459 Y-24.891
N10870 X-25.574 Y-24.917
N10875 X-25.819 Y-24.966
N10880 X-25.998 Y-24.998
N10885 X-26.178 Y-25.03
N10890 X-26.358 Y-25.061
N10895 X-26.538 Y-25.089
N10900 X-26.718 Y-25.112
N10905 X-26.898 Y-25.134
N10910 X-27.078 Y-25.155
N10915 X-27.258 Y-25.175
N10920 X-27.438 Y-25.194
N10925 X-29.058 Y-25.345
N10930 X-29.238 Y-25.361
N10935 X-29.418 Y-25.376
N10940 X-29.958 Y-25.409
N10945 X-30.137 Y-25.417
N10950 X-30.317 Y-25.423
N10955 X-30.857 Y-25.425
N10960 X-31.037 Y-25.423
N10965 X-31.217 Y-25.417
N10970 X-31.397 Y-25.409
N10975 X-32.837 Y-25.336
N10980 X-33.017 Y-25.326
N10985 X-33.197 Y-25.316
N10990 X-34.456 Y-25.215
N10995 X-34.636 Y-25.195
N11000 X-34.816 Y-25.171
N11005 X-34.996 Y-25.138
N11010 X-36.616 Y-24.821
N11015 X-36.796 Y-24.785
N11020 X-37.033 Y-24.737
N11025 X-38.236 Y-24.494
N11030 X-38.415 Y-24.454
N11035 X-38.595 Y-24.414
N11040 X-39.135 Y-24.283
N11045 X-42.45 Y-23.478
N11050 X-42.734 Y-23.409
N11055 X-42.914 Y-23.366
N11060 X-43.994 Y-23.111
N11065 X-44.174 Y-23.07
N11070 X-44.354 Y-23.033
N11075 X-44.534 Y-22.997
N11080 X-48.313 Y-22.289
N11085 X-48.493 Y-22.256
N11090 X-48.673 Y-22.225
N11095 X-49.573 Y-22.075
N11100 X-49.795 Y-22.038
N11105 X-49.933 Y-22.016
N11110 X-50.113 Y-21.989
N11115 X-54.252 Y-21.438
N11120 X-54.432 Y-21.418
N11125 X-54.612 Y-21.399
N11130 X-55.511 Y-21.309
N11135 X-55.691 Y-21.293
N11140 X-55.871 Y-21.277
N11145 X-56.051 Y-21.262
N11150 X-60.01 Y-20.947
N11155 X-60.19 Y-20.934
N11160 X-60.55 Y-20.921
N11165 X-61.45 Y-20.891
N11170 X-61.81 Y-20.881
N11175 X-65.949 Y-20.772
N11180 X-66.129 Y-20.77
N11185 X-79.805 Y-20.769
N11190 X-79.985 Y-20.778
N11195 X-79.99
N11200 X-80.078 Y-20.801
N11205 X-80.165 Y-20.838
N11210 X-80.244 Y-20.888
N11215 X-80.284 Y-20.92
N11220 X-80.324 Y-20.958
N11225 X-80.345 Y-20.983
N11230 X-80.403 Y-21.061
N11235 X-80.445 Y-21.138
N11240 X-80.478 Y-21.228
N11245 X-80.496 Y-21.318
N11250 X-80.5 Y-21.498
N11255 Y-21.858
N11260 G3 X-79.559 Y-22.33 I0.6 J0.021
N11265 G1 X-79.507 Y-22.278 Z-1.695
N11270 X-79.455 Y-22.227 Z-1.682
N11275 X-79.406 Y-22.177 Z-1.659
N11280 X-79.373 Y-22.104 Z-1.621
N11285 X-79.344 Y-22.038 Z-1.571
N11290 X-79.317 Y-21.979 Z-1.512
N11295 X-79.312 Y-21.932 Z-1.455
N11300 X-79.307 Y-21.892 Z-1.393
N11305 X-79.303 Y-21.861 Z-1.327
N11310 X-79.3 Y-21.837 Z-1.257
N11315 Y-21.831 Z-1.233
N11320 X-79.301 Y-21.82 Z-1.167
N11325 Y-21.816 Z-1.1
N11330 G0 Z5.
N11335 X-9.414 Y2.346
N11340 Z-0.4
N11345 G1 Z-1. F100.
N11350 X-9.41 Y2.34 Z-1.094
N11355 X-9.398 Y2.322 Z-1.185
N11360 X-9.377 Y2.292 Z-1.272
N11365 X-9.349 Y2.252 Z-1.353
N11370 X-9.314 Y2.202 Z-1.424
N11375 X-9.273 Y2.143 Z-1.485
N11380 X-9.227 Y2.077 Z-1.535
N11385 X-9.177 Y2.006 Z-1.571
N11390 X-9.125 Y1.931 Z-1.593
N11395 X-9.071 Y1.854 Z-1.6
N11400 G3 X-7.643 Y0.623 I3.115 J2.173
N11405 G1 X-7.463 Y0.542
N11410 X-7.281 Y0.456
N11415 X-7.103 Y0.371
N11420 X-6.912 Y0.276
N11425 X-6.743 Y0.189
N11430 X-6.563 Y0.095
N11435 X-6.383 Y-0.003
N11440 X-6.236 Y-0.084
N11445 X-6.203 Y-0.103
N11450 X-5.928 Y-0.264
N11455 X-5.843 Y-0.317
N11460 X-5.642 Y-0.444
N11465 X-5.483 Y-0.548
N11470 X-5.374 Y-0.624
N11475 X-5.303 Y-0.673
N11480 X-5.124 Y-0.809
N11485 X-4.944 Y-0.951
N11490 X-4.905 Y-0.984
N11495 X-4.764 Y-1.108
N11500 X-4.702 Y-1.164
N11505 X-4.584 Y-1.281
N11510 X-4.523 Y-1.344
N11515 X-4.404 Y-1.477
N11520 X-4.223 Y-1.704
N11525 X-4.099 Y-1.884
N11530 X-4.044 Y-1.97
N11535 X-3.991 Y-2.064
N11540 X-3.896 Y-2.244
N11545 X-3.864 Y-2.309
N11550 X-3.817 Y-2.423
N11555 X-3.748 Y-2.603
N11560 X-3.684 Y-2.81
N11565 X-3.649 Y-2.963
N11570 X-3.613 Y-3.143
N11575 X-3.589 Y-3.323
N11580 X-3.58 Y-3.503
N11585 X-3.577 Y-3.683
N11590 X-3.585 Y-3.863
N11595 X-3.604 Y-4.043
N11600 X-3.634 Y-4.223
N11605 X-3.684 Y-4.439
N11610 X-3.728 Y-4.583
N11615 X-3.786 Y-4.763
N11620 X-4.044 Y-5.505
N11625 X-4.098 Y-5.663
N11630 X-4.225 Y-6.022
N11635 X-4.291 Y-6.202
N11640 X-4.358 Y-6.382
N11645 X-4.697 Y-7.282
N11650 X-4.834 Y-7.642
N11655 X-4.916 Y-7.822
N11660 X-4.944 Y-7.881
N11665 X-5.001 Y-8.002
N11670 X-5.483 Y-8.989
N11675 X-5.623 Y-9.262
N11680 X-6.088 Y-10.161
N11685 X-6.203 Y-10.383
N11690 X-6.276 Y-10.521
N11695 X-6.383 Y-10.705
N11700 X-6.488 Y-10.881
N11705 X-6.812 Y-11.421
N11710 X-6.923 Y-11.603
N11715 X-7.033 Y-11.781
N11720 X-7.103 Y-11.882
N11725 X-7.288 Y-12.141
N11730 X-8.003 Y-13.142
N11735 X-8.059 Y-13.221
N11740 X-8.318 Y-13.58
N11745 X-8.578 Y-13.94
N11750 X-8.71 Y-14.12
N11755 X-8.848 Y-14.3
N11760 X-8.903 Y-14.367
N11765 X-9.296 Y-14.84
N11770 X-9.442 Y-15.008
N11775 X-9.622 Y-15.201
N11780 X-9.982 Y-15.584
N11785 X-11.164 Y-16.82
N11790 X-11.242 Y-16.9
N11795 X-11.341 Y-16.999
N11800 X-11.422 Y-17.079
N11805 X-11.782 Y-17.418
N11810 X-11.913 Y-17.539
N11815 X-12.142 Y-17.741
N11820 X-12.331 Y-17.899
N11825 X-12.547 Y-18.079
N11830 X-12.682 Y-18.189
N11835 X-12.77 Y-18.259
N11840 X-12.862 Y-18.331
N11845 X-13.941 Y-19.177
N11850 X-14.148 Y-19.339
N11855 X-14.301 Y-19.456
N11860 X-14.661 Y-19.722
N11865 X-14.841 Y-19.851
N11870 X-15.021 Y-19.978
N11875 X-15.145 Y-20.059
N11880 X-15.381 Y-20.212
N11885 X-15.561 Y-20.329
N11890 X-15.709 Y-20.419
N11895 X-16.021 Y-20.599
N11900 X-17.361 Y-21.368
N11905 X-17.72 Y-21.575
N11910 X-17.901 Y-21.678
N11915 X-18.08 Y-21.774
N11920 X-18.239 Y-21.858
N11925 X-18.44 Y-21.959
N11930 X-18.601 Y-22.038
N11935 X-18.8 Y-22.135
N11940 X-18.987 Y-22.218
N11945 X-19.405 Y-22.398
N11950 X-19.52 Y-22.446
N11955 X-19.849 Y-22.578
N11960 X-21.32 Y-23.163
N11965 X-21.5 Y-23.234
N11970 X-22.039 Y-23.429
N11975 X-22.219 Y-23.49
N11980 X-22.399 Y-23.548
N11985 X-22.769 Y-23.658
N11990 X-22.939 Y-23.708
N11995 X-23.119 Y-23.754
N12000 X-23.299 Y-23.799
N12005 X-24.96 Y-24.198
N12010 X-25.279 Y-24.273
N12015 X-25.459 Y-24.315
N12020 X-25.639 Y-24.357
N12025 X-25.819 Y-24.396
N12030 X-25.998 Y-24.43
N12035 X-26.358 Y-24.493
N12040 X-26.538 Y-24.523
N12045 X-26.795 Y-24.557
N12050 X-27.078 Y-24.591
N12055 X-27.258 Y-24.611
N12060 X-27.438 Y-24.631
N12065 X-29.238 Y-24.798
N12070 X-29.418 Y-24.814
N12075 X-29.598 Y-24.826
N12080 X-29.958 Y-24.849
N12085 X-30.137 Y-24.857
N12090 X-30.317 Y-24.863
N12095 X-30.857 Y-24.866
N12100 X-31.037 Y-24.862
N12105 X-31.217 Y-24.856
N12110 X-31.397 Y-24.847
N12115 X-32.837 Y-24.775
N12120 X-33.017 Y-24.765
N12125 X-33.197 Y-24.755
N12130 X-34.097 Y-24.684
N12135 X-34.456 Y-24.655
N12140 X-34.636 Y-24.631
N12145 X-34.816 Y-24.603
N12150 X-35.049 Y-24.557
N12155 X-36.616 Y-24.251
N12160 X-36.883 Y-24.198
N12165 X-36.976 Y-24.179
N12170 X-37.876 Y-23.997
N12175 X-38.056 Y-23.96
N12180 X-38.236 Y-23.923
N12185 X-38.415 Y-23.881
N12190 X-38.775 Y-23.794
N12195 X-42.375 Y-22.92
N12200 X-42.554 Y-22.876
N12205 X-42.734 Y-22.833
N12210 X-42.914 Y-22.79
N12215 X-43.814 Y-22.578
N12220 X-43.994 Y-22.536
N12225 X-44.174 Y-22.496
N12230 X-48.313 Y-21.72
N12235 X-48.493 Y-21.688
N12240 X-48.673 Y-21.656
N12245 X-48.853 Y-21.626
N12250 X-49.62 Y-21.498
N12255 X-49.753 Y-21.477
N12260 X-49.933 Y-21.45
N12265 X-50.113 Y-21.425
N12270 X-54.252 Y-20.874
N12275 X-54.432 Y-20.854
N12280 X-54.612 Y-20.835
N12285 X-55.511 Y-20.746
N12290 X-55.691 Y-20.73
N12295 X-55.871 Y-20.715
N12300 X-60.01 Y-20.386
N12305 X-60.19 Y-20.373
N12310 X-60.55 Y-20.36
N12315 X-61.09 Y-20.343
N12320 X-61.45 Y-20.331
N12325 X-65.949 Y-20.212
N12330 X-66.129 Y-20.21
N12335 X-79.805
N12340 X-79.985 Y-20.218
N12345 X-80.071 Y-20.239
N12350 X-80.165 Y-20.278
N12355 X-80.209 Y-20.304
N12360 X-80.254 Y-20.335
N12365 X-80.298 Y-20.373
N12370 X-80.342 Y-20.419
N12375 X-80.345 Y-20.423
N12380 X-80.411 Y-20.511
N12385 X-80.456 Y-20.599
N12390 X-80.484 Y-20.688
N12395 X-80.498 Y-20.778
N12400 X-80.5 Y-20.958
N12405 Y-21.318
N12410 G3 X-79.559 Y-21.791 I0.6 J0.021
N12415 G1 X-79.507 Y-21.738 Z-1.595
N12420 X-79.455 Y-21.687 Z-1.582
N12425 X-79.406 Y-21.637 Z-1.559
N12430 X-79.373 Y-21.564 Z-1.521
N12435 X-79.344 Y-21.498 Z-1.471
N12440 X-79.317 Y-21.439 Z-1.412
N12445 X-79.312 Y-21.392 Z-1.355
N12450 X-79.307 Y-21.352 Z-1.293
N12455 X-79.303 Y-21.321 Z-1.227
N12460 X-79.3 Y-21.297 Z-1.157
N12465 Y-21.291 Z-1.133
N12470 X-79.301 Y-21.28 Z-1.067
N12475 Y-21.276 Z-1.
N12480 G0 Z5.
N12485 X-9.957 Y2.581
N12490 Z-0.3
N12495 G1 Z-0.9 F100.
N12500 X-9.953 Y2.575 Z-0.994
N12505 X-9.94 Y2.557 Z-1.085
N12510 X-9.919 Y2.527 Z-1.172
N12515 X-9.891 Y2.487 Z-1.253
N12520 X-9.856 Y2.437 Z-1.324
N12525 X-9.815 Y2.378 Z-1.385
N12530 X-9.769 Y2.312 Z-1.435
N12535 X-9.719 Y2.241 Z-1.471
N12540 X-9.667 Y2.166 Z-1.493
N12545 X-9.613 Y2.089 Z-1.5
N12550 G3 X-8.183 Y0.861 I3.112 J2.178
N12555 G1 X-8.082 Y0.816
N12560 X-7.823 Y0.696
N12565 X-7.699 Y0.636
N12570 X-7.643 Y0.608
N12575 X-7.463 Y0.52
N12580 X-7.283 Y0.428
N12585 X-7.103 Y0.334
N12590 X-6.923 Y0.237
N12595 X-6.743 Y0.137
N12600 X-6.671 Y0.096
N12605 X-6.563 Y0.034
N12610 X-6.37 Y-0.084
N12615 X-6.203 Y-0.187
N12620 X-6.085 Y-0.264
N12625 X-6.023 Y-0.306
N12630 X-5.843 Y-0.432
N12635 X-5.663 Y-0.562
N12640 X-5.586 Y-0.624
N12645 X-5.367 Y-0.804
N12650 X-5.303 Y-0.86
N12655 X-5.124 Y-1.034
N12660 X-4.996 Y-1.164
N12665 X-4.944 Y-1.223
N12670 X-4.841 Y-1.344
N12675 X-4.764 Y-1.443
N12680 X-4.708 Y-1.524
N12685 X-4.584 Y-1.704
N12690 X-4.479 Y-1.884
N12695 X-4.404 Y-2.039
N12700 X-4.312 Y-2.244
N12705 X-4.224 Y-2.5
N12710 X-4.197 Y-2.603
N12715 X-4.153 Y-2.783
N12720 X-4.125 Y-2.963
N12725 X-4.104 Y-3.143
N12730 X-4.093 Y-3.323
N12735 X-4.096 Y-3.503
N12740 X-4.107 Y-3.683
N12745 X-4.127 Y-3.863
N12750 X-4.162 Y-4.043
N12755 X-4.203 Y-4.223
N12760 X-4.224 Y-4.297
N12765 X-4.257 Y-4.403
N12770 X-4.318 Y-4.583
N12775 X-4.584 Y-5.347
N12780 X-4.693 Y-5.663
N12785 X-4.764 Y-5.862
N12790 X-4.82 Y-6.022
N12795 X-4.887 Y-6.202
N12800 X-5.303 Y-7.305
N12805 X-5.37 Y-7.462
N12810 X-5.448 Y-7.642
N12815 X-5.888 Y-8.542
N12820 X-5.978 Y-8.722
N12825 X-6.069 Y-8.902
N12830 X-6.743 Y-10.206
N12835 X-6.818 Y-10.341
N12840 X-6.923 Y-10.521
N12845 X-7.356 Y-11.241
N12850 X-7.467 Y-11.421
N12855 X-7.593 Y-11.601
N12860 X-7.72 Y-11.781
N12865 X-8.363 Y-12.681
N12870 X-8.62 Y-13.041
N12875 X-9.083 Y-13.682
N12880 X-9.142 Y-13.76
N12885 X-9.279 Y-13.94
N12890 X-9.425 Y-14.12
N12895 X-9.622 Y-14.358
N12900 X-9.802 Y-14.569
N12905 X-9.883 Y-14.66
N12910 X-10.221 Y-15.02
N12915 X-10.392 Y-15.2
N12920 X-10.564 Y-15.38
N12925 X-11.602 Y-16.466
N12930 X-11.775 Y-16.64
N12935 X-11.963 Y-16.82
N12940 X-12.153 Y-16.999
N12945 X-12.322 Y-17.157
N12950 X-12.346 Y-17.179
N12955 X-12.502 Y-17.313
N12960 X-12.773 Y-17.539
N12965 X-12.862 Y-17.612
N12970 X-13.042 Y-17.758
N12975 X-13.222 Y-17.9
N12980 X-14.369 Y-18.799
N12985 X-14.481 Y-18.886
N12990 X-14.661 Y-19.024
N12995 X-14.841 Y-19.159
N13000 X-15.085 Y-19.339
N13005 X-15.201 Y-19.423
N13010 X-15.341 Y-19.519
N13015 X-15.381 Y-19.545
N13020 X-15.617 Y-19.699
N13025 X-15.741 Y-19.778
N13030 X-15.921 Y-19.891
N13035 X-16.101 Y-19.998
N13040 X-17.72 Y-20.929
N13045 X-18.087 Y-21.138
N13050 X-18.26 Y-21.237
N13055 X-18.411 Y-21.318
N13060 X-18.8 Y-21.513
N13065 X-18.98 Y-21.602
N13070 X-19.149 Y-21.678
N13075 X-19.34 Y-21.761
N13080 X-19.52 Y-21.838
N13085 X-19.7 Y-21.913
N13090 X-19.88 Y-21.986
N13095 X-21.367 Y-22.578
N13100 X-21.68 Y-22.702
N13105 X-21.83 Y-22.758
N13110 X-22.219 Y-22.899
N13115 X-22.327 Y-22.938
N13120 X-22.399 Y-22.962
N13125 X-22.579 Y-23.017
N13130 X-22.759 Y-23.071
N13135 X-22.939 Y-23.125
N13140 X-23.119 Y-23.174
N13145 X-23.299 Y-23.222
N13150 X-25.113 Y-23.658
N13155 X-25.279 Y-23.697
N13160 X-25.639 Y-23.782
N13165 X-25.819 Y-23.824
N13170 X-25.877 Y-23.838
N13175 X-25.998 Y-23.862
N13180 X-26.178 Y-23.894
N13185 X-26.358 Y-23.925
N13190 X-26.538 Y-23.956
N13195 X-26.718 Y-23.982
N13200 X-26.898 Y-24.006
N13205 X-27.078 Y-24.027
N13210 X-27.258 Y-24.047
N13215 X-27.438 Y-24.067
N13220 X-29.238 Y-24.234
N13225 X-29.418 Y-24.25
N13230 X-29.598 Y-24.264
N13235 X-29.778 Y-24.276
N13240 X-29.958 Y-24.288
N13245 X-30.137 Y-24.296
N13250 X-30.317 Y-24.304
N13255 X-30.677 Y-24.305
N13260 X-30.857 Y-24.306
N13265 X-31.037 Y-24.302
N13270 X-31.217 Y-24.295
N13275 X-31.577 Y-24.277
N13280 X-33.017 Y-24.204
N13285 X-33.146 Y-24.198
N13290 X-33.197 Y-24.194
N13295 X-33.557 Y-24.166
N13300 X-34.097 Y-24.123
N13305 X-34.276 Y-24.108
N13310 X-34.456 Y-24.092
N13315 X-34.636 Y-24.064
N13320 X-34.816 Y-24.033
N13325 X-36.616 Y-23.681
N13330 X-36.733 Y-23.658
N13335 X-36.976 Y-23.609
N13340 X-37.876 Y-23.427
N13345 X-38.056 Y-23.388
N13350 X-38.236 Y-23.348
N13355 X-38.415 Y-23.306
N13360 X-42.375 Y-22.344
N13365 X-42.554 Y-22.301
N13370 X-42.734 Y-22.257
N13375 X-42.914 Y-22.215
N13380 X-43.661 Y-22.038
N13385 X-43.814 Y-22.002
N13390 X-43.994 Y-21.964
N13395 X-44.174 Y-21.927
N13400 X-48.382 Y-21.138
N13405 X-48.673 Y-21.088
N13410 X-48.853 Y-21.057
N13415 X-49.573 Y-20.937
N13420 X-49.753 Y-20.909
N13425 X-50.293 Y-20.837
N13430 X-54.252 Y-20.31
N13435 X-54.432 Y-20.29
N13440 X-54.612 Y-20.272
N13445 X-55.151 Y-20.218
N13450 X-55.331 Y-20.201
N13455 X-55.511 Y-20.184
N13460 X-55.691 Y-20.168
N13465 X-60.01 Y-19.825
N13470 X-60.19 Y-19.812
N13475 X-60.55 Y-19.8
N13480 X-61.09 Y-19.782
N13485 X-61.27 Y-19.776
N13490 X-61.45 Y-19.771
N13495 X-65.949 Y-19.652
N13500 X-66.129 Y-19.65
N13505 X-79.805
N13510 X-79.985 Y-19.658
N13515 X-80.055 Y-19.674
N13520 X-80.124 Y-19.699
N13525 X-80.165 Y-19.718
N13530 X-80.21 Y-19.745
N13535 X-80.255 Y-19.776
N13540 X-80.3 Y-19.815
N13545 X-80.345 Y-19.863
N13550 X-80.358 Y-19.879
N13555 X-80.42 Y-19.969
N13560 X-80.462 Y-20.059
N13565 X-80.488 Y-20.149
N13570 X-80.499 Y-20.239
N13575 X-80.5 Y-20.419
N13580 Y-20.599
N13585 G3 X-79.559 Y-21.071 I0.6 J0.021
N13590 G1 X-79.507 Y-21.019 Z-1.495
N13595 X-79.455 Y-20.967 Z-1.482
N13600 X-79.406 Y-20.917 Z-1.459
N13605 X-79.373 Y-20.845 Z-1.421
N13610 X-79.344 Y-20.778 Z-1.371
N13615 X-79.317 Y-20.719 Z-1.312
N13620 X-79.312 Y-20.672 Z-1.255
N13625 X-79.307 Y-20.633 Z-1.193
N13630 X-79.303 Y-20.601 Z-1.127
N13635 X-79.3 Y-20.578 Z-1.057
N13640 Y-20.572 Z-1.033
N13645 X-79.301 Y-20.56 Z-0.967
N13650 Y-20.557 Z-0.9
N13655 G0 Z5.
N13660 X-10.495 Y2.821
N13665 Z-0.2
N13670 G1 Z-0.8 F100.
N13675 X-10.49 Y2.815 Z-0.894
N13680 X-10.478 Y2.797 Z-0.985
N13685 X-10.457 Y2.767 Z-1.072
N13690 X-10.429 Y2.727 Z-1.153
N13695 X-10.394 Y2.677 Z-1.224
N13700 X-10.353 Y2.618 Z-1.285
N13705 X-10.307 Y2.552 Z-1.335
N13710 X-10.257 Y2.481 Z-1.371
N13715 X-10.205 Y2.406 Z-1.393
N13720 X-10.151 Y2.329 Z-1.4
N13725 G3 X-8.723 Y1.099 I3.115 J2.174
N13730 G1 X-8.543 Y1.018
N13735 X-8.495 Y0.996
N13740 X-8.363 Y0.933
N13745 X-8.183 Y0.847
N13750 X-8.117 Y0.816
N13755 X-8.003 Y0.759
N13760 X-7.823 Y0.668
N13765 X-7.643 Y0.573
N13770 X-7.463 Y0.477
N13775 X-7.283 Y0.378
N13780 X-7.103 Y0.273
N13785 X-6.923 Y0.166
N13790 X-6.808 Y0.096
N13795 X-6.743 Y0.055
N13800 X-6.563 Y-0.063
N13805 X-6.383 Y-0.188
N13810 X-6.275 Y-0.264
N13815 X-6.023 Y-0.46
N13820 X-5.843 Y-0.615
N13825 X-5.663 Y-0.779
N13830 X-5.639 Y-0.804
N13835 X-5.473 Y-0.984
N13840 X-5.323 Y-1.164
N13845 X-5.19 Y-1.344
N13850 X-5.124 Y-1.44
N13855 X-5.074 Y-1.524
N13860 X-4.973 Y-1.704
N13865 X-4.887 Y-1.884
N13870 X-4.813 Y-2.064
N13875 X-4.764 Y-2.199
N13880 X-4.751 Y-2.244
N13885 X-4.701 Y-2.423
N13890 X-4.664 Y-2.603
N13895 X-4.634 Y-2.783
N13900 X-4.617 Y-2.963
N13905 X-4.611 Y-3.143
N13910 X-4.613 Y-3.323
N13915 X-4.628 Y-3.503
N13920 X-4.654 Y-3.683
N13925 X-4.687 Y-3.863
N13930 X-4.736 Y-4.043
N13935 X-4.764 Y-4.143
N13940 X-4.851 Y-4.403
N13945 X-4.944 Y-4.671
N13950 X-5.163 Y-5.303
N13955 X-5.226 Y-5.483
N13960 X-5.303 Y-5.706
N13965 X-5.417 Y-6.022
N13970 X-5.485 Y-6.202
N13975 X-5.825 Y-7.102
N13980 X-5.843 Y-7.149
N13985 X-5.898 Y-7.282
N13990 X-5.984 Y-7.462
N13995 X-6.07 Y-7.642
N14000 X-6.334 Y-8.182
N14005 X-6.383 Y-8.281
N14010 X-6.423 Y-8.362
N14015 X-6.515 Y-8.542
N14020 X-7.166 Y-9.801
N14025 X-7.262 Y-9.981
N14030 X-7.359 Y-10.161
N14035 X-7.467 Y-10.341
N14040 X-7.683 Y-10.701
N14045 X-7.792 Y-10.881
N14050 X-7.903 Y-11.061
N14055 X-8.003 Y-11.211
N14060 X-8.024 Y-11.241
N14065 X-8.183 Y-11.464
N14070 X-9.083 Y-12.724
N14075 X-9.442 Y-13.223
N14080 X-9.57 Y-13.4
N14085 X-9.622 Y-13.472
N14090 X-9.706 Y-13.58
N14095 X-9.802 Y-13.7
N14100 X-10.002 Y-13.94
N14105 X-10.162 Y-14.128
N14110 X-10.314 Y-14.3
N14115 X-10.522 Y-14.522
N14120 X-10.653 Y-14.66
N14125 X-10.702 Y-14.713
N14130 X-10.824 Y-14.84
N14135 X-11.856 Y-15.92
N14140 X-12.142 Y-16.217
N14145 X-12.206 Y-16.28
N14150 X-12.587 Y-16.64
N14155 X-12.682 Y-16.728
N14160 X-12.786 Y-16.82
N14165 X-12.862 Y-16.884
N14170 X-13.042 Y-17.034
N14175 X-13.222 Y-17.183
N14180 X-13.441 Y-17.359
N14185 X-14.819 Y-18.439
N14190 X-14.841 Y-18.456
N14195 X-15.053 Y-18.619
N14200 X-15.296 Y-18.799
N14205 X-15.381 Y-18.861
N14210 X-15.561 Y-18.988
N14215 X-15.741 Y-19.112
N14220 X-15.921 Y-19.229
N14225 X-16.101 Y-19.345
N14230 X-16.281 Y-19.454
N14235 X-16.461 Y-19.558
N14240 X-17.958 Y-20.419
N14245 X-18.272 Y-20.599
N14250 X-18.44 Y-20.695
N14255 X-18.59 Y-20.778
N14260 X-18.8 Y-20.887
N14265 X-18.942 Y-20.958
N14270 X-19.16 Y-21.068
N14275 X-19.34 Y-21.149
N14280 X-19.52 Y-21.229
N14285 X-19.729 Y-21.318
N14290 X-19.88 Y-21.381
N14295 X-20.06 Y-21.454
N14300 X-20.171 Y-21.498
N14305 X-21.68 Y-22.099
N14310 X-21.859 Y-22.169
N14315 X-22.039 Y-22.238
N14320 X-22.219 Y-22.304
N14325 X-22.399 Y-22.368
N14330 X-22.579 Y-22.43
N14335 X-22.759 Y-22.488
N14340 X-22.939 Y-22.541
N14345 X-23.064 Y-22.578
N14350 X-23.299 Y-22.645
N14355 X-23.768 Y-22.758
N14360 X-25.279 Y-23.121
N14365 X-25.459 Y-23.164
N14370 X-25.639 Y-23.206
N14375 X-25.819 Y-23.249
N14380 X-25.998 Y-23.288
N14385 X-26.178 Y-23.325
N14390 X-26.358 Y-23.357
N14395 X-26.538 Y-23.388
N14400 X-26.718 Y-23.417
N14405 X-26.898 Y-23.442
N14410 X-27.078 Y-23.463
N14415 X-27.258 Y-23.484
N14420 X-27.438 Y-23.504
N14425 X-29.238 Y-23.671
N14430 X-29.418 Y-23.687
N14435 X-29.598 Y-23.702
N14440 X-29.778 Y-23.715
N14445 X-29.958 Y-23.727
N14450 X-30.137 Y-23.736
N14455 X-30.317 Y-23.744
N14460 X-30.497 Y-23.745
N14465 X-30.677 Y-23.746
N14470 X-30.857
N14475 X-31.037 Y-23.741
N14480 X-31.217 Y-23.733
N14485 X-33.017 Y-23.643
N14490 X-33.197 Y-23.633
N14495 X-33.377 Y-23.62
N14500 X-33.557 Y-23.606
N14505 X-34.097 Y-23.563
N14510 X-34.276 Y-23.546
N14515 X-34.456 Y-23.529
N14520 X-34.636 Y-23.497
N14525 X-34.741 Y-23.478
N14530 X-36.616 Y-23.111
N14535 X-36.796 Y-23.075
N14540 X-36.976 Y-23.039
N14545 X-37.696 Y-22.893
N14550 X-37.876 Y-22.856
N14555 X-38.056 Y-22.816
N14560 X-38.299 Y-22.758
N14565 X-42.375 Y-21.768
N14570 X-42.554 Y-21.725
N14575 X-42.748 Y-21.678
N14580 X-42.914 Y-21.639
N14585 X-43.634 Y-21.469
N14590 X-43.814 Y-21.426
N14595 X-43.994 Y-21.392
N14600 X-44.354 Y-21.325
N14605 X-48.313 Y-20.582
N14610 X-48.493 Y-20.55
N14615 X-48.673 Y-20.519
N14620 X-48.853 Y-20.489
N14625 X-49.274 Y-20.419
N14630 X-49.393 Y-20.399
N14635 X-49.573 Y-20.371
N14640 X-49.753 Y-20.345
N14645 X-54.252 Y-19.746
N14650 X-54.432 Y-19.727
N14655 X-54.612 Y-19.708
N14660 X-55.151 Y-19.654
N14665 X-55.331 Y-19.637
N14670 X-55.511 Y-19.622
N14675 X-60.01 Y-19.264
N14680 X-60.19 Y-19.251
N14685 X-61.09 Y-19.221
N14690 X-61.27 Y-19.216
N14695 X-65.949 Y-19.092
N14700 X-66.129 Y-19.09
N14705 X-79.805
N14710 X-79.985 Y-19.098
N14715 X-80.075 Y-19.12
N14720 X-80.166 Y-19.159
N14725 X-80.211 Y-19.185
N14730 X-80.256 Y-19.217
N14735 X-80.345 Y-19.301
N14740 X-80.377 Y-19.339
N14745 X-80.408 Y-19.384
N14750 X-80.434 Y-19.429
N14755 X-80.471 Y-19.519
N14760 X-80.493 Y-19.609
N14765 X-80.5 Y-19.699
N14770 Y-20.059
N14775 G3 X-79.559 Y-20.531 I0.6 J0.021
N14780 G1 X-79.507 Y-20.479 Z-1.395
N14785 X-79.455 Y-20.427 Z-1.382
N14790 X-79.406 Y-20.377 Z-1.359
N14795 X-79.373 Y-20.305 Z-1.321
N14800 X-79.344 Y-20.238 Z-1.271
N14805 X-79.317 Y-20.179 Z-1.212
N14810 X-79.312 Y-20.132 Z-1.155
N14815 X-79.307 Y-20.093 Z-1.093
N14820 X-79.303 Y-20.061 Z-1.027
N14825 X-79.3 Y-20.038 Z-0.957
N14830 Y-20.032 Z-0.933
N14835 X-79.301 Y-20.021 Z-0.867
N14840 Y-20.017 Z-0.8
N14845 G0 Z5.
N14850 X-10.841 Y2.99
N14855 Z-0.1
N14860 G1 Z-0.7 F100.
N14865 X-10.836 Y2.983 Z-0.794
N14870 X-10.824 Y2.965 Z-0.885
N14875 X-10.804 Y2.936 Z-0.972
N14880 X-10.776 Y2.895 Z-1.053
N14885 X-10.741 Y2.845 Z-1.124
N14890 X-10.701 Y2.786 Z-1.185
N14895 X-10.655 Y2.719 Z-1.235
N14900 X-10.606 Y2.648 Z-1.271
N14905 X-10.554 Y2.572 Z-1.293
N14910 X-10.501 Y2.495 Z-1.3
N14915 G3 X-9.083 Y1.254 I3.132 J2.148
N14920 G1 X-8.903 Y1.17
N14925 X-8.723 Y1.086
N14930 X-8.538 Y0.996
N14935 X-8.363 Y0.906
N14940 X-8.183 Y0.813
N14945 X-8.003 Y0.717
N14950 X-7.855 Y0.636
N14955 X-7.823 Y0.617
N14960 X-7.543 Y0.456
N14965 X-7.463 Y0.408
N14970 X-7.251 Y0.276
N14975 X-7.103 Y0.178
N14980 X-6.979 Y0.096
N14985 X-6.923 Y0.057
N14990 X-6.733 Y-0.084
N14995 X-6.563 Y-0.213
N15000 X-6.383 Y-0.366
N15005 X-6.294 Y-0.444
N15010 X-6.203 Y-0.531
N15015 X-6.112 Y-0.624
N15020 X-6.023 Y-0.715
N15025 X-5.946 Y-0.804
N15030 X-5.803 Y-0.984
N15035 X-5.677 Y-1.164
N15040 X-5.561 Y-1.344
N15045 X-5.483 Y-1.485
N15050 X-5.464 Y-1.524
N15055 X-5.384 Y-1.704
N15060 X-5.311 Y-1.884
N15065 X-5.303 Y-1.903
N15070 X-5.255 Y-2.064
N15075 X-5.205 Y-2.244
N15080 X-5.169 Y-2.423
N15085 X-5.147 Y-2.603
N15090 X-5.132 Y-2.783
N15095 X-5.126 Y-2.963
N15100 X-5.134 Y-3.143
N15105 X-5.151 Y-3.323
N15110 X-5.177 Y-3.503
N15115 X-5.215 Y-3.683
N15120 X-5.265 Y-3.863
N15125 X-5.322 Y-4.043
N15130 X-5.383 Y-4.223
N15135 X-5.82 Y-5.483
N15140 X-5.883 Y-5.663
N15145 X-5.949 Y-5.843
N15150 X-6.023 Y-6.046
N15155 X-6.218 Y-6.562
N15160 X-6.287 Y-6.742
N15165 X-6.356 Y-6.922
N15170 X-6.383 Y-6.994
N15175 X-6.432 Y-7.102
N15180 X-6.517 Y-7.282
N15185 X-6.781 Y-7.822
N15190 X-6.87 Y-8.002
N15195 X-6.962 Y-8.182
N15200 X-7.054 Y-8.362
N15205 X-7.705 Y-9.622
N15210 X-7.8 Y-9.801
N15215 X-7.823 Y-9.845
N15220 X-7.904 Y-9.981
N15225 X-8.011 Y-10.161
N15230 X-8.183 Y-10.448
N15235 X-8.227 Y-10.521
N15240 X-8.363 Y-10.743
N15245 X-8.457 Y-10.881
N15250 X-8.584 Y-11.061
N15255 X-8.723 Y-11.255
N15260 X-9.484 Y-12.321
N15265 X-9.622 Y-12.515
N15270 X-9.982 Y-13.014
N15275 X-10.002 Y-13.041
N15280 X-10.162 Y-13.25
N15285 X-10.281 Y-13.4
N15290 X-10.431 Y-13.58
N15295 X-10.522 Y-13.69
N15300 X-10.581 Y-13.76
N15305 X-10.702 Y-13.893
N15310 X-10.745 Y-13.94
N15315 X-10.914 Y-14.12
N15320 X-11.062 Y-14.278
N15325 X-12.502 Y-15.783
N15330 X-12.64 Y-15.92
N15335 X-12.862 Y-16.13
N15340 X-13.023 Y-16.28
N15345 X-13.042 Y-16.297
N15350 X-13.222 Y-16.455
N15355 X-13.443 Y-16.64
N15360 X-13.663 Y-16.82
N15365 X-13.761 Y-16.897
N15370 X-15.27 Y-18.079
N15375 X-15.381 Y-18.166
N15380 X-15.741 Y-18.431
N15385 X-15.752 Y-18.439
N15390 X-15.921 Y-18.557
N15395 X-16.01 Y-18.619
N15400 X-16.286 Y-18.799
N15405 X-16.461 Y-18.906
N15410 X-16.581 Y-18.979
N15415 X-16.641 Y-19.014
N15420 X-18.457 Y-20.059
N15425 X-18.62 Y-20.152
N15430 X-18.8 Y-20.254
N15435 X-18.98 Y-20.352
N15440 X-19.16 Y-20.442
N15445 X-19.477 Y-20.599
N15450 X-19.52 Y-20.618
N15455 X-19.7 Y-20.697
N15460 X-19.892 Y-20.778
N15465 X-20.06 Y-20.849
N15470 X-20.24 Y-20.922
N15475 X-22.039 Y-21.638
N15480 X-22.145 Y-21.678
N15485 X-22.399 Y-21.773
N15490 X-22.633 Y-21.858
N15495 X-22.759 Y-21.902
N15500 X-22.939 Y-21.957
N15505 X-23.299 Y-22.064
N15510 X-23.479 Y-22.11
N15515 X-23.659 Y-22.155
N15520 X-25.459 Y-22.587
N15525 X-25.639 Y-22.63
N15530 X-25.819 Y-22.673
N15535 X-25.998 Y-22.715
N15540 X-26.188 Y-22.758
N15545 X-26.358 Y-22.789
N15550 X-26.538 Y-22.821
N15555 X-26.718 Y-22.851
N15560 X-26.898 Y-22.878
N15565 X-27.078 Y-22.899
N15570 X-27.416 Y-22.938
N15575 X-27.438 Y-22.94
N15580 X-29.348 Y-23.118
N15585 X-29.598 Y-23.14
N15590 X-29.778 Y-23.154
N15595 X-29.958 Y-23.166
N15600 X-30.137 Y-23.175
N15605 X-30.317 Y-23.184
N15610 X-30.497 Y-23.186
N15615 X-30.677
N15620 X-30.857
N15625 X-31.037 Y-23.18
N15630 X-31.217 Y-23.172
N15635 X-33.017 Y-23.081
N15640 X-33.197 Y-23.072
N15645 X-33.377 Y-23.059
N15650 X-33.557 Y-23.045
N15655 X-34.097 Y-23.002
N15660 X-34.276 Y-22.983
N15665 X-34.456 Y-22.961
N15670 X-34.636 Y-22.928
N15675 X-34.816 Y-22.893
N15680 X-36.616 Y-22.541
N15685 X-36.796 Y-22.505
N15690 X-37.156 Y-22.432
N15695 X-37.516 Y-22.359
N15700 X-37.696 Y-22.322
N15705 X-37.876 Y-22.283
N15710 X-38.056 Y-22.241
N15715 X-42.375 Y-21.192
N15720 X-42.597 Y-21.138
N15725 X-42.734 Y-21.106
N15730 X-42.914 Y-21.063
N15735 X-43.454 Y-20.935
N15740 X-43.634 Y-20.896
N15745 X-43.814 Y-20.857
N15750 X-43.994 Y-20.823
N15755 X-48.313 Y-20.014
N15760 X-48.493 Y-19.981
N15765 X-48.673 Y-19.95
N15770 X-49.213 Y-19.86
N15775 X-49.393 Y-19.831
N15780 X-49.573 Y-19.806
N15785 X-49.753 Y-19.781
N15790 X-54.252 Y-19.182
N15795 X-54.47 Y-19.159
N15800 X-54.612 Y-19.144
N15805 X-54.971 Y-19.109
N15810 X-55.151 Y-19.091
N15815 X-55.331 Y-19.075
N15820 X-59.83 Y-18.717
N15825 X-60.01 Y-18.703
N15830 X-60.19 Y-18.69
N15835 X-60.73 Y-18.672
N15840 X-60.91 Y-18.667
N15845 X-61.09 Y-18.661
N15850 X-61.27 Y-18.656
N15855 X-65.949 Y-18.532
N15860 X-66.129 Y-18.53
N15865 X-79.805
N15870 X-79.985 Y-18.538
N15875 X-80.075 Y-18.561
N15880 X-80.165 Y-18.599
N15885 X-80.201 Y-18.619
N15890 X-80.273 Y-18.671
N15895 X-80.345 Y-18.742
N15900 X-80.391 Y-18.799
N15905 X-80.443 Y-18.889
N15910 X-80.477 Y-18.979
N15915 X-80.495 Y-19.069
N15920 X-80.5 Y-19.159
N15925 Y-19.519
N15930 G3 X-79.559 Y-19.991 I0.6 J0.021
N15935 G1 X-79.507 Y-19.939 Z-1.295
N15940 X-79.455 Y-19.887 Z-1.282
N15945 X-79.406 Y-19.837 Z-1.259
N15950 X-79.373 Y-19.765 Z-1.221
N15955 X-79.344 Y-19.698 Z-1.171
N15960 X-79.317 Y-19.639 Z-1.112
N15965 X-79.312 Y-19.592 Z-1.055
N15970 X-79.307 Y-19.553 Z-0.993
N15975 X-79.303 Y-19.521 Z-0.927
N15980 X-79.3 Y-19.498 Z-0.857
N15985 Y-19.492 Z-0.833
N15990 X-79.301 Y-19.481 Z-0.767
N15995 Y-19.477 Z-0.7
N16000 G0 Z5.
N16005 X-11.87 Y3.178
N16010 Z0.
N16015 G1 Z-0.6 F100.
N16020 X-11.865 Y3.172 Z-0.694
N16025 X-11.851 Y3.155 Z-0.785
N16030 X-11.828 Y3.127 Z-0.872
N16035 X-11.798 Y3.088 Z-0.953
N16040 X-11.759 Y3.041 Z-1.024
N16045 X-11.714 Y2.985 Z-1.085
N16050 X-11.664 Y2.923 Z-1.135
N16055 X-11.609 Y2.855 Z-1.171
N16060 X-11.552 Y2.784 Z-1.193
N16065 X-11.493 Y2.711 Z-1.2
N16070 G3 X-9.982 Y1.583 I2.956 J2.385
N16075 G1 X-9.802 Y1.516
N16080 X-9.622 Y1.448
N16085 X-9.388 Y1.355
N16090 X-9.263 Y1.304
N16095 X-9.083 Y1.229
N16100 X-8.903 Y1.142
N16105 X-8.723 Y1.053
N16110 X-8.615 Y0.996
N16115 X-8.543 Y0.957
N16120 X-8.363 Y0.857
N16125 X-8.183 Y0.755
N16130 X-8.003 Y0.648
N16135 X-7.983 Y0.636
N16140 X-7.823 Y0.537
N16145 X-7.643 Y0.422
N16150 X-7.463 Y0.298
N16155 X-7.283 Y0.17
N16160 X-7.184 Y0.096
N16165 X-6.961 Y-0.084
N16170 X-6.923 Y-0.117
N16175 X-6.763 Y-0.264
N16180 X-6.743 Y-0.283
N16185 X-6.582 Y-0.444
N16190 X-6.563 Y-0.464
N16195 X-6.424 Y-0.624
N16200 X-6.383 Y-0.672
N16205 X-6.285 Y-0.804
N16210 X-6.162 Y-0.984
N16215 X-6.055 Y-1.164
N16220 X-6.023 Y-1.221
N16225 X-5.96 Y-1.344
N16230 X-5.881 Y-1.524
N16235 X-5.843 Y-1.612
N16240 X-5.813 Y-1.704
N16245 X-5.757 Y-1.884
N16250 X-5.714 Y-2.064
N16255 X-5.682 Y-2.244
N16260 X-5.663 Y-2.371
N16265 X-5.657 Y-2.423
N16270 X-5.647 Y-2.603
N16275 X-5.646 Y-2.783
N16280 X-5.653 Y-2.963
N16285 X-5.675 Y-3.143
N16290 X-5.705 Y-3.323
N16295 X-5.744 Y-3.503
N16300 X-5.797 Y-3.683
N16305 X-5.843 Y-3.835
N16310 X-6.203 Y-4.872
N16315 X-6.383 Y-5.391
N16320 X-6.478 Y-5.663
N16325 X-6.545 Y-5.843
N16330 X-6.612 Y-6.022
N16335 X-6.816 Y-6.562
N16340 X-6.888 Y-6.742
N16345 X-6.966 Y-6.922
N16350 X-7.052 Y-7.102
N16355 X-7.283 Y-7.575
N16360 X-7.316 Y-7.642
N16365 X-7.407 Y-7.822
N16370 X-7.463 Y-7.931
N16375 X-8.244 Y-9.442
N16380 X-8.341 Y-9.622
N16385 X-8.363 Y-9.66
N16390 X-8.446 Y-9.801
N16395 X-8.663 Y-10.161
N16400 X-8.723 Y-10.26
N16405 X-8.773 Y-10.341
N16410 X-8.889 Y-10.521
N16415 X-9.016 Y-10.701
N16420 X-9.982 Y-12.054
N16425 X-10.174 Y-12.321
N16430 X-10.342 Y-12.555
N16435 X-10.433 Y-12.681
N16440 X-10.522 Y-12.801
N16445 X-10.566 Y-12.861
N16450 X-10.702 Y-13.032
N16455 X-10.882 Y-13.248
N16460 X-11.012 Y-13.4
N16465 X-11.062 Y-13.458
N16470 X-11.176 Y-13.58
N16475 X-11.345 Y-13.76
N16480 X-11.422 Y-13.842
N16485 X-11.516 Y-13.94
N16490 X-12.721 Y-15.2
N16495 X-12.862 Y-15.347
N16500 X-13.074 Y-15.56
N16505 X-13.264 Y-15.74
N16510 X-13.402 Y-15.87
N16515 X-13.457 Y-15.92
N16520 X-13.581 Y-16.025
N16525 X-13.761 Y-16.176
N16530 X-13.889 Y-16.28
N16535 X-14.113 Y-16.46
N16540 X-15.561 Y-17.594
N16545 X-15.721 Y-17.719
N16550 X-15.741 Y-17.735
N16555 X-15.921 Y-17.868
N16560 X-15.963 Y-17.899
N16565 X-16.101 Y-18.
N16570 X-16.211 Y-18.079
N16575 X-16.281 Y-18.127
N16580 X-16.482 Y-18.259
N16585 X-16.641 Y-18.362
N16590 X-16.767 Y-18.439
N16595 X-17.001 Y-18.575
N16600 X-18.643 Y-19.519
N16605 X-18.957 Y-19.699
N16610 X-19.16 Y-19.813
N16615 X-19.286 Y-19.879
N16620 X-19.52 Y-19.997
N16625 X-19.65 Y-20.059
N16630 X-19.7 Y-20.082
N16635 X-19.88 Y-20.164
N16640 X-20.06 Y-20.242
N16645 X-20.24 Y-20.318
N16650 X-22.301 Y-21.138
N16655 X-22.399 Y-21.177
N16660 X-22.579 Y-21.243
N16665 X-22.759 Y-21.308
N16670 X-22.939 Y-21.37
N16675 X-23.119 Y-21.427
N16680 X-23.299 Y-21.481
N16685 X-23.362 Y-21.498
N16690 X-23.479 Y-21.53
N16695 X-23.659 Y-21.578
N16700 X-25.639 Y-22.054
N16705 X-25.819 Y-22.097
N16710 X-25.998 Y-22.139
N16715 X-26.178 Y-22.182
N16720 X-26.358 Y-22.219
N16725 X-26.538 Y-22.253
N16730 X-26.718 Y-22.284
N16735 X-26.898 Y-22.312
N16740 X-27.078 Y-22.335
N16745 X-27.258 Y-22.356
N16750 X-27.438 Y-22.377
N16755 X-29.601 Y-22.578
N16760 X-29.778 Y-22.592
N16765 X-29.958 Y-22.604
N16770 X-30.137 Y-22.615
N16775 X-30.317 Y-22.625
N16780 X-30.497 Y-22.626
N16785 X-30.677
N16790 X-30.857 Y-22.625
N16795 X-31.037 Y-22.619
N16800 X-31.757 Y-22.583
N16805 X-33.017 Y-22.52
N16810 X-33.197 Y-22.511
N16815 X-33.377 Y-22.498
N16820 X-33.557 Y-22.485
N16825 X-34.097 Y-22.442
N16830 X-34.276 Y-22.419
N16835 X-34.431 Y-22.398
N16840 X-34.816 Y-22.323
N16845 X-36.616 Y-21.971
N16850 X-36.796 Y-21.935
N16855 X-37.336 Y-21.826
N16860 X-37.516 Y-21.789
N16865 X-37.696 Y-21.751
N16870 X-37.876 Y-21.708
N16875 X-38.002 Y-21.678
N16880 X-42.448 Y-20.599
N16885 X-42.554 Y-20.573
N16890 X-42.734 Y-20.53
N16895 X-42.914 Y-20.487
N16900 X-43.454 Y-20.359
N16905 X-43.634 Y-20.323
N16910 X-43.814 Y-20.288
N16915 X-48.313 Y-19.445
N16920 X-48.493 Y-19.413
N16925 X-48.673 Y-19.382
N16930 X-48.928 Y-19.339
N16935 X-49.033 Y-19.321
N16940 X-49.213 Y-19.292
N16945 X-49.393 Y-19.265
N16950 X-54.252 Y-18.618
N16955 X-54.432 Y-18.599
N16960 X-54.612 Y-18.581
N16965 X-54.792 Y-18.563
N16970 X-54.971 Y-18.545
N16975 X-55.151 Y-18.529
N16980 X-55.331 Y-18.514
N16985 X-59.83 Y-18.156
N16990 X-60.01 Y-18.142
N16995 X-60.19 Y-18.13
N17000 X-60.73 Y-18.112
N17005 X-60.91 Y-18.106
N17010 X-61.27 Y-18.096
N17015 X-65.949 Y-17.972
N17020 X-66.129 Y-17.97
N17025 X-79.805
N17030 X-79.985 Y-17.978
N17035 X-80.075 Y-18.001
N17040 X-80.165 Y-18.039
N17045 X-80.231 Y-18.079
N17050 X-80.288 Y-18.125
N17055 X-80.345 Y-18.181
N17060 X-80.405 Y-18.259
N17065 X-80.452 Y-18.349
N17070 X-80.482 Y-18.439
N17075 X-80.498 Y-18.529
N17080 X-80.5 Y-18.619
N17085 Y-18.979
N17090 G3 X-79.559 Y-19.451 I0.6 J0.021
N17095 G1 X-79.507 Y-19.399 Z-1.195
N17100 X-79.455 Y-19.347 Z-1.182
N17105 X-79.406 Y-19.298 Z-1.159
N17110 X-79.373 Y-19.225 Z-1.121
N17115 X-79.344 Y-19.159 Z-1.071
N17120 X-79.317 Y-19.099 Z-1.012
N17125 X-79.312 Y-19.053 Z-0.955
N17130 X-79.307 Y-19.013 Z-0.893
N17135 X-79.303 Y-18.981 Z-0.827
N17140 X-79.3 Y-18.958 Z-0.757
N17145 Y-18.952 Z-0.733
N17150 X-79.301 Y-18.941 Z-0.667
N17155 Y-18.937 Z-0.6
N17160 G0 Z5.
N17165 X-12.27 Y3.246
N17170 Z0.1
N17175 G1 Z-0.5 F100.
N17180 X-12.266 Y3.241 Z-0.594
N17185 X-12.251 Y3.224 Z-0.685
N17190 X-12.228 Y3.197 Z-0.772
N17195 X-12.196 Y3.159 Z-0.853
N17200 X-12.156 Y3.113 Z-0.924
N17205 X-12.11 Y3.058 Z-0.985
N17210 X-12.058 Y2.997 Z-1.035
N17215 X-12.002 Y2.931 Z-1.071
N17220 X-11.942 Y2.861 Z-1.093
N17225 X-11.882 Y2.789 Z-1.1
N17230 G3 X-10.342 Y1.702 I2.893 J2.461
N17235 G1 X-10.162 Y1.64
N17240 X-9.982 Y1.569
N17245 X-9.802 Y1.496
N17250 X-9.622 Y1.421
N17255 X-9.442 Y1.344
N17260 X-9.263 Y1.263
N17265 X-9.083 Y1.18
N17270 X-8.903 Y1.09
N17275 X-8.723 Y0.995
N17280 X-8.543 Y0.889
N17285 X-8.422 Y0.816
N17290 X-8.363 Y0.779
N17295 X-8.183 Y0.664
N17300 X-8.003 Y0.541
N17305 X-7.879 Y0.456
N17310 X-7.823 Y0.415
N17315 X-7.642 Y0.276
N17320 X-7.463 Y0.13
N17325 X-7.425 Y0.096
N17330 X-7.283 Y-0.033
N17335 X-7.231 Y-0.084
N17340 X-7.103 Y-0.214
N17345 X-7.056 Y-0.264
N17350 X-6.923 Y-0.418
N17355 X-6.901 Y-0.444
N17360 X-6.743 Y-0.657
N17365 X-6.651 Y-0.804
N17370 X-6.544 Y-0.984
N17375 X-6.454 Y-1.164
N17380 X-6.383 Y-1.335
N17385 X-6.315 Y-1.524
N17390 X-6.264 Y-1.704
N17395 X-6.222 Y-1.884
N17400 X-6.189 Y-2.064
N17405 X-6.173 Y-2.244
N17410 X-6.163 Y-2.423
N17415 X-6.164 Y-2.603
N17420 X-6.178 Y-2.783
N17425 X-6.199 Y-2.963
N17430 X-6.232 Y-3.143
N17435 X-6.277 Y-3.323
N17440 X-6.327 Y-3.503
N17445 X-6.387 Y-3.683
N17450 X-6.448 Y-3.863
N17455 X-6.947 Y-5.303
N17460 X-7.011 Y-5.483
N17465 X-7.075 Y-5.663
N17470 X-7.103 Y-5.74
N17475 X-7.283 Y-6.217
N17480 X-7.346 Y-6.382
N17485 X-7.418 Y-6.562
N17490 X-7.463 Y-6.667
N17495 X-7.587 Y-6.922
N17500 X-7.675 Y-7.102
N17505 X-7.763 Y-7.282
N17510 X-7.854 Y-7.462
N17515 X-7.946 Y-7.642
N17520 X-8.723 Y-9.145
N17525 X-8.785 Y-9.262
N17530 X-8.903 Y-9.473
N17535 X-8.99 Y-9.622
N17540 X-9.098 Y-9.801
N17545 X-9.209 Y-9.981
N17550 X-9.263 Y-10.069
N17555 X-9.321 Y-10.161
N17560 X-9.448 Y-10.341
N17565 X-10.522 Y-11.845
N17570 X-10.605 Y-11.961
N17575 X-10.735 Y-12.141
N17580 X-10.882 Y-12.345
N17585 X-10.998 Y-12.501
N17590 X-11.138 Y-12.681
N17595 X-11.242 Y-12.806
N17600 X-11.287 Y-12.861
N17605 X-11.422 Y-13.02
N17610 X-11.607 Y-13.221
N17615 X-11.782 Y-13.406
N17620 X-11.962 Y-13.595
N17625 X-13.222 Y-14.912
N17630 X-13.328 Y-15.02
N17635 X-13.402 Y-15.095
N17640 X-13.507 Y-15.2
N17645 X-13.761 Y-15.439
N17650 X-13.897 Y-15.56
N17655 X-14.121 Y-15.748
N17660 X-14.301 Y-15.894
N17665 X-15.941 Y-17.179
N17670 X-16.101 Y-17.302
N17675 X-16.281 Y-17.438
N17680 X-16.421 Y-17.539
N17685 X-16.641 Y-17.694
N17690 X-16.679 Y-17.719
N17695 X-16.821 Y-17.812
N17700 X-16.956 Y-17.899
N17705 X-17.001 Y-17.925
N17710 X-17.264 Y-18.079
N17715 X-18.98 Y-19.066
N17720 X-19.16 Y-19.169
N17725 X-19.34 Y-19.27
N17730 X-19.462 Y-19.339
N17735 X-19.52 Y-19.371
N17740 X-19.816 Y-19.519
N17745 X-19.88 Y-19.549
N17750 X-20.06 Y-19.63
N17755 X-20.215 Y-19.699
N17760 X-20.42 Y-19.785
N17765 X-20.6 Y-19.858
N17770 X-22.462 Y-20.599
N17775 X-22.579 Y-20.645
N17780 X-22.759 Y-20.713
N17785 X-22.94 Y-20.778
N17790 X-23.119 Y-20.839
N17795 X-23.299 Y-20.896
N17800 X-23.479 Y-20.95
N17805 X-23.507 Y-20.958
N17810 X-23.659 Y-21.001
N17815 X-23.839 Y-21.045
N17820 X-24.019 Y-21.088
N17825 X-25.819 Y-21.52
N17830 X-25.998 Y-21.563
N17835 X-26.178 Y-21.606
N17840 X-26.358 Y-21.646
N17845 X-26.504 Y-21.678
N17850 X-26.538 Y-21.685
N17855 X-26.718 Y-21.716
N17860 X-26.898 Y-21.745
N17865 X-27.078 Y-21.771
N17870 X-27.258 Y-21.793
N17875 X-27.438 Y-21.813
N17880 X-29.598 Y-22.014
N17885 X-29.778 Y-22.029
N17890 X-29.958 Y-22.043
N17895 X-30.137 Y-22.054
N17900 X-30.317 Y-22.064
N17905 X-30.497 Y-22.066
N17910 X-30.677 Y-22.067
N17915 X-30.857 Y-22.065
N17920 X-31.037 Y-22.058
N17925 X-33.017 Y-21.959
N17930 X-33.197 Y-21.949
N17935 X-33.377 Y-21.937
N17940 X-33.557 Y-21.924
N17945 X-33.917 Y-21.895
N17950 X-34.097 Y-21.88
N17955 X-34.246 Y-21.858
N17960 X-34.276 Y-21.853
N17965 X-34.456 Y-21.824
N17970 X-36.616 Y-21.401
N17975 X-36.796 Y-21.365
N17980 X-37.156 Y-21.292
N17985 X-37.336 Y-21.256
N17990 X-37.516 Y-21.217
N17995 X-37.696 Y-21.177
N18000 X-42.554 Y-19.997
N18005 X-42.734 Y-19.953
N18010 X-43.094 Y-19.868
N18015 X-43.274 Y-19.828
N18020 X-43.454 Y-19.788
N18025 X-43.634 Y-19.753
N18030 X-48.313 Y-18.876
N18035 X-48.493 Y-18.844
N18040 X-48.673 Y-18.813
N18045 X-48.756 Y-18.799
N18050 X-49.033 Y-18.753
N18055 X-49.213 Y-18.727
N18060 X-49.393 Y-18.701
N18065 X-54.252 Y-18.054
N18070 X-54.432 Y-18.035
N18075 X-54.612 Y-18.017
N18080 X-54.792 Y-17.999
N18085 X-54.971 Y-17.982
N18090 X-55.691 Y-17.924
N18095 X-59.83 Y-17.595
N18100 X-60.01 Y-17.581
N18105 X-60.19 Y-17.569
N18110 X-60.55 Y-17.557
N18115 X-60.73 Y-17.551
N18120 X-60.91 Y-17.546
N18125 X-65.949 Y-17.413
N18130 X-66.129 Y-17.41
N18135 X-79.805
N18140 X-79.985 Y-17.418
N18145 X-80.075 Y-17.441
N18150 X-80.165 Y-17.479
N18155 X-80.212 Y-17.506
N18160 X-80.258 Y-17.539
N18165 X-80.302 Y-17.577
N18170 X-80.345 Y-17.624
N18175 X-80.415 Y-17.719
N18180 X-80.459 Y-17.809
N18185 X-80.486 Y-17.899
N18190 X-80.499 Y-17.989
N18195 X-80.5 Y-18.079
N18200 Y-18.439
N18205 G3 X-79.559 Y-18.911 I0.6 J0.021
N18210 G1 X-79.507 Y-18.859 Z-1.095
N18215 X-79.455 Y-18.808 Z-1.082
N18220 X-79.406 Y-18.758 Z-1.059
N18225 X-79.373 Y-18.685 Z-1.021
N18230 X-79.344 Y-18.619 Z-0.971
N18235 X-79.317 Y-18.56 Z-0.912
N18240 X-79.312 Y-18.513 Z-0.855
N18245 X-79.307 Y-18.473 Z-0.793
N18250 X-79.303 Y-18.442 Z-0.727
N18255 X-79.3 Y-18.418 Z-0.657
N18260 Y-18.412 Z-0.633
N18265 X-79.301 Y-18.401 Z-0.567
N18270 Y-18.397 Z-0.5
N18275 G0 Z5.
N18280 X-125.859 Y-44.005
N18285 Z-1.8
N18290 G1 Z-2.4 F100.
N18295 X-125.853 Y-44.001 Z-2.494
N18300 X-125.835 Y-43.988 Z-2.585
N18305 X-125.805 Y-43.968 Z-2.672
N18310 X-125.765 Y-43.94 Z-2.753
N18315 X-125.715 Y-43.905 Z-2.824
N18320 X-125.656 Y-43.864 Z-2.885
N18325 X-125.59 Y-43.818 Z-2.935
N18330 X-125.519 Y-43.768 Z-2.971
N18335 X-125.443 Y-43.716 Z-2.993
N18340 X-125.366 Y-43.662 Z-3.
N18345 G3 X-123.944 Y-42.425 I-4.999 J7.181
N18350 G1 X-123.93 Y-42.408
N18355 X-123.885 Y-42.327
N18360 X-123.771 Y-42.052
N18365 X-123.718 Y-41.759
N18370 X-123.728 Y-41.461
N18375 X-123.8 Y-41.172
N18380 X-123.932 Y-40.905
N18385 X-124.029 Y-40.753
N18390 X-124.075 Y-40.666
N18395 X-124.122 Y-40.573
N18400 X-124.208 Y-40.393
N18405 X-124.282 Y-40.213
N18410 X-124.34 Y-40.033
N18415 X-124.392 Y-39.853
N18420 X-124.435 Y-39.662
N18425 X-124.462 Y-39.493
N18430 X-124.485 Y-39.313
N18435 X-124.495 Y-39.133
N18440 X-124.5 Y-38.953
N18445 Y-38.774
N18450 Y-1.164
N18455 X-124.498 Y-0.984
N18460 X-124.493 Y-0.804
N18465 X-124.476 Y-0.624
N18470 X-124.454 Y-0.444
N18475 X-124.419 Y-0.264
N18480 X-124.374 Y-0.084
N18485 X-124.323 Y0.096
N18490 X-124.258 Y0.276
N18495 X-124.255 Y0.284
N18500 X-124.179 Y0.456
N18505 X-124.094 Y0.636
N18510 X-124.075 Y0.67
N18515 X-123.991 Y0.816
N18520 X-123.895 Y0.961
N18525 X-123.741 Y1.176
N18530 X-123.715 Y1.208
N18535 X-123.587 Y1.355
N18540 X-123.535 Y1.411
N18545 X-123.411 Y1.535
N18550 X-123.355 Y1.588
N18555 X-123.207 Y1.715
N18560 X-123.175 Y1.741
N18565 X-122.96 Y1.895
N18570 X-122.815 Y1.992
N18575 X-122.669 Y2.075
N18580 X-122.635 Y2.094
N18585 X-122.455 Y2.179
N18590 X-122.283 Y2.255
N18595 X-122.275 Y2.258
N18600 X-122.095 Y2.324
N18605 X-121.915 Y2.375
N18610 X-121.735 Y2.419
N18615 X-121.555 Y2.454
N18620 X-121.375 Y2.477
N18625 X-121.195 Y2.493
N18630 X-121.015 Y2.498
N18635 X-120.836 Y2.5
N18640 X-83.225
N18645 X-83.045
N18650 X-82.865 Y2.495
N18655 X-82.685 Y2.485
N18660 X-82.505 Y2.464
N18665 X-82.325 Y2.443
N18670 X-75.666 Y1.604
N18675 X-75.486 Y1.582
N18680 X-75.307 Y1.561
N18685 X-75.127 Y1.541
N18690 X-68.108 Y0.925
N18695 X-67.928 Y0.913
N18700 X-67.748 Y0.904
N18705 X-67.208 Y0.877
N18710 X-60.91 Y0.562
N18715 X-60.73 Y0.556
N18720 X-60.55 Y0.551
N18725 X-60.37 Y0.549
N18730 X-53.712 Y0.468
N18735 X-53.532 Y0.467
N18740 X-53.352
N18745 X-46.334 Y0.647
N18750 X-46.154 Y0.652
N18755 X-45.974 Y0.659
N18760 X-45.794 Y0.667
N18765 X-14.481 Y2.059
N18770 X-14.301 Y2.067
N18775 X-14.121 Y2.077
N18780 X-13.941 Y2.088
N18785 X-13.761 Y2.101
N18790 X-13.581 Y2.109
N18795 X-13.402 Y2.114
N18800 X-13.222
N18805 X-13.042 Y2.112
N18810 X-12.862 Y2.11
N18815 X-12.682 Y2.102
N18820 X-12.502 Y2.089
N18825 X-12.322 Y2.075
N18830 X-12.142 Y2.059
N18835 X-11.962 Y2.039
N18840 X-11.782 Y2.013
N18845 X-11.602 Y1.979
N18850 X-11.422 Y1.944
N18855 X-11.062 Y1.874
N18860 X-10.882 Y1.838
N18865 X-10.702 Y1.801
N18870 X-10.522 Y1.758
N18875 X-10.342 Y1.708
N18880 X-10.162 Y1.648
N18885 X-9.982 Y1.584
N18890 X-9.845 Y1.535
N18895 X-9.434 Y1.412
N18900 X-9.384 Y1.393
N18905 X-9.331 Y1.374
N18910 X-9.278 Y1.354
N18915 X-9.222 Y1.334
N18920 X-9.166 Y1.315
N18925 X-9.107 Y1.295
N18930 X-9.047 Y1.275
N18935 X-8.986 Y1.255
N18940 X-8.922 Y1.235
N18945 X-8.857 Y1.215
N18950 X-8.79 Y1.195
N18955 X-8.72 Y1.175
N18960 X-8.649 Y1.154
N18965 X-8.575 Y1.134
N18970 X-8.499 Y1.114
N18975 X-8.42 Y1.093
N18980 X-8.338 Y1.073
N18985 X-8.254 Y1.052
N18990 X-8.167 Y1.031
N18995 X-8.076 Y1.011
N19000 X-7.982 Y0.99
N19005 X-7.885 Y0.969
N19010 X-7.783 Y0.948
N19015 X-7.678 Y0.927
N19020 X-7.568 Y0.906
N19025 X-7.453 Y0.885
N19030 X-7.333 Y0.864
N19035 X-7.207 Y0.843
N19040 X-7.075 Y0.822
N19045 X-6.936 Y0.801
N19050 X-6.789 Y0.78
N19055 X-6.634 Y0.759
N19060 X-6.471 Y0.737
N19065 X-6.296 Y0.716
N19070 X-6.111 Y0.695
N19075 X-5.912 Y0.673
N19080 X-5.698 Y0.652
N19085 X-5.466 Y0.63
N19090 X-5.214 Y0.609
N19095 X-4.938 Y0.587
N19100 X-4.633 Y0.565
N19105 X-4.291 Y0.544
N19110 X-3.904 Y0.522
N19115 X-3.475 Y0.501
N19120 X-3.046 Y0.484
N19125 X-2.831 Y0.476
N19130 X-2.621 Y0.436
N19135 X-2.216 Y0.291
N19140 X-1.865 Y0.044
N19145 X-1.558 Y-0.257
N19150 X-1.29 Y-0.593
N19155 X-1.058 Y-0.954
N19160 X-0.857 Y-1.334
N19165 X-0.684 Y-1.727
N19170 X-0.567 Y-2.041
N19175 X-0.451 Y-2.279
N19180 X-0.293 Y-2.492
N19185 X-0.097 Y-2.671
N19190 X0.129 Y-2.81
N19195 X0.275 Y-2.881
N19200 X0.455 Y-2.973
N19205 X0.635 Y-3.067
N19210 X0.815 Y-3.171
N19215 X0.995 Y-3.294
N19220 X1.175 Y-3.425
N19225 X1.264 Y-3.503
N19230 X1.461 Y-3.683
N19235 X1.535 Y-3.763
N19240 X1.715 Y-3.972
N19245 X1.769 Y-4.043
N19250 X1.895 Y-4.225
N19255 X2.007 Y-4.403
N19260 X2.075 Y-4.529
N19265 X2.102 Y-4.583
N19270 X2.182 Y-4.763
N19275 X2.255 Y-4.943
N19280 X2.316 Y-5.123
N19285 X2.362 Y-5.303
N19290 X2.401 Y-5.483
N19295 X2.431 Y-5.663
N19300 X2.435 Y-5.688
N19305 X2.448 Y-5.843
N19310 X2.459 Y-6.022
N19315 X2.46 Y-6.202
N19320 X2.45 Y-6.382
N19325 X2.438 Y-6.562
N19330 X2.408 Y-6.922
N19335 X2.392 Y-7.102
N19340 X2.36 Y-7.462
N19345 X2.328 Y-7.822
N19350 X2.294 Y-8.182
N19355 X2.259 Y-8.542
N19360 X2.24 Y-8.722
N19365 X2.222 Y-8.902
N19370 X2.203 Y-9.082
N19375 X2.164 Y-9.442
N19380 X2.143 Y-9.622
N19385 X2.12 Y-9.801
N19390 X2.092 Y-9.981
N19395 X2.075 Y-10.088
N19400 X2.03 Y-10.341
N19405 X1.996 Y-10.521
N19410 X1.962 Y-10.701
N19415 X1.927 Y-10.881
N19420 X1.895 Y-11.039
N19425 X1.852 Y-11.241
N19430 X1.811 Y-11.421
N19435 X1.769 Y-11.601
N19440 X1.723 Y-11.781
N19445 X1.715 Y-11.813
N19450 X1.676 Y-11.961
N19455 X1.623 Y-12.141
N19460 X1.563 Y-12.321
N19465 X1.535 Y-12.398
N19470 X1.411 Y-12.809
N19475 X1.392 Y-12.86
N19480 X1.372 Y-12.912
N19485 X1.353 Y-12.966
N19490 X1.333 Y-13.021
N19495 X1.313 Y-13.078
N19500 X1.293 Y-13.136
N19505 X1.274 Y-13.196
N19510 X1.254 Y-13.258
N19515 X1.234 Y-13.322
N19520 X1.213 Y-13.387
N19525 X1.193 Y-13.455
N19530 X1.173 Y-13.524
N19535 X1.153 Y-13.596
N19540 X1.133 Y-13.67
N19545 X1.112 Y-13.746
N19550 X1.092 Y-13.825
N19555 X1.071 Y-13.907
N19560 X1.051 Y-13.991
N19565 X1.03 Y-14.079
N19570 X1.009 Y-14.17
N19575 X0.989 Y-14.264
N19580 X0.968 Y-14.362
N19585 X0.947 Y-14.463
N19590 X0.926 Y-14.569
N19595 X0.905 Y-14.68
N19600 X0.884 Y-14.795
N19605 X0.863 Y-14.916
N19610 X0.842 Y-15.042
N19615 X0.821 Y-15.174
N19620 X0.8 Y-15.314
N19625 X0.778 Y-15.461
N19630 X0.757 Y-15.616
N19635 X0.736 Y-15.781
N19640 X0.714 Y-15.955
N19645 X0.693 Y-16.142
N19650 X0.672 Y-16.342
N19655 X0.65 Y-16.557
N19660 X0.629 Y-16.79
N19665 X0.607 Y-17.043
N19670 X0.586 Y-17.321
N19675 X0.564 Y-17.629
N19680 X0.542 Y-17.973
N19685 X0.521 Y-18.363
N19690 X0.5 Y-18.792
N19695 X0.482 Y-19.222
N19700 X0.467 Y-19.651
N19705 X0.454 Y-20.08
N19710 X0.443 Y-20.51
N19715 X0.434 Y-20.939
N19720 X0.426 Y-21.368
N19725 X0.419 Y-21.798
N19730 X0.413 Y-22.227
N19735 X0.408 Y-22.657
N19740 X0.404 Y-23.086
N19745 X0.4 Y-23.516
N19750 X0.397 Y-23.945
N19755 X0.394 Y-24.375
N19760 X0.392 Y-24.804
N19765 X0.39 Y-25.234
N19770 X0.388 Y-25.663
N19775 X0.387 Y-26.093
N19780 X0.384 Y-26.952
N19785 X0.383 Y-27.811
N19790 X0.381 Y-29.1
N19795 X0.38 Y-30.388
N19800 X0.379 Y-32.536
N19805 X0.378 Y-35.972
N19810 Y-37.261
N19815 X0.343 Y-37.472
N19820 X0.208 Y-37.88
N19825 X-0.033 Y-38.236
N19830 X-0.328 Y-38.548
N19835 X-0.661 Y-38.819
N19840 X-1.02 Y-39.055
N19845 X-1.398 Y-39.259
N19850 X-1.79 Y-39.436
N19855 X-2.191 Y-39.588
N19860 X-2.6 Y-39.719
