%
(1)
(T1  D=6. CR=0. - ZMIN=-10.499 - FLAT END MILL)
N10 G90 G94 G17 G91.1
N15 G21
N20 G53 G0 Z0.
(ADAPTIVE1)
N25 M9
N30 T1 M6
N35 S2500 M3
N40 G54
N45 M8
N55 G0 X0.411 Y45.594
N60 G43 Z15. H1
N65 G0 Z5.
N70 Z-0.8
N75 G1 Z-1.4 F100.
N80 X0.41 Y45.587 Z-1.494
N85 X0.404 Y45.566 Z-1.585
N90 X0.395 Y45.531 Z-1.672
N95 X0.383 Y45.483 Z-1.753
N100 X0.368 Y45.424 Z-1.824
N105 X0.35 Y45.355 Z-1.885
N110 X0.33 Y45.277 Z-1.935
N115 X0.308 Y45.193 Z-1.971
N120 X0.286 Y45.104 Z-1.993
N125 X0.262 Y45.013 Z-2.
N130 G3 X-0.006 Y43.147 I8.476 J-2.171
N135 G1 Y43.128
N140 X0.049 Y42.702
N145 X0.096 Y42.275
N150 X0.137 Y41.848
N155 X0.171 Y41.42
N160 X0.201 Y40.991
N165 X0.227 Y40.562
N170 X0.248 Y40.133
N175 X0.267 Y39.704
N180 X0.283 Y39.275
N185 X0.297 Y38.846
N190 X0.309 Y38.416
N195 X0.319 Y37.987
N200 X0.327 Y37.557
N205 X0.335 Y37.128
N210 X0.341 Y36.698
N215 X0.346 Y36.269
N220 X0.351 Y35.839
N225 X0.355 Y35.41
N230 X0.358 Y34.98
N235 X0.361 Y34.551
N240 X0.363 Y34.121
N245 X0.366 Y33.692
N250 X0.367 Y33.262
N255 X0.369 Y32.833
N260 X0.371 Y31.974
N265 X0.373 Y31.115
N270 X0.375 Y29.826
N275 X0.376 Y28.538
N280 X0.377 Y26.39
N285 X0.378 Y22.954
N290 Y12.645
N295 Y2.766
N300 X0.262 Y2.353
N305 X0.04 Y1.985
N310 X-0.244 Y1.663
N315 X-0.569 Y1.382
N320 X-0.922 Y1.137
N325 X-1.296 Y0.926
N330 X-1.685 Y0.743
N335 X-2.084 Y0.585
N340 X-2.492 Y0.449
N345 X-2.905 Y0.331
N350 X-3.322 Y0.231
N355 X-3.743 Y0.144
N360 X-4.166 Y0.069
N365 X-4.591 Y0.005
N370 X-5.017 Y-0.05
N375 X-5.444 Y-0.097
N380 X-5.871 Y-0.137
N385 X-6.299 Y-0.172
N390 X-6.427 Y-0.181
N395 X-6.586 Y-0.201
N400 X-6.743 Y-0.239
N405 X-6.894 Y-0.296
N410 X-8.895 Y-1.176
N415 X-9.083 Y-1.257
N420 X-9.263 Y-1.328
N425 X-9.339 Y-1.355
N430 X-9.845 Y-1.535
N435 X-9.982 Y-1.584
N440 X-10.162 Y-1.648
N445 X-10.342 Y-1.708
N450 X-10.522 Y-1.758
N455 X-10.702 Y-1.801
N460 X-10.882 Y-1.838
N465 X-11.172 Y-1.895
N470 X-11.422 Y-1.944
N475 X-11.602 Y-1.979
N480 X-11.782 Y-2.013
N485 X-11.962 Y-2.039
N490 X-12.142 Y-2.059
N495 X-12.33 Y-2.075
N500 X-12.502 Y-2.089
N505 X-12.682 Y-2.104
N510 X-12.862 Y-2.111
N515 X-13.042 Y-2.113
N520 X-13.222 Y-2.114
N525 X-13.402
N530 X-13.581 Y-2.109
N535 X-13.761 Y-2.101
N540 X-13.941 Y-2.088
N545 X-14.121 Y-2.077
N550 X-14.301 Y-2.067
N555 X-14.481 Y-2.059
N560 X-45.794 Y-0.667
N565 X-45.974 Y-0.659
N570 X-46.154 Y-0.652
N575 X-46.334 Y-0.647
N580 X-53.352 Y-0.467
N585 X-53.532
N590 X-53.712 Y-0.468
N595 X-60.37 Y-0.549
N600 X-60.55 Y-0.551
N605 X-60.73 Y-0.556
N610 X-60.91 Y-0.562
N615 X-67.568 Y-0.894
N620 X-67.748 Y-0.904
N625 X-67.928 Y-0.913
N630 X-68.108 Y-0.925
N635 X-75.127 Y-1.541
N640 X-75.307 Y-1.561
N645 X-75.486 Y-1.582
N650 X-75.666 Y-1.604
N655 X-82.325 Y-2.443
N660 X-82.505 Y-2.464
N665 X-82.685 Y-2.485
N670 X-82.865 Y-2.495
N675 X-83.045 Y-2.5
N680 X-83.225
N685 X-120.836
N690 X-121.015 Y-2.498
N695 X-121.195 Y-2.493
N700 X-121.375 Y-2.477
N705 X-121.555 Y-2.454
N710 X-121.735 Y-2.419
N715 X-121.915 Y-2.375
N720 X-122.095 Y-2.324
N725 X-122.275 Y-2.259
N730 X-122.285 Y-2.255
N735 X-122.455 Y-2.179
N740 X-122.635 Y-2.094
N745 X-122.67 Y-2.075
N750 X-122.815 Y-1.993
N755 X-122.96 Y-1.895
N760 X-123.175 Y-1.741
N765 X-123.208 Y-1.715
N770 X-123.355 Y-1.588
N775 X-123.411 Y-1.535
N780 X-123.535 Y-1.413
N785 X-123.588 Y-1.355
N790 X-123.715 Y-1.208
N795 X-123.741 Y-1.176
N800 X-123.895 Y-0.961
N805 X-123.992 Y-0.816
N810 X-124.075 Y-0.672
N815 X-124.094 Y-0.636
N820 X-124.179 Y-0.456
N825 X-124.255 Y-0.287
N830 X-124.259 Y-0.276
N835 X-124.324 Y-0.096
N840 X-124.374 Y0.084
N845 X-124.419 Y0.264
N850 X-124.454 Y0.444
N855 X-124.476 Y0.624
N860 X-124.494 Y0.804
N865 X-124.499 Y0.984
N870 X-124.5 Y1.164
N875 Y38.953
N880 X-124.495 Y39.133
N885 X-124.485 Y39.313
N890 X-124.462 Y39.493
N895 X-124.435 Y39.662
N900 X-124.392 Y39.853
N905 X-124.34 Y40.033
N910 X-124.282 Y40.213
N915 X-124.208 Y40.393
N920 X-124.122 Y40.573
N925 X-124.075 Y40.666
N930 X-124.029 Y40.753
N935 X-123.915 Y40.933
N940 X-123.895 Y40.964
N945 X-123.788 Y41.113
N950 X-123.715 Y41.208
N955 X-123.643 Y41.293
N960 X-123.475 Y41.473
N965 X-123.355 Y41.587
N970 X-123.175 Y41.742
N975 X-123.055 Y41.833
N980 X-122.995 Y41.874
N985 X-122.815 Y41.988
N990 X-122.635 Y42.093
N995 X-122.455 Y42.18
N1000 X-122.427 Y42.193
N1005 X-122.275 Y42.256
N1010 X-122.095 Y42.323
N1015 X-121.931 Y42.373
N1020 X-121.915 Y42.377
N1025 X-121.735 Y42.419
N1030 X-121.555 Y42.454
N1035 X-121.375 Y42.477
N1040 X-121.195 Y42.495
N1045 X-121.015 Y42.499
N1050 X-120.836 Y42.5
N1055 X-84.304
N1060 X-84.124
N1065 X-83.944 Y42.499
N1070 X-83.764 Y42.489
N1075 X-83.585 Y42.473
N1080 X-83.405 Y42.447
N1085 X-83.225 Y42.41
N1090 X-83.069 Y42.373
N1095 X-82.865 Y42.308
N1100 X-82.685 Y42.239
N1105 X-82.57 Y42.193
N1110 X-82.505 Y42.164
N1115 X-82.325 Y42.072
N1120 X-82.223 Y42.013
N1125 X-82.061 Y41.92
N1130 X-81.672 Y41.738
N1135 X-81.27 Y41.585
N1140 X-80.861 Y41.456
N1145 X-80.445 Y41.348
N1150 X-80.026 Y41.255
N1155 X-79.603 Y41.177
N1160 X-79.179 Y41.111
N1165 X-78.753 Y41.055
N1170 X-78.326 Y41.007
N1175 X-77.899 Y40.966
N1180 X-77.47 Y40.932
N1185 X-77.042 Y40.902
N1190 X-76.613 Y40.877
N1195 X-76.184 Y40.856
N1200 X-75.755 Y40.837
N1205 X-75.326 Y40.822
N1210 X-74.897 Y40.808
N1215 X-74.467 Y40.797
N1220 X-74.038 Y40.787
N1225 X-73.608 Y40.779
N1230 X-73.179 Y40.772
N1235 X-72.749 Y40.766
N1240 X-72.32 Y40.761
N1245 X-71.89 Y40.757
N1250 X-71.461 Y40.753
N1255 X-71.031 Y40.75
N1260 X-70.602 Y40.747
N1265 X-70.172 Y40.745
N1270 X-69.743 Y40.743
N1275 X-69.313 Y40.741
N1280 X-68.884 Y40.74
N1285 X-68.025 Y40.737
N1290 X-67.166 Y40.736
N1295 X-65.877 Y40.734
N1300 X-64.588 Y40.733
N1305 X-62.441 Y40.732
N1310 X-59.005 Y40.731
N1315 X-46.978
N1320 X-32.374
N1325 X-5.529
N1330 X-5.104 Y40.665
N1335 X-4.716 Y40.481
N1340 X-4.368 Y40.229
N1345 X-4.06 Y39.93
N1350 X-3.789 Y39.597
N1355 X-3.551 Y39.239
N1360 X-3.343 Y38.863
N1365 X-3.163 Y38.474
N1370 X-3.006 Y38.074
N1375 X-2.869 Y37.667
N1380 X-2.752 Y37.253
N1385 X-2.65 Y36.836
N1390 X-2.562 Y36.416
N1395 X-2.486 Y35.993
N1400 X-2.421 Y35.568
N1405 X-2.364 Y35.143
N1410 X-2.316 Y34.716
N1415 X-2.274 Y34.288
N1420 X-2.238 Y33.86
N1425 X-2.208 Y33.432
N1430 X-2.181 Y33.003
N1435 X-2.159 Y32.574
N1440 X-2.139 Y32.145
N1445 X-2.122 Y31.716
N1450 X-2.108 Y31.287
N1455 X-2.096 Y30.857
N1460 X-2.085 Y30.428
N1465 X-2.076 Y29.999
N1470 X-2.068 Y29.569
N1475 X-2.062 Y29.14
N1480 X-2.056 Y28.71
N1485 X-2.051 Y28.281
N1490 X-2.047 Y27.851
N1495 X-2.043 Y27.422
N1500 X-2.04 Y26.992
N1505 X-2.038 Y26.563
N1510 X-2.035 Y26.133
N1515 X-2.033 Y25.704
N1520 X-2.032 Y25.274
N1525 X-2.03 Y24.844
N1530 X-2.028 Y23.985
N1535 X-2.026 Y23.126
N1540 X-2.025 Y21.838
N1545 X-2.024 Y20.549
N1550 X-2.023 Y18.831
N1555 X-2.022 Y15.824
N1560 Y8.093
N1565 Y6.766
N1570 X-2.013 Y6.608
N1575 X-1.986 Y6.453
N1580 X-1.942 Y6.301
N1585 X-1.845 Y6.022
N1590 X-1.782 Y5.843
N1595 X-1.72 Y5.663
N1600 X-1.659 Y5.483
N1605 X-1.608 Y5.303
N1610 X-1.567 Y5.123
N1615 X-1.539 Y4.943
N1620 X-1.524 Y4.817
N1625 X-1.521 Y4.763
N1630 X-1.511 Y4.583
N1635 X-1.514 Y4.403
N1640 X-1.524 Y4.255
N1645 X-1.528 Y4.223
N1650 X-1.549 Y4.043
N1655 X-1.585 Y3.863
N1660 X-1.627 Y3.683
N1665 X-1.684 Y3.503
N1670 X-1.755 Y3.323
N1675 X-1.836 Y3.143
N1680 X-1.884 Y3.045
N1685 X-1.928 Y2.963
N1690 X-2.064 Y2.747
N1695 X-2.162 Y2.603
N1700 X-2.244 Y2.498
N1705 X-2.304 Y2.423
N1710 X-2.424 Y2.288
N1715 X-2.464 Y2.244
N1720 X-2.604 Y2.104
N1725 X-2.647 Y2.064
N1730 X-2.784 Y1.939
N1735 X-2.849 Y1.884
N1740 X-2.964 Y1.789
N1745 X-3.074 Y1.704
N1750 X-3.144 Y1.652
N1755 X-3.319 Y1.524
N1760 X-3.324 Y1.52
N1765 X-3.589 Y1.344
N1770 X-3.684 Y1.282
N1775 X-3.864 Y1.172
N1780 X-3.877 Y1.164
N1785 X-4.044 Y1.066
N1790 X-4.224 Y0.963
N1795 X-4.404 Y0.864
N1800 X-4.515 Y0.804
N1805 X-4.584 Y0.767
N1810 X-4.862 Y0.624
N1815 X-4.944 Y0.584
N1820 X-5.124 Y0.496
N1825 X-5.231 Y0.444
N1830 X-5.483 Y0.327
N1835 X-5.622 Y0.264
N1840 X-5.843 Y0.166
N1845 X-6.894 Y-0.296
N1850 G3 X-6.373 Y-1.377 I0.26 J-0.541
N1855 G1 X-6.288 Y-1.336 Z-1.993
N1860 X-6.206 Y-1.296 Z-1.971
N1865 X-6.127 Y-1.258 Z-1.935
N1870 X-6.055 Y-1.223 Z-1.885
N1875 X-5.99 Y-1.192 Z-1.824
N1880 X-5.935 Y-1.166 Z-1.753
N1885 X-5.891 Y-1.144 Z-1.672
N1890 X-5.859 Y-1.129 Z-1.585
N1895 X-5.839 Y-1.119 Z-1.494
N1900 X-5.832 Y-1.116 Z-1.4
N1905 G0 Z5.
N1910 X-84.061 Y43.681
N1915 Z-0.8
N1920 G1 Z-1.4 F100.
N1925 X-84.056 Y43.675 Z-1.494
N1930 X-84.041 Y43.659 Z-1.585
N1935 X-84.017 Y43.633 Z-1.672
N1940 X-83.983 Y43.597 Z-1.753
N1945 X-83.941 Y43.552 Z-1.824
N1950 X-83.893 Y43.5 Z-1.885
N1955 X-83.838 Y43.441 Z-1.935
N1960 X-83.778 Y43.378 Z-1.971
N1965 X-83.716 Y43.311 Z-1.993
N1970 X-83.652 Y43.242 Z-2.
N1975 G3 X-82.223 Y42.013 I6.39 J5.977
N1980 G1 X-82.145 Y41.963
N1985 X-81.965 Y41.847
N1990 X-81.945 Y41.833
N1995 X-81.719 Y41.653
N2000 X-81.605 Y41.551
N2005 X-81.425 Y41.37
N2010 X-81.356 Y41.293
N2015 X-81.245 Y41.152
N2020 X-81.214 Y41.113
N2025 X-81.086 Y40.933
N2030 X-81.065 Y40.899
N2035 X-80.983 Y40.782
N2040 X-80.844 Y40.614
N2045 X-80.666 Y40.432
N2050 X-80.441 Y40.236
N2055 X-80.159 Y40.027
N2060 X-79.806 Y39.807
N2065 X-79.424 Y39.609
N2070 X-79.03 Y39.439
N2075 X-78.627 Y39.292
N2080 X-78.217 Y39.164
N2085 X-77.802 Y39.053
N2090 X-77.383 Y38.957
N2095 X-76.961 Y38.874
N2100 X-76.538 Y38.802
N2105 X-76.113 Y38.74
N2110 X-75.687 Y38.685
N2115 X-75.26 Y38.638
N2120 X-74.832 Y38.598
N2125 X-74.404 Y38.562
N2130 X-73.976 Y38.531
N2135 X-73.547 Y38.505
N2140 X-73.118 Y38.482
N2145 X-72.689 Y38.461
N2150 X-72.26 Y38.444
N2155 X-71.831 Y38.429
N2160 X-71.402 Y38.416
N2165 X-70.972 Y38.404
N2170 X-70.543 Y38.395
N2175 X-70.113 Y38.386
N2180 X-69.684 Y38.379
N2185 X-69.254 Y38.372
N2190 X-68.825 Y38.367
N2195 X-68.395 Y38.362
N2200 X-67.966 Y38.358
N2205 X-67.536 Y38.354
N2210 X-67.107 Y38.351
N2215 X-66.677 Y38.348
N2220 X-66.248 Y38.346
N2225 X-65.818 Y38.344
N2230 X-65.389 Y38.342
N2235 X-64.959 Y38.341
N2240 X-64.1 Y38.338
N2245 X-63.241 Y38.336
N2250 X-61.953 Y38.335
N2255 X-60.664 Y38.333
N2260 X-58.946 Y38.332
N2265 X-56.369
N2270 X-50.785 Y38.331
N2275 X-31.456
N2280 X-8.691
N2285 X-8.268 Y38.257
N2290 X-7.865 Y38.111
N2295 X-7.488 Y37.904
N2300 X-7.142 Y37.649
N2305 X-6.828 Y37.357
N2310 X-6.544 Y37.034
N2315 X-6.29 Y36.687
N2320 X-6.064 Y36.322
N2325 X-5.863 Y35.943
N2330 X-5.684 Y35.552
N2335 X-5.527 Y35.153
N2340 X-5.388 Y34.746
N2345 X-5.265 Y34.334
N2350 X-5.158 Y33.919
N2355 X-5.064 Y33.5
N2360 X-4.981 Y33.078
N2365 X-4.909 Y32.655
N2370 X-4.846 Y32.23
N2375 X-4.791 Y31.804
N2380 X-4.743 Y31.377
N2385 X-4.701 Y30.949
N2390 X-4.664 Y30.522
N2395 X-4.632 Y30.093
N2400 X-4.605 Y29.665
N2405 X-4.58 Y29.236
N2410 X-4.559 Y28.807
N2415 X-4.541 Y28.378
N2420 X-4.525 Y27.948
N2425 X-4.512 Y27.519
N2430 X-4.5 Y27.09
N2435 X-4.489 Y26.66
N2440 X-4.48 Y26.231
N2445 X-4.472 Y25.801
N2450 X-4.466 Y25.372
N2455 X-4.46 Y24.942
N2460 X-4.455 Y24.513
N2465 X-4.45 Y24.083
N2470 X-4.446 Y23.654
N2475 X-4.443 Y23.224
N2480 X-4.44 Y22.795
N2485 X-4.438 Y22.365
N2490 X-4.436 Y21.936
N2495 X-4.434 Y21.506
N2500 X-4.432 Y21.077
N2505 X-4.43 Y20.218
N2510 X-4.428 Y19.359
N2515 X-4.426 Y18.5
N2520 X-4.425 Y17.211
N2525 X-4.423 Y15.493
N2530 X-4.422 Y12.916
N2535 Y12.486
N2540 Y12.057
N2545 X-4.407 Y11.883
N2550 X-4.362 Y11.714
N2555 X-4.288 Y11.556
N2560 X-4.224 Y11.444
N2565 X-4.118 Y11.241
N2570 X-3.746 Y10.521
N2575 X-3.656 Y10.341
N2580 X-3.566 Y10.161
N2585 X-2.95 Y8.902
N2590 X-2.863 Y8.722
N2595 X-2.785 Y8.542
N2600 X-2.715 Y8.362
N2605 X-2.646 Y8.182
N2610 X-2.103 Y6.742
N2615 X-2.064 Y6.637
N2620 X-1.971 Y6.382
N2625 X-1.942 Y6.301
N2630 G3 X-0.825 Y6.739 I0.559 J0.219
N2635 G1 X-0.859 Y6.826 Z-1.993
N2640 X-0.893 Y6.911 Z-1.971
N2645 X-0.925 Y6.992 Z-1.935
N2650 X-0.954 Y7.067 Z-1.885
N2655 X-0.98 Y7.134 Z-1.824
N2660 X-1.002 Y7.191 Z-1.753
N2665 X-1.02 Y7.237 Z-1.672
N2670 X-1.033 Y7.27 Z-1.585
N2675 X-1.041 Y7.291 Z-1.494
N2680 X-1.044 Y7.297 Z-1.4
N2685 G0 Z5.
N2690 X-82.016 Y43.192
N2695 Z-0.8
N2700 G1 Z-1.4 F100.
N2705 X-82.014 Y43.185 Z-1.494
N2710 X-82.007 Y43.164 Z-1.585
N2715 X-81.996 Y43.13 Z-1.672
N2720 X-81.981 Y43.083 Z-1.753
N2725 X-81.962 Y43.025 Z-1.824
N2730 X-81.94 Y42.957 Z-1.885
N2735 X-81.916 Y42.88 Z-1.935
N2740 X-81.889 Y42.798 Z-1.971
N2745 X-81.861 Y42.71 Z-1.993
N2750 X-81.832 Y42.621 Z-2.
N2755 G3 X-81.065 Y40.899 I8.33 J2.678
N2760 G1 X-80.973 Y40.753
N2765 X-80.885 Y40.594
N2770 X-80.874 Y40.573
N2775 X-80.792 Y40.393
N2780 X-80.705 Y40.178
N2785 X-80.66 Y40.033
N2790 X-80.606 Y39.853
N2795 X-80.584 Y39.754
N2800 X-80.546 Y39.612
N2805 X-80.492 Y39.461
N2810 X-80.414 Y39.289
N2815 X-80.312 Y39.105
N2820 X-80.18 Y38.906
N2825 X-80.011 Y38.691
N2830 X-79.801 Y38.464
N2835 X-79.542 Y38.225
N2840 X-79.221 Y37.974
N2845 X-78.863 Y37.738
N2850 X-78.488 Y37.528
N2855 X-78.101 Y37.342
N2860 X-77.704 Y37.177
N2865 X-77.3 Y37.031
N2870 X-76.891 Y36.902
N2875 X-76.477 Y36.787
N2880 X-76.059 Y36.686
N2885 X-75.639 Y36.597
N2890 X-75.217 Y36.518
N2895 X-74.793 Y36.448
N2900 X-74.368 Y36.386
N2905 X-73.942 Y36.332
N2910 X-73.515 Y36.284
N2915 X-73.088 Y36.241
N2920 X-72.66 Y36.204
N2925 X-72.231 Y36.171
N2930 X-71.803 Y36.142
N2935 X-71.374 Y36.116
N2940 X-70.945 Y36.094
N2945 X-70.516 Y36.074
N2950 X-70.087 Y36.056
N2955 X-69.658 Y36.041
N2960 X-69.228 Y36.027
N2965 X-68.799 Y36.015
N2970 X-68.37 Y36.005
N2975 X-67.94 Y35.996
N2980 X-67.511 Y35.988
N2985 X-67.081 Y35.981
N2990 X-66.652 Y35.975
N2995 X-66.222 Y35.969
N3000 X-65.793 Y35.964
N3005 X-65.363 Y35.96
N3010 X-64.934 Y35.957
N3015 X-64.504 Y35.953
N3020 X-64.075 Y35.951
N3025 X-63.645 Y35.948
N3030 X-63.216 Y35.946
N3035 X-62.786 Y35.944
N3040 X-62.357 Y35.942
N3045 X-61.498 Y35.94
N3050 X-60.639 Y35.938
N3055 X-59.78 Y35.936
N3060 X-58.491 Y35.934
N3065 X-56.773 Y35.933
N3070 X-54.625 Y35.932
N3075 X-51.189 Y35.931
N3080 X-42.169
N3085 X-31.431
N3090 X-11.673
N3095 X-11.245 Y35.889
N3100 X-10.829 Y35.784
N3105 X-10.432 Y35.62
N3110 X-10.06 Y35.405
N3115 X-9.716 Y35.148
N3120 X-9.4 Y34.856
N3125 X-9.114 Y34.537
N3130 X-8.855 Y34.194
N3135 X-8.622 Y33.833
N3140 X-8.413 Y33.458
N3145 X-8.227 Y33.071
N3150 X-8.06 Y32.675
N3155 X-7.913 Y32.271
N3160 X-7.782 Y31.862
N3165 X-7.666 Y31.449
N3170 X-7.563 Y31.032
N3175 X-7.473 Y30.612
N3180 X-7.393 Y30.19
N3185 X-7.323 Y29.766
N3190 X-7.261 Y29.341
N3195 X-7.206 Y28.915
N3200 X-7.159 Y28.488
N3205 X-7.117 Y28.06
N3210 X-7.08 Y27.633
N3215 X-7.047 Y27.204
N3220 X-7.019 Y26.776
N3225 X-6.994 Y26.347
N3230 X-6.972 Y25.918
N3235 X-6.953 Y25.489
N3240 X-6.937 Y25.06
N3245 X-6.922 Y24.63
N3250 X-6.909 Y24.201
N3255 X-6.898 Y23.772
N3260 X-6.888 Y23.342
N3265 X-6.88 Y22.913
N3270 X-6.872 Y22.483
N3275 X-6.866 Y22.054
N3280 X-6.86 Y21.624
N3285 X-6.855 Y21.195
N3290 X-6.851 Y20.765
N3295 X-6.847 Y20.336
N3300 X-6.844 Y19.906
N3305 X-6.841 Y19.477
N3310 X-6.839 Y19.047
N3315 X-6.836 Y18.618
N3320 X-6.835 Y18.188
N3325 X-6.833 Y17.759
N3330 X-6.83 Y16.9
N3335 X-6.828 Y16.041
N3340 Y15.796
N3345 X-6.797 Y15.507
N3350 X-6.708 Y15.231
N3355 X-6.563 Y14.979
N3360 X-6.073 Y14.3
N3365 X-5.816 Y13.94
N3370 X-5.43 Y13.4
N3375 X-5.303 Y13.22
N3380 X-5.181 Y13.041
N3385 X-5.124 Y12.948
N3390 X-4.421 Y11.781
N3395 G3 X-3.407 Y12.423 I0.503 J0.327
N3400 X-3.415 Y12.435 I-0.511 J-0.315
N3405 G1 X-3.466 Y12.514 Z-1.993
N3410 X-3.516 Y12.591 Z-1.971
N3415 X-3.563 Y12.664 Z-1.935
N3420 X-3.607 Y12.731 Z-1.885
N3425 X-3.646 Y12.791 Z-1.824
N3430 X-3.679 Y12.842 Z-1.753
N3435 X-3.706 Y12.883 Z-1.672
N3440 X-3.726 Y12.914 Z-1.585
N3445 X-3.738 Y12.932 Z-1.494
N3450 X-3.742 Y12.938 Z-1.4
N3455 G0 Z5.
N3460 X-80.697 Y42.234
N3465 Z-0.8
N3470 G1 Z-1.4 F100.
N3475 Y42.227 Z-1.494
N3480 X-80.698 Y42.205 Z-1.585
N3485 X-80.699 Y42.169 Z-1.672
N3490 X-80.701 Y42.119 Z-1.753
N3495 X-80.704 Y42.058 Z-1.824
N3500 X-80.706 Y41.987 Z-1.885
N3505 X-80.709 Y41.907 Z-1.935
N3510 X-80.712 Y41.82 Z-1.971
N3515 X-80.716 Y41.728 Z-1.993
N3520 X-80.719 Y41.634 Z-2.
N3525 G3 X-80.584 Y39.754 I8.744 J-0.319
N3530 G1 X-80.567 Y39.673
N3535 X-80.538 Y39.493
N3540 X-80.525 Y39.399
N3545 X-80.515 Y39.313
N3550 X-80.505 Y39.133
N3555 X-80.5 Y38.953
N3560 Y38.774
N3565 Y38.495
N3570 X-80.493 Y38.352
N3575 X-80.471 Y38.188
N3580 X-80.435 Y38.017
N3585 X-80.376 Y37.821
N3590 X-80.297 Y37.618
N3595 X-80.188 Y37.393
N3600 X-80.047 Y37.154
N3605 X-79.871 Y36.904
N3610 X-79.65 Y36.637
N3615 X-79.378 Y36.358
N3620 X-79.054 Y36.076
N3625 X-78.709 Y35.819
N3630 X-78.348 Y35.587
N3635 X-77.973 Y35.377
N3640 X-77.588 Y35.187
N3645 X-77.194 Y35.016
N3650 X-76.793 Y34.862
N3655 X-76.387 Y34.723
N3660 X-75.976 Y34.598
N3665 X-75.561 Y34.485
N3670 X-75.144 Y34.384
N3675 X-74.724 Y34.293
N3680 X-74.302 Y34.211
N3685 X-73.879 Y34.138
N3690 X-73.455 Y34.072
N3695 X-73.029 Y34.014
N3700 X-72.603 Y33.961
N3705 X-72.176 Y33.914
N3710 X-71.748 Y33.872
N3715 X-71.321 Y33.834
N3720 X-70.892 Y33.8
N3725 X-70.464 Y33.77
N3730 X-70.035 Y33.744
N3735 X-69.606 Y33.72
N3740 X-69.177 Y33.699
N3745 X-68.748 Y33.68
N3750 X-68.319 Y33.663
N3755 X-67.89 Y33.648
N3760 X-67.46 Y33.634
N3765 X-67.031 Y33.623
N3770 X-66.602 Y33.612
N3775 X-66.172 Y33.603
N3780 X-65.743 Y33.594
N3785 X-65.313 Y33.587
N3790 X-64.884 Y33.58
N3795 X-64.454 Y33.575
N3800 X-64.025 Y33.57
N3805 X-63.595 Y33.565
N3810 X-63.166 Y33.561
N3815 X-62.736 Y33.558
N3820 X-62.307 Y33.554
N3825 X-61.877 Y33.552
N3830 X-61.448 Y33.549
N3835 X-61.018 Y33.547
N3840 X-60.589 Y33.545
N3845 X-59.73 Y33.542
N3850 X-58.871 Y33.539
N3855 X-58.012 Y33.538
N3860 X-56.723 Y33.535
N3865 X-55.435 Y33.534
N3870 X-53.716 Y33.533
N3875 X-51.139 Y33.532
N3880 X-46.844 Y33.531
N3885 X-32.24
N3890 X-14.63
N3895 X-14.2 Y33.524
N3900 X-13.774 Y33.468
N3905 X-13.36 Y33.354
N3910 X-12.964 Y33.187
N3915 X-12.593 Y32.972
N3920 X-12.247 Y32.717
N3925 X-11.929 Y32.428
N3930 X-11.638 Y32.112
N3935 X-11.375 Y31.773
N3940 X-11.136 Y31.416
N3945 X-10.922 Y31.044
N3950 X-10.729 Y30.66
N3955 X-10.557 Y30.266
N3960 X-10.403 Y29.865
N3965 X-10.266 Y29.458
N3970 X-10.144 Y29.046
N3975 X-10.035 Y28.631
N3980 X-9.939 Y28.212
N3985 X-9.854 Y27.791
N3990 X-9.779 Y27.368
N3995 X-9.712 Y26.944
N4000 X-9.653 Y26.518
N4005 X-9.601 Y26.092
N4010 X-9.556 Y25.665
N4015 X-9.515 Y25.237
N4020 X-9.48 Y24.809
N4025 X-9.448 Y24.381
N4030 X-9.421 Y23.952
N4035 X-9.396 Y23.523
N4040 X-9.375 Y23.094
N4045 X-9.356 Y22.665
N4050 X-9.34 Y22.236
N4055 X-9.325 Y21.807
N4060 X-9.312 Y21.377
N4065 X-9.301 Y20.948
N4070 X-9.291 Y20.519
N4075 X-9.283 Y20.089
N4080 X-9.275 Y19.66
N4085 X-9.269 Y19.23
N4090 X-9.263 Y18.801
N4095 X-9.261 Y18.622
N4100 X-9.233 Y18.361
N4105 X-9.157 Y18.109
N4110 X-9.035 Y17.877
N4115 X-8.872 Y17.671
N4120 X-8.723 Y17.514
N4125 X-8.575 Y17.359
N4130 X-8.405 Y17.179
N4135 X-7.898 Y16.64
N4140 X-7.823 Y16.56
N4145 X-7.735 Y16.46
N4150 X-7.643 Y16.352
N4155 X-7.103 Y15.702
N4160 X-6.99 Y15.56
N4165 X-6.854 Y15.38
N4170 X-6.743 Y15.229
N4175 X-6.563 Y14.979
N4180 G3 X-5.721 Y14.873 I0.474 J0.368
N4185 X-5.615 Y15.715 I-0.368 J0.474
N4190 G1 X-5.673 Y15.789 Z-1.993
N4195 X-5.729 Y15.861 Z-1.971
N4200 X-5.782 Y15.93 Z-1.935
N4205 X-5.831 Y15.993 Z-1.885
N4210 X-5.875 Y16.05 Z-1.824
N4215 X-5.913 Y16.098 Z-1.753
N4220 X-5.943 Y16.137 Z-1.672
N4225 X-5.965 Y16.165 Z-1.585
N4230 X-5.978 Y16.183 Z-1.494
N4235 X-5.983 Y16.189 Z-1.4
N4240 G0 Z5.
N4245 X-80.083 Y40.942
N4250 Z-0.8
N4255 G1 Z-1.4 F100.
N4260 X-80.085 Y40.934 Z-1.494
N4265 X-80.09 Y40.913 Z-1.585
N4270 X-80.099 Y40.878 Z-1.672
N4275 X-80.111 Y40.831 Z-1.753
N4280 X-80.126 Y40.771 Z-1.824
N4285 X-80.144 Y40.702 Z-1.885
N4290 X-80.164 Y40.624 Z-1.935
N4295 X-80.186 Y40.54 Z-1.971
N4300 X-80.208 Y40.451 Z-1.993
N4305 X-80.232 Y40.36 Z-2.
N4310 G3 X-80.5 Y38.495 I8.476 J-2.171
N4315 G1 Y36.794
N4320 X-80.488 Y36.554
N4325 X-80.463 Y36.365
N4330 X-80.421 Y36.169
N4335 X-80.354 Y35.945
N4340 X-80.263 Y35.711
N4345 X-80.14 Y35.458
N4350 X-79.979 Y35.185
N4355 X-79.778 Y34.898
N4360 X-79.529 Y34.599
N4365 X-79.229 Y34.291
N4370 X-78.906 Y34.008
N4375 X-78.564 Y33.748
N4380 X-78.207 Y33.51
N4385 X-77.837 Y33.292
N4390 X-77.457 Y33.092
N4395 X-77.068 Y32.91
N4400 X-76.672 Y32.743
N4405 X-76.27 Y32.591
N4410 X-75.864 Y32.453
N4415 X-75.453 Y32.326
N4420 X-75.039 Y32.212
N4425 X-74.623 Y32.107
N4430 X-74.204 Y32.012
N4435 X-73.783 Y31.926
N4440 X-73.36 Y31.848
N4445 X-72.937 Y31.777
N4450 X-72.512 Y31.713
N4455 X-72.087 Y31.654
N4460 X-71.66 Y31.602
N4465 X-71.233 Y31.554
N4470 X-70.806 Y31.511
N4475 X-70.378 Y31.472
N4480 X-69.95 Y31.437
N4485 X-69.522 Y31.406
N4490 X-69.093 Y31.377
N4495 X-68.665 Y31.351
N4500 X-68.236 Y31.328
N4505 X-67.807 Y31.308
N4510 X-67.377 Y31.289
N4515 X-66.948 Y31.272
N4520 X-66.519 Y31.257
N4525 X-66.09 Y31.244
N4530 X-65.66 Y31.231
N4535 X-65.231 Y31.221
N4540 X-64.802 Y31.211
N4545 X-64.372 Y31.202
N4550 X-63.943 Y31.194
N4555 X-63.513 Y31.187
N4560 X-63.084 Y31.181
N4565 X-62.654 Y31.176
N4570 X-62.225 Y31.171
N4575 X-61.795 Y31.166
N4580 X-61.366 Y31.162
N4585 X-60.936 Y31.159
N4590 X-60.507 Y31.156
N4595 X-60.077 Y31.153
N4600 X-59.648 Y31.151
N4605 X-59.218 Y31.148
N4610 X-58.789 Y31.146
N4615 X-57.93 Y31.143
N4620 X-57.071 Y31.14
N4625 X-56.211 Y31.138
N4630 X-54.923 Y31.136
N4635 X-53.634 Y31.135
N4640 X-51.916 Y31.133
N4645 X-49.769 Y31.132
N4650 X-46.332 Y31.131
N4655 X-38.601
N4660 X-32.588
N4665 X-17.125
N4670 X-16.695 Y31.117
N4675 X-16.27 Y31.055
N4680 X-15.857 Y30.939
N4685 X-15.461 Y30.772
N4690 X-15.088 Y30.559
N4695 X-14.741 Y30.306
N4700 X-14.42 Y30.02
N4705 X-14.127 Y29.707
N4710 X-13.859 Y29.371
N4715 X-13.617 Y29.016
N4720 X-13.398 Y28.646
N4725 X-13.201 Y28.265
N4730 X-13.024 Y27.873
N4735 X-12.866 Y27.474
N4740 X-12.725 Y27.068
N4745 X-12.598 Y26.658
N4750 X-12.486 Y26.243
N4755 X-12.386 Y25.825
N4760 X-12.298 Y25.405
N4765 X-12.219 Y24.983
N4770 X-12.149 Y24.559
N4775 X-12.087 Y24.134
N4780 X-12.032 Y23.708
N4785 X-11.984 Y23.281
N4790 X-11.941 Y22.854
N4795 X-11.903 Y22.426
N4800 X-11.87 Y21.998
N4805 X-11.84 Y21.569
N4810 X-11.814 Y21.141
N4815 X-11.802 Y20.942
N4820 X-11.755 Y20.66
N4825 X-11.651 Y20.392
N4830 X-11.495 Y20.151
N4835 X-11.293 Y19.948
N4840 X-11.209 Y19.879
N4845 X-11.062 Y19.757
N4850 X-10.702 Y19.456
N4855 X-10.562 Y19.339
N4860 X-10.522 Y19.303
N4865 X-10.342 Y19.137
N4870 X-9.982 Y18.797
N4875 X-9.794 Y18.619
N4880 X-9.622 Y18.454
N4885 X-9.608 Y18.439
N4890 X-9.435 Y18.259
N4895 X-8.872 Y17.671
N4900 G3 X-8.024 Y18.519 I0.419 J0.43
N4905 X-8.035 Y18.53 I-0.429 J-0.419
N4910 G1 X-8.102 Y18.595 Z-1.993
N4915 X-8.167 Y18.659 Z-1.971
N4920 X-8.23 Y18.72 Z-1.935
N4925 X-8.287 Y18.776 Z-1.885
N4930 X-8.339 Y18.826 Z-1.824
N4935 X-8.382 Y18.869 Z-1.753
N4940 X-8.418 Y18.903 Z-1.672
N4945 X-8.443 Y18.928 Z-1.585
N4950 X-8.459 Y18.944 Z-1.494
N4955 X-8.464 Y18.949 Z-1.4
N4960 G0 Z5.
N4965 X-79.662 Y39.118
N4970 Z-0.8
N4975 G1 Z-1.4 F100.
N4980 X-79.666 Y39.112 Z-1.494
N4985 X-79.677 Y39.093 Z-1.585
N4990 X-79.696 Y39.062 Z-1.672
N4995 X-79.721 Y39.02 Z-1.753
N5000 X-79.752 Y38.967 Z-1.824
N5005 X-79.789 Y38.906 Z-1.885
N5010 X-79.83 Y38.837 Z-1.935
N5015 X-79.874 Y38.762 Z-1.971
N5020 X-79.921 Y38.683 Z-1.993
N5025 X-79.969 Y38.603 Z-2.
N5030 G3 X-80.5 Y36.794 I3.265 J-1.941
N5035 G1 Y34.815
N5040 X-80.489 Y34.597
N5045 X-80.464 Y34.402
N5050 X-80.418 Y34.187
N5055 X-80.346 Y33.949
N5060 X-80.249 Y33.699
N5065 X-80.116 Y33.426
N5070 X-79.944 Y33.133
N5075 X-79.727 Y32.825
N5080 X-79.458 Y32.501
N5085 X-79.158 Y32.193
N5090 X-78.837 Y31.908
N5095 X-78.498 Y31.645
N5100 X-78.144 Y31.401
N5105 X-77.778 Y31.176
N5110 X-77.402 Y30.969
N5115 X-77.017 Y30.778
N5120 X-76.625 Y30.602
N5125 X-76.227 Y30.44
N5130 X-75.824 Y30.292
N5135 X-75.417 Y30.155
N5140 X-75.006 Y30.029
N5145 X-74.592 Y29.914
N5150 X-74.176 Y29.808
N5155 X-73.758 Y29.711
N5160 X-73.337 Y29.623
N5165 X-72.916 Y29.541
N5170 X-72.493 Y29.467
N5175 X-72.069 Y29.399
N5180 X-71.644 Y29.337
N5185 X-71.218 Y29.28
N5190 X-70.791 Y29.229
N5195 X-70.364 Y29.182
N5200 X-69.937 Y29.139
N5205 X-69.509 Y29.1
N5210 X-69.081 Y29.064
N5215 X-68.653 Y29.032
N5220 X-68.224 Y29.003
N5225 X-67.796 Y28.976
N5230 X-67.367 Y28.952
N5235 X-66.938 Y28.93
N5240 X-66.509 Y28.911
N5245 X-66.08 Y28.893
N5250 X-65.65 Y28.876
N5255 X-65.221 Y28.862
N5260 X-64.792 Y28.849
N5265 X-64.362 Y28.837
N5270 X-63.933 Y28.826
N5275 X-63.504 Y28.816
N5280 X-63.074 Y28.807
N5285 X-62.645 Y28.799
N5290 X-62.215 Y28.792
N5295 X-61.786 Y28.786
N5300 X-61.356 Y28.78
N5305 X-60.927 Y28.775
N5310 X-60.497 Y28.77
N5315 X-60.068 Y28.766
N5320 X-59.638 Y28.762
N5325 X-59.209 Y28.759
N5330 X-58.779 Y28.756
N5335 X-58.35 Y28.753
N5340 X-57.92 Y28.751
N5345 X-57.491 Y28.749
N5350 X-57.061 Y28.747
N5355 X-56.202 Y28.744
N5360 X-55.343 Y28.741
N5365 X-54.484 Y28.739
N5370 X-53.195 Y28.737
N5375 X-51.907 Y28.735
N5380 X-50.189 Y28.733
N5385 X-48.041 Y28.732
N5390 X-44.605
N5395 X-37.733 Y28.731
N5400 X-32.578
N5405 X-19.692
N5410 X-19.263 Y28.721
N5415 X-18.837 Y28.669
N5420 X-18.42 Y28.564
N5425 X-18.02 Y28.409
N5430 X-17.64 Y28.207
N5435 X-17.286 Y27.965
N5440 X-16.957 Y27.689
N5445 X-16.655 Y27.383
N5450 X-16.379 Y27.054
N5455 X-16.128 Y26.705
N5460 X-15.901 Y26.341
N5465 X-15.696 Y25.963
N5470 X-15.512 Y25.575
N5475 X-15.347 Y25.179
N5480 X-15.198 Y24.776
N5485 X-15.066 Y24.367
N5490 X-14.948 Y23.954
N5495 X-14.842 Y23.538
N5500 X-14.747 Y23.119
N5505 X-14.704 Y22.923
N5510 X-14.621 Y22.665
N5515 X-14.488 Y22.427
N5520 X-14.313 Y22.219
N5525 X-14.1 Y22.049
N5530 X-13.761 Y21.828
N5535 X-13.581 Y21.706
N5540 X-13.541 Y21.678
N5545 X-12.809 Y21.138
N5550 X-12.682 Y21.042
N5555 X-11.602 Y20.196
N5560 X-11.428 Y20.059
N5565 X-11.293 Y19.948
N5570 G3 X-10.552 Y20.892 I0.364 J0.477
N5575 X-10.564 Y20.901 I-0.376 J-0.468
N5580 G1 X-10.639 Y20.958 Z-1.993
N5585 X-10.711 Y21.014 Z-1.971
N5590 X-10.781 Y21.067 Z-1.935
N5595 X-10.844 Y21.115 Z-1.885
N5600 X-10.901 Y21.159 Z-1.824
N5605 X-10.95 Y21.196 Z-1.753
N5610 X-10.989 Y21.226 Z-1.672
N5615 X-11.018 Y21.248 Z-1.585
N5620 X-11.035 Y21.261 Z-1.494
N5625 X-11.041 Y21.266 Z-1.4
N5630 G0 Z5.
N5635 X-79.662 Y37.139
N5640 Z-0.8
N5645 G1 Z-1.4 F100.
N5650 X-79.666 Y37.133 Z-1.494
N5655 X-79.677 Y37.114 Z-1.585
N5660 X-79.696 Y37.083 Z-1.672
N5665 X-79.721 Y37.04 Z-1.753
N5670 X-79.752 Y36.988 Z-1.824
N5675 X-79.789 Y36.926 Z-1.885
N5680 X-79.83 Y36.857 Z-1.935
N5685 X-79.874 Y36.783 Z-1.971
N5690 X-79.921 Y36.704 Z-1.993
N5695 X-79.969 Y36.623 Z-2.
N5700 G3 X-80.5 Y34.815 I3.265 J-1.941
N5705 G1 Y32.835
N5710 X-80.486 Y32.548
N5715 X-80.459 Y32.348
N5720 X-80.411 Y32.123
N5725 X-80.337 Y31.877
N5730 X-80.236 Y31.615
N5735 X-80.097 Y31.33
N5740 X-79.917 Y31.024
N5745 X-79.689 Y30.699
N5750 X-79.415 Y30.368
N5755 X-79.115 Y30.06
N5760 X-78.796 Y29.773
N5765 X-78.459 Y29.507
N5770 X-78.108 Y29.259
N5775 X-77.745 Y29.029
N5780 X-77.372 Y28.816
N5785 X-76.991 Y28.619
N5790 X-76.602 Y28.436
N5795 X-76.208 Y28.266
N5800 X-75.808 Y28.11
N5805 X-75.403 Y27.965
N5810 X-74.995 Y27.831
N5815 X-74.584 Y27.707
N5820 X-74.17 Y27.593
N5825 X-73.753 Y27.487
N5830 X-73.335 Y27.39
N5835 X-72.915 Y27.3
N5840 X-72.494 Y27.217
N5845 X-72.071 Y27.141
N5850 X-71.647 Y27.071
N5855 X-71.222 Y27.007
N5860 X-70.797 Y26.948
N5865 X-70.371 Y26.893
N5870 X-69.944 Y26.843
N5875 X-69.517 Y26.798
N5880 X-69.09 Y26.756
N5885 X-68.662 Y26.717
N5890 X-68.234 Y26.682
N5895 X-67.805 Y26.65
N5900 X-67.377 Y26.621
N5905 X-66.948 Y26.594
N5910 X-66.519 Y26.57
N5915 X-66.091 Y26.547
N5920 X-65.661 Y26.527
N5925 X-65.232 Y26.508
N5930 X-64.803 Y26.492
N5935 X-64.374 Y26.476
N5940 X-63.945 Y26.462
N5945 X-63.515 Y26.45
N5950 X-63.086 Y26.438
N5955 X-62.656 Y26.428
N5960 X-62.227 Y26.418
N5965 X-61.798 Y26.41
N5970 X-61.368 Y26.402
N5975 X-60.939 Y26.395
N5980 X-60.509 Y26.389
N5985 X-60.08 Y26.383
N5990 X-59.65 Y26.378
N5995 X-59.221 Y26.373
N6000 X-58.791 Y26.369
N6005 X-58.362 Y26.365
N6010 X-57.932 Y26.361
N6015 X-57.503 Y26.358
N6020 X-57.073 Y26.355
N6025 X-56.644 Y26.353
N6030 X-56.214 Y26.351
N6035 X-55.785 Y26.349
N6040 X-54.926 Y26.345
N6045 X-54.067 Y26.342
N6050 X-53.207 Y26.34
N6055 X-51.919 Y26.338
N6060 X-50.63 Y26.336
N6065 X-48.912 Y26.334
N6070 X-46.765 Y26.333
N6075 X-43.758 Y26.332
N6080 X-38.604 Y26.331
N6085 X-37.748
N6090 X-37.654 Y26.334
N6095 X-37.562 Y26.344
N6100 X-37.47 Y26.359
N6105 X-36.976 Y26.459
N6110 X-36.616 Y26.53
N6115 X-35.356 Y26.777
N6120 X-35.176 Y26.812
N6125 X-34.996 Y26.842
N6130 X-34.816 Y26.866
N6135 X-34.636 Y26.882
N6140 X-33.197 Y26.997
N6145 X-33.017 Y27.009
N6150 X-32.837 Y27.02
N6155 X-31.397 Y27.093
N6160 X-31.217 Y27.101
N6165 X-31.037 Y27.103
N6170 X-30.857 Y27.104
N6175 X-30.317 Y27.101
N6180 X-30.137 Y27.098
N6185 X-29.958 Y27.092
N6190 X-29.418 Y27.058
N6195 X-29.238 Y27.047
N6200 X-29.058 Y27.035
N6205 X-28.878 Y27.018
N6210 X-27.438 Y26.884
N6215 X-27.258 Y26.866
N6220 X-27.078 Y26.847
N6225 X-26.538 Y26.783
N6230 X-26.358 Y26.759
N6235 X-26.178 Y26.733
N6240 X-25.752 Y26.683
N6245 X-25.326 Y26.631
N6250 X-24.898 Y26.586
N6255 X-24.47 Y26.549
N6260 X-24.042 Y26.517
N6265 X-23.613 Y26.489
N6270 X-23.185 Y26.466
N6275 X-22.755 Y26.446
N6280 X-22.326 Y26.429
N6285 X-21.897 Y26.413
N6290 X-21.47 Y26.369
N6295 X-21.05 Y26.28
N6300 X-20.643 Y26.141
N6305 X-20.255 Y25.957
N6310 X-19.89 Y25.731
N6315 X-19.55 Y25.469
N6320 X-19.235 Y25.176
N6325 X-18.947 Y24.858
N6330 X-18.909 Y24.81
N6335 X-18.751 Y24.639
N6340 X-18.566 Y24.496
N6345 X-18.359 Y24.386
N6350 G3 X-17.91 Y25.499 I0.218 J0.559
N6355 X-17.924 Y25.505 I-0.231 J-0.554
N6360 G1 X-18.012 Y25.539 Z-1.993
N6365 X-18.097 Y25.572 Z-1.971
N6370 X-18.178 Y25.603 Z-1.935
N6375 X-18.253 Y25.632 Z-1.885
N6380 X-18.32 Y25.658 Z-1.824
N6385 X-18.377 Y25.681 Z-1.753
N6390 X-18.422 Y25.698 Z-1.672
N6395 X-18.456 Y25.711 Z-1.585
N6400 X-18.476 Y25.719 Z-1.494
N6405 X-18.483 Y25.722 Z-1.4
N6410 G0 Z5.
N6415 X-28.33 Y27.949
N6420 Z-0.8
N6425 G1 Z-1.4 F100.
N6430 X-28.324 Y27.944 Z-1.494
N6435 X-28.307 Y27.93 Z-1.585
N6440 X-28.28 Y27.906 Z-1.672
N6445 X-28.242 Y27.874 Z-1.753
N6450 X-28.196 Y27.835 Z-1.824
N6455 X-28.141 Y27.788 Z-1.885
N6460 X-28.08 Y27.736 Z-1.935
N6465 X-28.014 Y27.68 Z-1.971
N6470 X-27.944 Y27.621 Z-1.993
N6475 X-27.873 Y27.56 Z-2.
N6480 G3 X-26.178 Y26.733 I2.46 J2.894
N6485 G1 X-26.081 Y26.717
N6490 X-25.639 Y26.639
N6495 X-25.459 Y26.607
N6500 X-25.279 Y26.573
N6505 X-25.112 Y26.537
N6510 X-24.739 Y26.449
N6515 X-24.348 Y26.357
N6520 X-24.199 Y26.322
N6525 X-22.759 Y25.976
N6530 X-22.579 Y25.93
N6535 X-22.399 Y25.881
N6540 X-22.219 Y25.829
N6545 X-21.859 Y25.722
N6550 X-21.68 Y25.668
N6555 X-21.5 Y25.611
N6560 X-21.32 Y25.55
N6565 X-20.78 Y25.354
N6570 X-20.571 Y25.277
N6575 X-20.42 Y25.22
N6580 X-18.98 Y24.647
N6585 X-18.8 Y24.575
N6590 X-18.758 Y24.557
N6595 X-18.62 Y24.498
N6600 X-18.08 Y24.266
N6605 X-17.922 Y24.198
N6610 X-17.9 Y24.188
N6615 X-17.72 Y24.1
N6620 X-17.541 Y24.011
N6625 X-17.194 Y23.838
N6630 X-17.001 Y23.74
N6635 X-16.847 Y23.658
N6640 X-16.821 Y23.643
N6645 X-16.641 Y23.541
N6650 X-16.101 Y23.232
N6655 X-15.381 Y22.818
N6660 X-14.841 Y22.508
N6665 X-14.661 Y22.404
N6670 X-14.481 Y22.297
N6675 X-14.36 Y22.218
N6680 X-14.1 Y22.049
N6685 G3 X-13.277 Y22.253 I0.31 J0.514
N6690 X-13.481 Y23.077 I-0.514 J0.31
N6695 G1 X-13.562 Y23.125 Z-1.993
N6700 X-13.64 Y23.173 Z-1.971
N6705 X-13.714 Y23.218 Z-1.935
N6710 X-13.783 Y23.259 Z-1.885
N6715 X-13.845 Y23.296 Z-1.824
N6720 X-13.897 Y23.328 Z-1.753
N6725 X-13.939 Y23.353 Z-1.672
N6730 X-13.97 Y23.372 Z-1.585
N6735 X-13.989 Y23.383 Z-1.494
N6740 X-13.995 Y23.387 Z-1.4
N6745 G0 Z5.
N6750 X-79.662 Y35.159
N6755 Z-0.8
N6760 G1 Z-1.4 F100.
N6765 X-79.666 Y35.153 Z-1.494
N6770 X-79.677 Y35.134 Z-1.585
N6775 X-79.696 Y35.103 Z-1.672
N6780 X-79.721 Y35.061 Z-1.753
N6785 X-79.752 Y35.008 Z-1.824
N6790 X-79.789 Y34.947 Z-1.885
N6795 X-79.83 Y34.878 Z-1.935
N6800 X-79.874 Y34.803 Z-1.971
N6805 X-79.921 Y34.724 Z-1.993
N6810 X-79.969 Y34.644 Z-2.
N6815 G3 X-80.5 Y32.835 I3.265 J-1.941
N6820 G1 Y30.676
N6825 X-80.489 Y30.449
N6830 X-80.462 Y30.243
N6835 X-80.412 Y30.011
N6840 X-80.336 Y29.758
N6845 X-80.231 Y29.488
N6850 X-80.088 Y29.193
N6855 X-79.902 Y28.877
N6860 X-79.665 Y28.54
N6865 X-79.391 Y28.21
N6870 X-79.093 Y27.901
N6875 X-78.775 Y27.612
N6880 X-78.44 Y27.343
N6885 X-78.092 Y27.091
N6890 X-77.732 Y26.858
N6895 X-77.361 Y26.64
N6900 X-76.983 Y26.437
N6905 X-76.597 Y26.249
N6910 X-76.205 Y26.073
N6915 X-75.807 Y25.91
N6920 X-75.405 Y25.759
N6925 X-75. Y25.618
N6930 X-74.59 Y25.487
N6935 X-74.178 Y25.366
N6940 X-73.764 Y25.253
N6945 X-73.347 Y25.149
N6950 X-72.929 Y25.052
N6955 X-72.509 Y24.962
N6960 X-72.087 Y24.879
N6965 X-71.665 Y24.802
N6970 X-71.241 Y24.731
N6975 X-70.817 Y24.666
N6980 X-70.391 Y24.605
N6985 X-69.966 Y24.549
N6990 X-69.539 Y24.497
N6995 X-69.112 Y24.449
N7000 X-68.685 Y24.405
N7005 X-68.257 Y24.365
N7010 X-67.83 Y24.328
N7015 X-67.401 Y24.293
N7020 X-66.973 Y24.262
N7025 X-66.544 Y24.233
N7030 X-66.116 Y24.206
N7035 X-65.687 Y24.182
N7040 X-65.258 Y24.16
N7045 X-64.829 Y24.139
N7050 X-64.4 Y24.12
N7055 X-63.971 Y24.103
N7060 X-63.541 Y24.088
N7065 X-63.112 Y24.073
N7070 X-62.683 Y24.06
N7075 X-62.253 Y24.048
N7080 X-61.824 Y24.037
N7085 X-61.395 Y24.027
N7090 X-60.965 Y24.018
N7095 X-60.536 Y24.01
N7100 X-60.106 Y24.003
N7105 X-59.677 Y23.996
N7110 X-59.247 Y23.99
N7115 X-58.818 Y23.984
N7120 X-58.388 Y23.979
N7125 X-57.959 Y23.974
N7130 X-57.529 Y23.97
N7135 X-57.1 Y23.966
N7140 X-56.67 Y23.963
N7145 X-56.241 Y23.96
N7150 X-55.811 Y23.957
N7155 X-55.382 Y23.954
N7160 X-54.952 Y23.952
N7165 X-54.523 Y23.95
N7170 X-53.664 Y23.946
N7175 X-52.805 Y23.943
N7180 X-51.946 Y23.941
N7185 X-50.657 Y23.938
N7190 X-49.368 Y23.936
N7195 X-48.778
N7200 X-48.696 Y23.938
N7205 X-48.614 Y23.945
N7210 X-48.533 Y23.957
N7215 X-48.493 Y23.964
N7220 X-48.313 Y23.996
N7225 X-44.894 Y24.637
N7230 X-44.714 Y24.674
N7235 X-44.534 Y24.713
N7240 X-44.426 Y24.737
N7245 X-42.9 Y25.097
N7250 X-42.734 Y25.137
N7255 X-42.554 Y25.18
N7260 X-38.955 Y26.054
N7265 X-38.775 Y26.093
N7270 X-38.595 Y26.131
N7275 X-37.47 Y26.359
N7280 G3 X-37.734 Y27.529 I-0.14 J0.584
N7285 X-37.749 Y27.526 I0.125 J-0.587
N7290 G1 X-37.84 Y27.504 Z-1.993
N7295 X-37.929 Y27.483 Z-1.971
N7300 X-38.014 Y27.463 Z-1.935
N7305 X-38.092 Y27.444 Z-1.885
N7310 X-38.161 Y27.427 Z-1.824
N7315 X-38.221 Y27.413 Z-1.753
N7320 X-38.269 Y27.402 Z-1.672
N7325 X-38.304 Y27.393 Z-1.585
N7330 X-38.325 Y27.388 Z-1.494
N7335 X-38.332 Y27.387 Z-1.4
N7340 G0 Z5.
N7345 X-79.662 Y33.
N7350 Z-0.8
N7355 G1 Z-1.4 F100.
N7360 X-79.666 Y32.994 Z-1.494
N7365 X-79.677 Y32.975 Z-1.585
N7370 X-79.696 Y32.944 Z-1.672
N7375 X-79.721 Y32.902 Z-1.753
N7380 X-79.752 Y32.849 Z-1.824
N7385 X-79.789 Y32.787 Z-1.885
N7390 X-79.83 Y32.718 Z-1.935
N7395 X-79.874 Y32.644 Z-1.971
N7400 X-79.921 Y32.565 Z-1.993
N7405 X-79.969 Y32.484 Z-2.
N7410 G3 X-80.5 Y30.676 I3.265 J-1.941
N7415 G1 Y28.516
N7420 X-80.489 Y28.305
N7425 X-80.462 Y28.096
N7430 X-80.411 Y27.859
N7435 X-80.334 Y27.6
N7440 X-80.226 Y27.324
N7445 X-80.08 Y27.023
N7450 X-79.889 Y26.699
N7455 X-79.646 Y26.353
N7460 X-79.372 Y26.023
N7465 X-79.075 Y25.713
N7470 X-78.758 Y25.423
N7475 X-78.425 Y25.151
N7480 X-78.078 Y24.898
N7485 X-77.72 Y24.661
N7490 X-77.352 Y24.439
N7495 X-76.975 Y24.233
N7500 X-76.592 Y24.04
N7505 X-76.202 Y23.86
N7510 X-75.806 Y23.692
N7515 X-75.406 Y23.535
N7520 X-75.002 Y23.389
N7525 X-74.595 Y23.253
N7530 X-74.185 Y23.126
N7535 X-73.772 Y23.008
N7540 X-73.357 Y22.897
N7545 X-72.94 Y22.795
N7550 X-72.521 Y22.699
N7555 X-72.101 Y22.61
N7560 X-71.679 Y22.528
N7565 X-71.371 Y22.472
N7570 X-71.288 Y22.459
N7575 X-71.204 Y22.452
N7580 X-71.12 Y22.449
N7585 X-66.129
N7590 X-65.949 Y22.451
N7595 X-62.17 Y22.551
N7600 X-61.81 Y22.562
N7605 X-60.55 Y22.604
N7610 X-60.37 Y22.61
N7615 X-60.19 Y22.617
N7620 X-60.01 Y22.63
N7625 X-56.231 Y22.93
N7630 X-56.051 Y22.947
N7635 X-55.871 Y22.965
N7640 X-54.612 Y23.091
N7645 X-54.362 Y23.118
N7650 X-54.252 Y23.13
N7655 X-50.832 Y23.585
N7660 X-50.653 Y23.61
N7665 X-50.473 Y23.634
N7670 X-50.312 Y23.658
N7675 X-48.853 Y23.902
N7680 X-48.673 Y23.932
N7685 X-48.533 Y23.957
N7690 G3 X-48.783 Y25.131 I-0.125 J0.587
N7695 G1 X-48.875 Y25.111 Z-1.993
N7700 X-48.964 Y25.092 Z-1.971
N7705 X-49.049 Y25.074 Z-1.935
N7710 X-49.128 Y25.057 Z-1.885
N7715 X-49.198 Y25.042 Z-1.824
N7720 X-49.258 Y25.03 Z-1.753
N7725 X-49.306 Y25.019 Z-1.672
N7730 X-49.341 Y25.012 Z-1.585
N7735 X-49.362 Y25.007 Z-1.494
N7740 X-49.37 Y25.006 Z-1.4
N7745 G0 Z5.
N7750 X-79.662 Y30.841
N7755 Z-0.8
N7760 G1 Z-1.4 F100.
N7765 X-79.666 Y30.834 Z-1.494
N7770 X-79.677 Y30.815 Z-1.585
N7775 X-79.696 Y30.784 Z-1.672
N7780 X-79.721 Y30.742 Z-1.753
N7785 X-79.752 Y30.69 Z-1.824
N7790 X-79.789 Y30.628 Z-1.885
N7795 X-79.83 Y30.559 Z-1.935
N7800 X-79.874 Y30.484 Z-1.971
N7805 X-79.921 Y30.406 Z-1.993
N7810 X-79.969 Y30.325 Z-2.
N7815 G3 X-80.5 Y28.516 I3.265 J-1.941
N7820 G1 Y26.357
N7825 X-80.489 Y26.13
N7830 X-80.461 Y25.917
N7835 X-80.409 Y25.677
N7840 X-80.33 Y25.414
N7845 X-80.221 Y25.133
N7850 X-80.072 Y24.826
N7855 X-79.878 Y24.496
N7860 X-79.631 Y24.144
N7865 X-79.357 Y23.813
N7870 X-79.06 Y23.503
N7875 X-78.744 Y23.212
N7880 X-78.412 Y22.939
N7885 X-78.122 Y22.724
N7890 X-77.866 Y22.574
N7895 X-77.584 Y22.481
N7900 X-77.289 Y22.449
N7905 G3 X-76.839 Y23.42 I-0.021 J0.6
N7910 G1 X-77.187 Y23.862
N7915 X-79.168 Y26.376
N7920 X-79.429 Y26.707
N7925 G3 X-80.5 Y26.357 I-0.471 J-0.371
N7930 G1 Y24.198
N7935 X-80.487 Y23.929
N7940 X-80.458 Y23.714
N7945 X-80.406 Y23.472
N7950 X-80.399 Y23.447
N7955 X-80.284 Y23.173
N7960 X-80.113 Y22.928
N7965 X-79.894 Y22.726
N7970 X-79.637 Y22.575
N7975 X-79.354 Y22.481
N7980 X-79.058 Y22.449
N7985 G3 X-78.594 Y23.402 I-0.021 J0.6
N7990 G1 X-78.939 Y23.875
N7995 X-79.181 Y24.208
N8000 X-79.415 Y24.53
N8005 G3 X-80.5 Y24.198 I-0.485 J-0.353
N8010 G1 Y23.118
N8015 X-80.499 Y23.028
N8020 X-80.487 Y22.938
N8025 X-80.461 Y22.848
N8030 X-80.418 Y22.758
N8035 X-80.385 Y22.708
N8040 X-80.345 Y22.659
N8045 X-80.258 Y22.578
N8050 X-80.212 Y22.545
N8055 X-80.165 Y22.518
N8060 X-80.075 Y22.48
N8065 X-79.985 Y22.457
N8070 X-79.805 Y22.449
N8075 X-71.12
N8080 G3 X-70.648 Y23.39 I-0.021 J0.6
N8085 G1 X-70.7 Y23.442 Z-1.995
N8090 X-70.752 Y23.494 Z-1.982
N8095 X-70.802 Y23.543 Z-1.959
N8100 X-70.874 Y23.576 Z-1.921
N8105 X-70.94 Y23.605 Z-1.871
N8110 X-71. Y23.632 Z-1.812
N8115 X-71.046 Y23.637 Z-1.755
N8120 X-71.086 Y23.642 Z-1.693
N8125 X-71.118 Y23.646 Z-1.627
N8130 X-71.141 Y23.649 Z-1.557
N8135 X-71.147 Z-1.533
N8140 X-71.158 Y23.648 Z-1.467
N8145 X-71.162 Z-1.4
N8150 G0 Z5.
N8155 X-79.662 Y25.433
N8160 Z-0.7
N8165 G1 Z-1.3 F100.
N8170 X-79.666 Y25.427 Z-1.394
N8175 X-79.677 Y25.408 Z-1.485
N8180 X-79.696 Y25.377 Z-1.572
N8185 X-79.721 Y25.335 Z-1.653
N8190 X-79.752 Y25.282 Z-1.724
N8195 X-79.789 Y25.22 Z-1.785
N8200 X-79.83 Y25.151 Z-1.835
N8205 X-79.874 Y25.077 Z-1.871
N8210 X-79.921 Y24.998 Z-1.893
N8215 X-79.969 Y24.917 Z-1.9
N8220 G3 X-80.5 Y23.109 I3.265 J-1.941
N8225 G1 Y22.578
N8230 X-80.494 Y22.514
N8235 X-80.486 Y22.472
N8240 X-80.476 Y22.431
N8245 X-80.458 Y22.38
N8250 X-80.332 Y22.179
N8255 X-80.154 Y22.023
N8260 X-79.939 Y21.923
N8265 X-79.704 Y21.889
N8270 G3 X-79.102 Y22.844 I-0.024 J0.682
N8275 X-79.139 Y22.916 I-0.669 J-0.291
N8280 X-80.5 Y22.578 I-0.632 J-0.364
N8285 G1 X-80.492 Y22.398
N8290 X-80.47 Y22.308
N8295 X-80.432 Y22.218
N8300 X-80.394 Y22.156
N8305 X-80.345 Y22.094
N8310 X-80.288 Y22.038
N8315 X-80.227 Y21.993
N8320 X-80.165 Y21.958
N8325 X-80.075 Y21.92
N8330 X-79.985 Y21.897
N8335 X-79.805 Y21.889
N8340 X-66.129
N8345 X-65.949 Y21.891
N8350 X-61.81 Y22.001
N8355 X-61.45 Y22.013
N8360 X-60.55 Y22.043
N8365 X-60.19 Y22.056
N8370 X-60.01 Y22.069
N8375 X-56.231 Y22.369
N8380 X-55.899 Y22.398
N8385 X-54.432 Y22.545
N8390 X-54.252 Y22.566
N8395 X-50.473 Y23.069
N8400 X-50.293 Y23.095
N8405 X-50.113 Y23.123
N8410 X-49.933 Y23.152
N8415 X-48.853 Y23.333
N8420 X-48.673 Y23.363
N8425 X-48.493 Y23.395
N8430 X-48.313 Y23.427
N8435 X-44.894 Y24.068
N8440 X-44.714 Y24.103
N8445 X-44.534 Y24.139
N8450 X-44.354 Y24.178
N8455 X-42.914 Y24.518
N8460 X-42.734 Y24.561
N8465 X-42.554 Y24.604
N8470 X-41.835 Y24.779
N8475 X-38.955 Y25.478
N8480 X-38.775 Y25.52
N8485 X-38.595 Y25.561
N8490 X-36.976 Y25.889
N8495 X-36.796 Y25.925
N8500 X-36.616 Y25.961
N8505 X-35.176 Y26.242
N8510 X-34.996 Y26.275
N8515 X-34.816 Y26.303
N8520 X-34.636 Y26.321
N8525 X-34.456 Y26.336
N8530 X-33.197 Y26.437
N8535 X-33.017 Y26.45
N8540 X-32.837 Y26.459
N8545 X-31.287 Y26.537
N8550 X-31.217 Y26.539
N8555 X-31.037 Y26.543
N8560 X-30.857 Y26.544
N8565 X-30.317 Y26.542
N8570 X-30.118 Y26.537
N8575 X-29.958 Y26.531
N8580 X-29.418 Y26.497
N8585 X-29.238 Y26.485
N8590 X-29.058 Y26.471
N8595 X-28.878 Y26.455
N8600 X-27.438 Y26.321
N8605 X-27.258 Y26.302
N8610 X-27.078 Y26.283
N8615 X-26.538 Y26.219
N8620 X-26.358 Y26.193
N8625 X-26.178 Y26.166
N8630 X-25.998 Y26.134
N8635 X-25.639 Y26.071
N8640 X-25.459 Y26.037
N8645 X-25.269 Y25.997
N8650 X-25.099 Y25.958
N8655 X-24.5 Y25.817
N8660 X-22.939 Y25.442
N8665 X-22.759 Y25.398
N8670 X-22.579 Y25.351
N8675 X-22.326 Y25.277
N8680 X-22.039 Y25.192
N8685 X-21.723 Y25.097
N8690 X-21.68 Y25.083
N8695 X-21.5 Y25.019
N8700 X-21.32 Y24.955
N8705 X-20.96 Y24.824
N8710 X-20.78 Y24.759
N8715 X-20.724 Y24.737
N8720 X-20.42 Y24.617
N8725 X-19.16 Y24.115
N8730 X-18.923 Y24.018
N8735 X-18.8 Y23.966
N8740 X-18.26 Y23.734
N8745 X-18.093 Y23.658
N8750 X-17.9 Y23.565
N8755 X-17.361 Y23.295
N8760 X-17.181 Y23.201
N8765 X-17.001 Y23.1
N8770 X-16.821 Y22.998
N8775 X-16.281 Y22.688
N8780 X-15.021 Y21.964
N8785 X-14.841 Y21.856
N8790 X-14.661 Y21.747
N8795 X-14.121 Y21.395
N8800 X-14.007 Y21.318
N8805 X-13.752 Y21.138
N8810 X-13.402 Y20.88
N8815 X-13.222 Y20.747
N8820 X-13.042 Y20.611
N8825 X-12.682 Y20.329
N8830 X-11.877 Y19.699
N8835 X-11.782 Y19.623
N8840 X-11.602 Y19.477
N8845 X-11.422 Y19.328
N8850 X-11.219 Y19.159
N8855 X-11.062 Y19.027
N8860 X-10.882 Y18.874
N8865 X-10.8 Y18.799
N8870 X-10.162 Y18.198
N8875 X-10.043 Y18.079
N8880 X-9.982 Y18.017
N8885 X-9.867 Y17.899
N8890 X-8.903 Y16.89
N8895 X-8.328 Y16.28
N8900 X-8.163 Y16.1
N8905 X-8.003 Y15.91
N8910 X-7.562 Y15.38
N8915 X-7.463 Y15.258
N8920 X-7.417 Y15.2
N8925 X-7.283 Y15.019
N8930 X-6.563 Y14.022
N8935 X-6.376 Y13.76
N8940 X-5.843 Y13.014
N8945 X-5.735 Y12.861
N8950 X-5.663 Y12.756
N8955 X-5.616 Y12.681
N8960 X-5.483 Y12.462
N8965 X-5.29 Y12.141
N8970 X-4.856 Y11.421
N8975 X-4.764 Y11.26
N8980 X-4.753 Y11.241
N8985 X-4.657 Y11.061
N8990 X-4.192 Y10.161
N8995 X-4.102 Y9.981
N9000 X-4.044 Y9.865
N9005 X-3.485 Y8.722
N9010 X-3.399 Y8.542
N9015 X-3.317 Y8.362
N9020 X-3.244 Y8.182
N9025 X-2.604 Y6.486
N9030 X-2.566 Y6.382
N9035 X-2.424 Y5.979
N9040 X-2.314 Y5.663
N9045 X-2.244 Y5.463
N9050 X-2.192 Y5.303
N9055 X-2.135 Y5.123
N9060 X-2.094 Y4.943
N9065 X-2.064 Y4.783
N9070 X-2.038 Y4.583
N9075 X-2.03 Y4.403
N9080 X-2.029 Y4.223
N9085 X-2.037 Y4.043
N9090 X-2.06 Y3.863
N9095 X-2.064 Y3.833
N9100 X-2.091 Y3.683
N9105 X-2.132 Y3.503
N9110 X-2.187 Y3.323
N9115 X-2.244 Y3.155
N9120 X-2.249 Y3.143
N9125 X-2.328 Y2.963
N9130 X-2.424 Y2.78
N9135 X-2.523 Y2.603
N9140 X-2.645 Y2.423
N9145 X-2.784 Y2.241
N9150 X-2.938 Y2.064
N9155 X-2.964 Y2.037
N9160 X-3.113 Y1.884
N9165 X-3.144 Y1.854
N9170 X-3.311 Y1.704
N9175 X-3.324 Y1.693
N9180 X-3.504 Y1.543
N9185 X-3.528 Y1.524
N9190 X-3.684 Y1.406
N9195 X-3.864 Y1.279
N9200 X-4.033 Y1.164
N9205 X-4.224 Y1.042
N9210 X-4.315 Y0.984
N9215 X-4.404 Y0.93
N9220 X-4.584 Y0.824
N9225 X-4.619 Y0.804
N9230 X-4.764 Y0.723
N9235 X-4.944 Y0.623
N9240 X-5.124 Y0.528
N9245 X-5.286 Y0.444
N9250 X-5.483 Y0.345
N9255 X-5.649 Y0.264
N9260 X-5.843 Y0.172
N9265 G3 X-5.865 Y-0.881 I0.277 J-0.532
N9270 G1 X-5.796 Y-0.906 Z-1.895
N9275 X-5.727 Y-0.93 Z-1.882
N9280 X-5.661 Y-0.953 Z-1.859
N9285 X-5.613 Y-0.957 Z-1.838
N9290 X-5.567 Y-0.961 Z-1.812
N9295 X-5.502 Y-0.949 Z-1.766
N9300 X-5.445 Y-0.938 Z-1.711
N9305 X-5.395 Y-0.929 Z-1.648
N9310 X-5.353 Y-0.921 Z-1.58
N9315 X-5.324 Y-0.909 Z-1.508
N9320 X-5.304 Y-0.9 Z-1.433
N9325 X-5.294 Y-0.895 Z-1.367
N9330 X-5.29 Y-0.893 Z-1.3
N9335 G0 Z5.
N9340 X-79.662 Y24.902
N9345 Z-0.6
N9350 G1 Z-1.2 F100.
N9355 X-79.666 Y24.896 Z-1.294
N9360 X-79.677 Y24.877 Z-1.385
N9365 X-79.696 Y24.846 Z-1.472
N9370 X-79.721 Y24.804 Z-1.553
N9375 X-79.752 Y24.751 Z-1.624
N9380 X-79.789 Y24.69 Z-1.685
N9385 X-79.83 Y24.621 Z-1.735
N9390 X-79.874 Y24.546 Z-1.771
N9395 X-79.921 Y24.467 Z-1.793
N9400 X-79.969 Y24.387 Z-1.8
N9405 G3 X-80.5 Y22.578 I3.265 J-1.941
N9410 G1 Y22.038
N9415 X-80.493 Y21.96
N9420 X-80.486 Y21.917
N9425 X-80.476 Y21.877
N9430 X-80.459 Y21.827
N9435 X-80.434 Y21.768
N9440 X-80.304 Y21.587
N9445 X-80.131 Y21.448
N9450 X-79.926 Y21.359
N9455 X-79.706 Y21.329
N9460 G3 X-79.082 Y22.284 I-0.024 J0.697
N9465 X-79.136 Y22.393 I-0.683 J-0.272
N9470 X-80.5 Y22.038 I-0.629 J-0.38
N9475 G1 X-80.494 Y21.858
N9480 X-80.474 Y21.768
N9485 X-80.438 Y21.678
N9490 X-80.398 Y21.61
N9495 X-80.345 Y21.542
N9500 X-80.304 Y21.498
N9505 X-80.235 Y21.441
N9510 X-80.165 Y21.398
N9515 X-80.075 Y21.36
N9520 X-79.985 Y21.338
N9525 X-79.805 Y21.329
N9530 X-66.129
N9535 X-65.949 Y21.332
N9540 X-61.81 Y21.441
N9545 X-61.45 Y21.452
N9550 X-60.55 Y21.482
N9555 X-60.19 Y21.495
N9560 X-60.129 Y21.498
N9565 X-56.051 Y21.823
N9570 X-55.871 Y21.838
N9575 X-55.511 Y21.873
N9580 X-54.612 Y21.963
N9585 X-54.432 Y21.983
N9590 X-54.252 Y22.002
N9595 X-50.293 Y22.529
N9600 X-50.113 Y22.554
N9605 X-48.853 Y22.764
N9610 X-48.673 Y22.795
N9615 X-48.493 Y22.826
N9620 X-48.313 Y22.859
N9625 X-44.534 Y23.567
N9630 X-44.354 Y23.605
N9635 X-44.12 Y23.658
N9640 X-42.914 Y23.942
N9645 X-42.734 Y23.985
N9650 X-42.554 Y24.028
N9655 X-42.015 Y24.159
N9660 X-38.775 Y24.946
N9665 X-38.595 Y24.989
N9670 X-38.415 Y25.027
N9675 X-38.236 Y25.064
N9680 X-36.976 Y25.319
N9685 X-36.796 Y25.355
N9690 X-36.616 Y25.391
N9695 X-35.176 Y25.672
N9700 X-34.996 Y25.706
N9705 X-34.816 Y25.737
N9710 X-34.636 Y25.759
N9715 X-34.456 Y25.776
N9720 X-33.197 Y25.876
N9725 X-33.017 Y25.887
N9730 X-32.837 Y25.898
N9735 X-31.397 Y25.97
N9740 X-31.217 Y25.978
N9745 X-31.037 Y25.983
N9750 X-30.857 Y25.985
N9755 X-30.317 Y25.982
N9760 X-30.137 Y25.977
N9765 X-29.958 Y25.97
N9770 X-29.418 Y25.937
N9775 X-29.238 Y25.923
N9780 X-29.058 Y25.908
N9785 X-28.518 Y25.858
N9790 X-27.438 Y25.757
N9795 X-27.258 Y25.738
N9800 X-27.078 Y25.719
N9805 X-26.538 Y25.654
N9810 X-26.417 Y25.637
N9815 X-26.178 Y25.598
N9820 X-25.998 Y25.566
N9825 X-25.819 Y25.534
N9830 X-25.639 Y25.502
N9835 X-25.459 Y25.466
N9840 X-25.279 Y25.424
N9845 X-25.099 Y25.382
N9850 X-24.919 Y25.34
N9855 X-24.559 Y25.255
N9860 X-22.939 Y24.866
N9865 X-22.759 Y24.82
N9870 X-22.579 Y24.769
N9875 X-22.039 Y24.608
N9880 X-21.859 Y24.552
N9885 X-21.68 Y24.49
N9890 X-21.14 Y24.294
N9895 X-20.96 Y24.227
N9900 X-20.884 Y24.198
N9905 X-19.34 Y23.583
N9910 X-19.16 Y23.511
N9915 X-19.082 Y23.478
N9920 X-18.62 Y23.279
N9925 X-18.44 Y23.2
N9930 X-18.26 Y23.118
N9935 X-18.08 Y23.03
N9940 X-17.72 Y22.85
N9945 X-17.54 Y22.758
N9950 X-17.361 Y22.659
N9955 X-17.216 Y22.578
N9960 X-16.821 Y22.352
N9965 X-16.461 Y22.145
N9970 X-15.336 Y21.498
N9975 X-15.201 Y21.42
N9980 X-15.029 Y21.318
N9985 X-15.021 Y21.313
N9990 X-14.476 Y20.958
N9995 X-14.301 Y20.841
N10000 X-14.121 Y20.715
N10005 X-13.941 Y20.582
N10010 X-13.719 Y20.419
N10015 X-13.581 Y20.316
N10020 X-13.478 Y20.239
N10025 X-13.402 Y20.18
N10030 X-12.098 Y19.159
N10035 X-11.962 Y19.049
N10040 X-11.782 Y18.899
N10045 X-11.602 Y18.749
N10050 X-11.422 Y18.598
N10055 X-11.242 Y18.446
N10060 X-11.235 Y18.439
N10065 X-11.043 Y18.259
N10070 X-10.661 Y17.899
N10075 X-10.522 Y17.765
N10080 X-10.3 Y17.539
N10085 X-10.128 Y17.359
N10090 X-9.439 Y16.64
N10095 X-9.263 Y16.455
N10100 X-9.083 Y16.264
N10105 X-8.723 Y15.881
N10110 X-8.594 Y15.74
N10115 X-8.543 Y15.681
N10120 X-8.439 Y15.56
N10125 X-7.991 Y15.02
N10130 X-7.851 Y14.84
N10135 X-7.715 Y14.66
N10140 X-7.066 Y13.76
N10145 X-6.808 Y13.4
N10150 X-6.383 Y12.805
N10155 X-6.295 Y12.681
N10160 X-6.169 Y12.501
N10165 X-6.051 Y12.321
N10170 X-5.942 Y12.141
N10175 X-5.617 Y11.601
N10180 X-5.4 Y11.241
N10185 X-5.303 Y11.074
N10190 X-5.198 Y10.881
N10195 X-5.124 Y10.74
N10200 X-4.731 Y9.981
N10205 X-4.639 Y9.801
N10210 X-4.548 Y9.622
N10215 X-4.459 Y9.442
N10220 X-4.019 Y8.542
N10225 X-3.932 Y8.362
N10230 X-3.864 Y8.219
N10235 X-3.774 Y8.002
N10240 X-3.706 Y7.822
N10245 X-3.163 Y6.382
N10250 X-3.144 Y6.331
N10255 X-3.035 Y6.022
N10260 X-2.964 Y5.821
N10265 X-2.908 Y5.663
N10270 X-2.721 Y5.123
N10275 X-2.667 Y4.943
N10280 X-2.617 Y4.763
N10285 X-2.604 Y4.699
N10290 X-2.583 Y4.583
N10295 X-2.561 Y4.403
N10300 X-2.546 Y4.223
N10305 X-2.544 Y4.043
N10310 X-2.552 Y3.863
N10315 X-2.568 Y3.683
N10320 X-2.604 Y3.462
N10325 X-2.638 Y3.323
N10330 X-2.686 Y3.143
N10335 X-2.75 Y2.963
N10340 X-2.784 Y2.873
N10345 X-2.824 Y2.783
N10350 X-2.91 Y2.603
N10355 X-3.014 Y2.423
N10360 X-3.128 Y2.244
N10365 X-3.144 Y2.219
N10370 X-3.26 Y2.064
N10375 X-3.412 Y1.884
N10380 X-3.504 Y1.783
N10385 X-3.684 Y1.606
N10390 X-3.772 Y1.524
N10395 X-3.864 Y1.446
N10400 X-3.986 Y1.344
N10405 X-4.044 Y1.297
N10410 X-4.224 Y1.162
N10415 X-4.404 Y1.035
N10420 X-4.584 Y0.914
N10425 X-4.764 Y0.8
N10430 X-4.944 Y0.689
N10435 X-5.054 Y0.624
N10440 X-5.124 Y0.584
N10445 X-5.303 Y0.483
N10450 X-5.483 Y0.384
N10455 X-5.663 Y0.288
N10460 X-5.71 Y0.264
N10465 X-5.843 Y0.196
N10470 X-6.07 Y0.084
N10475 X-6.203 Y0.019
N10480 X-6.383 Y-0.066
N10485 G3 X-6.409 Y-1.119 I0.274 J-0.534
N10490 G1 X-6.34 Y-1.144 Z-1.795
N10495 X-6.271 Y-1.168 Z-1.782
N10500 X-6.205 Y-1.192 Z-1.759
N10505 X-6.156 Y-1.196 Z-1.737
N10510 X-6.109 Y-1.2 Z-1.711
N10515 X-6.044 Y-1.188 Z-1.663
N10520 X-5.986 Y-1.177 Z-1.608
N10525 X-5.936 Y-1.168 Z-1.545
N10530 X-5.895 Y-1.16 Z-1.475
N10535 X-5.867 Y-1.148 Z-1.406
N10540 X-5.848 Y-1.14 Z-1.333
N10545 X-5.838 Y-1.135 Z-1.267
N10550 X-5.834 Y-1.133 Z-1.2
N10555 G0 Z5.
N10560 X-79.662 Y24.362
N10565 Z-0.5
N10570 G1 Z-1.1 F100.
N10575 X-79.666 Y24.356 Z-1.194
N10580 X-79.677 Y24.337 Z-1.285
N10585 X-79.696 Y24.306 Z-1.372
N10590 X-79.721 Y24.264 Z-1.453
N10595 X-79.752 Y24.211 Z-1.524
N10600 X-79.789 Y24.15 Z-1.585
N10605 X-79.83 Y24.081 Z-1.635
N10610 X-79.874 Y24.006 Z-1.671
N10615 X-79.921 Y23.927 Z-1.693
N10620 X-79.969 Y23.847 Z-1.7
N10625 G3 X-80.5 Y22.038 I3.265 J-1.941
N10630 G1 Y21.498
N10635 X-80.499 Y21.444
N10640 X-80.496 Y21.406
N10645 X-80.489 Y21.364
N10650 X-80.48 Y21.323
N10655 X-80.464 Y21.275
N10660 X-80.441 Y21.218
N10665 X-80.311 Y21.033
N10670 X-80.136 Y20.89
N10675 X-79.929 Y20.8
N10680 X-79.706 Y20.769
N10685 G3 X-79.111 Y21.749 I-0.024 J0.685
N10690 X-79.146 Y21.813 I-0.658 J-0.314
N10695 X-80.499 Y21.444 I-0.624 J-0.378
N10700 G1 X-80.496 Y21.318
N10705 X-80.478 Y21.228
N10710 X-80.445 Y21.138
N10715 X-80.403 Y21.061
N10720 X-80.345 Y20.983
N10725 X-80.324 Y20.958
N10730 X-80.284 Y20.92
N10735 X-80.244 Y20.888
N10740 X-80.165 Y20.838
N10745 X-80.078 Y20.801
N10750 X-79.99 Y20.778
N10755 X-79.985
N10760 X-79.805 Y20.769
N10765 X-66.129 Y20.77
N10770 X-65.949 Y20.772
N10775 X-61.81 Y20.881
N10780 X-61.45 Y20.891
N10785 X-60.55 Y20.921
N10790 X-60.19 Y20.934
N10795 X-60.01 Y20.947
N10800 X-56.051 Y21.262
N10805 X-55.871 Y21.276
N10810 X-55.691 Y21.293
N10815 X-55.511 Y21.309
N10820 X-54.612 Y21.4
N10825 X-54.432 Y21.419
N10830 X-54.252 Y21.438
N10835 X-50.113 Y21.989
N10840 X-49.933 Y22.016
N10845 X-49.753 Y22.045
N10850 X-49.573 Y22.075
N10855 X-48.673 Y22.226
N10860 X-48.493 Y22.257
N10865 X-48.313 Y22.29
N10870 X-44.534 Y22.998
N10875 X-44.354 Y23.034
N10880 X-44.174 Y23.07
N10885 X-43.994 Y23.112
N10890 X-42.914 Y23.366
N10895 X-42.734 Y23.409
N10900 X-42.45 Y23.478
N10905 X-38.745 Y24.377
N10910 X-38.595 Y24.414
N10915 X-38.415 Y24.454
N10920 X-38.236 Y24.494
N10925 X-36.976 Y24.749
N10930 X-36.796 Y24.785
N10935 X-36.616 Y24.821
N10940 X-34.996 Y25.138
N10945 X-34.816 Y25.171
N10950 X-34.636 Y25.195
N10955 X-34.456 Y25.215
N10960 X-33.197 Y25.316
N10965 X-33.017 Y25.326
N10970 X-32.837 Y25.336
N10975 X-31.397 Y25.409
N10980 X-31.217 Y25.417
N10985 X-31.037 Y25.423
N10990 X-30.857 Y25.425
N10995 X-30.317 Y25.423
N11000 X-30.137 Y25.417
N11005 X-29.958 Y25.409
N11010 X-29.418 Y25.376
N11015 X-29.238 Y25.361
N11020 X-29.058 Y25.345
N11025 X-27.438 Y25.194
N11030 X-27.258 Y25.175
N11035 X-27.078 Y25.155
N11040 X-26.898 Y25.134
N11045 X-26.718 Y25.112
N11050 X-26.538 Y25.089
N11055 X-26.358 Y25.061
N11060 X-26.178 Y25.03
N11065 X-25.998 Y24.998
N11070 X-25.819 Y24.966
N11075 X-25.574 Y24.917
N11080 X-25.459 Y24.891
N11085 X-24.919 Y24.764
N11090 X-24.019 Y24.548
N11095 X-23.119 Y24.332
N11100 X-22.939 Y24.288
N11105 X-22.759 Y24.237
N11110 X-22.621 Y24.198
N11115 X-22.399 Y24.132
N11120 X-22.219 Y24.077
N11125 X-22.039 Y24.023
N11130 X-22.023 Y24.018
N11135 X-21.68 Y23.894
N11140 X-21.5 Y23.829
N11145 X-21.32 Y23.762
N11150 X-21.14 Y23.694
N11155 X-21.045 Y23.658
N11160 X-19.52 Y23.051
N11165 X-19.34 Y22.977
N11170 X-19.245 Y22.938
N11175 X-19.16 Y22.902
N11180 X-18.825 Y22.758
N11185 X-18.62 Y22.668
N11190 X-18.44 Y22.584
N11195 X-17.9 Y22.314
N11200 X-17.72 Y22.218
N11205 X-17.541 Y22.118
N11210 X-17.001 Y21.808
N11215 X-15.741 Y21.084
N11220 X-15.561 Y20.981
N11225 X-15.381 Y20.876
N11230 X-15.226 Y20.778
N11235 X-15.021 Y20.646
N11240 X-14.841 Y20.529
N11245 X-14.661 Y20.411
N11250 X-14.481 Y20.284
N11255 X-14.419 Y20.239
N11260 X-14.301 Y20.152
N11265 X-14.121 Y20.019
N11270 X-13.934 Y19.879
N11275 X-13.761 Y19.749
N11280 X-12.502 Y18.762
N11285 X-12.322 Y18.617
N11290 X-12.142 Y18.47
N11295 X-11.782 Y18.17
N11300 X-11.677 Y18.079
N11305 X-11.602 Y18.013
N11310 X-11.476 Y17.899
N11315 X-11.062 Y17.508
N11320 X-10.906 Y17.359
N11325 X-10.882 Y17.335
N11330 X-10.732 Y17.179
N11335 X-9.622 Y16.019
N11340 X-9.529 Y15.92
N11345 X-9.263 Y15.637
N11350 X-9.191 Y15.56
N11355 X-9.024 Y15.38
N11360 X-8.903 Y15.242
N11365 X-8.419 Y14.66
N11370 X-8.363 Y14.592
N11375 X-8.279 Y14.48
N11380 X-8.183 Y14.35
N11385 X-7.887 Y13.94
N11390 X-7.757 Y13.76
N11395 X-7.498 Y13.4
N11400 X-7.241 Y13.041
N11405 X-6.743 Y12.344
N11410 X-6.727 Y12.321
N11415 X-6.601 Y12.141
N11420 X-6.563 Y12.086
N11425 X-6.487 Y11.961
N11430 X-6.377 Y11.781
N11435 X-6.023 Y11.193
N11440 X-5.836 Y10.881
N11445 X-5.737 Y10.701
N11450 X-5.642 Y10.521
N11455 X-5.177 Y9.622
N11460 X-5.124 Y9.517
N11465 X-4.995 Y9.262
N11470 X-4.944 Y9.158
N11475 X-4.554 Y8.362
N11480 X-4.467 Y8.182
N11485 X-4.381 Y8.002
N11490 X-4.306 Y7.822
N11495 X-4.235 Y7.642
N11500 X-3.76 Y6.382
N11505 X-3.684 Y6.173
N11510 X-3.63 Y6.022
N11515 X-3.566 Y5.843
N11520 X-3.503 Y5.663
N11525 X-3.254 Y4.943
N11530 X-3.194 Y4.763
N11535 X-3.144 Y4.57
N11540 X-3.109 Y4.403
N11545 X-3.08 Y4.223
N11550 X-3.066 Y4.043
N11555 X-3.06 Y3.863
N11560 X-3.062 Y3.683
N11565 X-3.08 Y3.503
N11570 X-3.106 Y3.323
N11575 X-3.14 Y3.143
N11580 X-3.144 Y3.126
N11585 X-3.19 Y2.963
N11590 X-3.247 Y2.783
N11595 X-3.317 Y2.603
N11600 X-3.324 Y2.588
N11605 X-3.405 Y2.423
N11610 X-3.498 Y2.244
N11615 X-3.504 Y2.234
N11620 X-3.612 Y2.064
N11625 X-3.684 Y1.962
N11630 X-3.742 Y1.884
N11635 X-3.864 Y1.731
N11640 X-4.053 Y1.524
N11645 X-4.224 Y1.36
N11650 X-4.241 Y1.344
N11655 X-4.404 Y1.197
N11660 X-4.445 Y1.164
N11665 X-4.584 Y1.054
N11670 X-4.673 Y0.984
N11675 X-4.764 Y0.918
N11680 X-4.925 Y0.804
N11685 X-4.944 Y0.791
N11690 X-5.124 Y0.673
N11695 X-5.199 Y0.624
N11700 X-5.303 Y0.558
N11705 X-5.492 Y0.444
N11710 X-5.663 Y0.344
N11715 X-5.803 Y0.264
N11720 X-5.843 Y0.242
N11725 X-6.023 Y0.145
N11730 X-6.203 Y0.049
N11735 X-6.383 Y-0.043
N11740 X-6.489 Y-0.096
N11745 X-6.563 Y-0.132
N11750 X-6.743 Y-0.219
N11755 X-6.863 Y-0.276
N11760 G3 X-6.884 Y-1.329 I0.277 J-0.532
N11765 G1 X-6.814 Y-1.353 Z-1.695
N11770 X-6.746 Y-1.377 Z-1.682
N11775 X-6.679 Y-1.401 Z-1.659
N11780 X-6.631 Y-1.404 Z-1.638
N11785 X-6.586 Y-1.408 Z-1.612
N11790 X-6.521 Y-1.396 Z-1.566
N11795 X-6.464 Y-1.386 Z-1.511
N11800 X-6.414 Y-1.376 Z-1.449
N11805 X-6.372 Y-1.369 Z-1.381
N11810 X-6.343 Y-1.356 Z-1.309
N11815 X-6.322 Y-1.347 Z-1.233
N11820 X-6.312 Y-1.342 Z-1.167
N11825 X-6.309 Y-1.34 Z-1.1
N11830 G0 Z5.
N11835 X-79.662 Y23.813
N11840 Z-0.4
N11845 G1 Z-1. F100.
N11850 X-79.666 Y23.807 Z-1.094
N11855 X-79.677 Y23.788 Z-1.185
N11860 X-79.696 Y23.757 Z-1.272
N11865 X-79.721 Y23.715 Z-1.353
N11870 X-79.752 Y23.662 Z-1.424
N11875 X-79.789 Y23.601 Z-1.485
N11880 X-79.83 Y23.532 Z-1.535
N11885 X-79.874 Y23.457 Z-1.571
N11890 X-79.921 Y23.378 Z-1.593
N11895 X-79.969 Y23.298 Z-1.6
N11900 G3 X-80.5 Y21.489 I3.265 J-1.941
N11905 G1 Y20.958
N11910 X-80.499 Y20.904
N11915 X-80.496 Y20.853
N11920 X-80.49 Y20.811
N11925 X-80.481 Y20.769
N11930 X-80.467 Y20.724
N11935 X-80.445 Y20.668
N11940 X-80.316 Y20.48
N11945 X-80.14 Y20.334
N11950 X-79.931 Y20.241
N11955 X-79.704 Y20.21
N11960 G3 X-79.092 Y21.177 I-0.024 J0.692
N11965 X-79.14 Y21.268 I-0.673 J-0.291
N11970 X-80.499 Y20.904 I-0.626 J-0.382
N11975 G1 X-80.498 Y20.778
N11980 X-80.484 Y20.688
N11985 X-80.456 Y20.599
N11990 X-80.411 Y20.511
N11995 X-80.345 Y20.423
N12000 X-80.342 Y20.419
N12005 X-80.298 Y20.373
N12010 X-80.254 Y20.335
N12015 X-80.209 Y20.304
N12020 X-80.165 Y20.278
N12025 X-80.071 Y20.239
N12030 X-79.985 Y20.218
N12035 X-79.805 Y20.21
N12040 X-66.129
N12045 X-65.949 Y20.212
N12050 X-61.63 Y20.326
N12055 X-61.45 Y20.331
N12060 X-61.09 Y20.343
N12065 X-60.37 Y20.367
N12070 X-60.19 Y20.373
N12075 X-60.01 Y20.386
N12080 X-55.871 Y20.715
N12085 X-55.691 Y20.73
N12090 X-55.511 Y20.746
N12095 X-54.612 Y20.836
N12100 X-54.432 Y20.855
N12105 X-54.252 Y20.874
N12110 X-50.113 Y21.425
N12115 X-49.933 Y21.451
N12120 X-49.753 Y21.477
N12125 X-49.621 Y21.498
N12130 X-48.853 Y21.627
N12135 X-48.673 Y21.657
N12140 X-48.493 Y21.688
N12145 X-48.313 Y21.721
N12150 X-44.174 Y22.497
N12155 X-43.994 Y22.536
N12160 X-43.814 Y22.578
N12165 X-42.914 Y22.79
N12170 X-42.734 Y22.833
N12175 X-42.554 Y22.876
N12180 X-41.835 Y23.051
N12185 X-38.595 Y23.838
N12190 X-38.415 Y23.881
N12195 X-38.236 Y23.923
N12200 X-38.056 Y23.96
N12205 X-37.772 Y24.018
N12210 X-36.976 Y24.179
N12215 X-36.796 Y24.215
N12220 X-36.616 Y24.251
N12225 X-34.996 Y24.568
N12230 X-34.816 Y24.602
N12235 X-34.636 Y24.631
N12240 X-34.456 Y24.655
N12245 X-34.097 Y24.684
N12250 X-33.197 Y24.755
N12255 X-33.017 Y24.765
N12260 X-32.837 Y24.775
N12265 X-31.397 Y24.847
N12270 X-31.217 Y24.856
N12275 X-31.037 Y24.862
N12280 X-30.857 Y24.866
N12285 X-30.317 Y24.863
N12290 X-30.137 Y24.857
N12295 X-29.958 Y24.849
N12300 X-29.598 Y24.826
N12305 X-29.418 Y24.814
N12310 X-29.238 Y24.798
N12315 X-27.438 Y24.631
N12320 X-27.258 Y24.611
N12325 X-27.078 Y24.591
N12330 X-26.795 Y24.557
N12335 X-26.538 Y24.523
N12340 X-26.358 Y24.493
N12345 X-25.998 Y24.43
N12350 X-25.819 Y24.396
N12355 X-25.639 Y24.357
N12360 X-25.459 Y24.315
N12365 X-25.279 Y24.273
N12370 X-24.919 Y24.188
N12375 X-23.299 Y23.799
N12380 X-23.119 Y23.754
N12385 X-22.939 Y23.708
N12390 X-22.579 Y23.601
N12395 X-22.399 Y23.548
N12400 X-22.219 Y23.49
N12405 X-22.039 Y23.429
N12410 X-21.5 Y23.234
N12415 X-21.32 Y23.163
N12420 X-19.849 Y22.578
N12425 X-19.52 Y22.446
N12430 X-19.405 Y22.398
N12435 X-18.98 Y22.215
N12440 X-18.8 Y22.135
N12445 X-18.601 Y22.038
N12450 X-18.44 Y21.959
N12455 X-18.239 Y21.858
N12460 X-18.08 Y21.774
N12465 X-17.9 Y21.678
N12470 X-17.541 Y21.472
N12475 X-17.181 Y21.265
N12480 X-15.921 Y20.541
N12485 X-15.709 Y20.419
N12490 X-15.561 Y20.329
N12495 X-15.381 Y20.212
N12500 X-15.145 Y20.059
N12505 X-15.021 Y19.978
N12510 X-14.841 Y19.851
N12515 X-14.661 Y19.722
N12520 X-14.301 Y19.456
N12525 X-14.148 Y19.339
N12530 X-13.918 Y19.159
N12535 X-12.862 Y18.331
N12540 X-12.77 Y18.259
N12545 X-12.682 Y18.189
N12550 X-12.547 Y18.079
N12555 X-12.322 Y17.892
N12560 X-12.142 Y17.741
N12565 X-11.913 Y17.539
N12570 X-11.782 Y17.418
N12575 X-11.422 Y17.079
N12580 X-11.341 Y16.999
N12585 X-11.242 Y16.9
N12590 X-11.164 Y16.82
N12595 X-9.982 Y15.584
N12600 X-9.621 Y15.2
N12605 X-9.442 Y15.008
N12610 X-9.296 Y14.84
N12615 X-8.903 Y14.367
N12620 X-8.848 Y14.3
N12625 X-8.71 Y14.12
N12630 X-8.578 Y13.94
N12635 X-8.183 Y13.393
N12640 X-8.059 Y13.221
N12645 X-7.93 Y13.041
N12650 X-7.283 Y12.135
N12655 X-7.103 Y11.882
N12660 X-7.033 Y11.781
N12665 X-6.922 Y11.601
N12670 X-6.813 Y11.421
N12675 X-6.488 Y10.881
N12680 X-6.381 Y10.701
N12685 X-6.276 Y10.521
N12690 X-6.203 Y10.383
N12695 X-5.995 Y9.981
N12700 X-5.623 Y9.262
N12705 X-5.483 Y8.989
N12710 X-5.001 Y8.002
N12715 X-4.944 Y7.882
N12720 X-4.916 Y7.822
N12725 X-4.834 Y7.642
N12730 X-4.697 Y7.282
N12735 X-4.358 Y6.382
N12740 X-4.291 Y6.202
N12745 X-4.224 Y6.02
N12750 X-4.098 Y5.663
N12755 X-3.911 Y5.123
N12760 X-3.786 Y4.763
N12765 X-3.728 Y4.583
N12770 X-3.684 Y4.439
N12775 X-3.634 Y4.223
N12780 X-3.604 Y4.043
N12785 X-3.585 Y3.863
N12790 X-3.577 Y3.683
N12795 X-3.58 Y3.503
N12800 X-3.589 Y3.323
N12805 X-3.613 Y3.143
N12810 X-3.649 Y2.963
N12815 X-3.684 Y2.81
N12820 X-3.748 Y2.603
N12825 X-3.817 Y2.423
N12830 X-3.864 Y2.309
N12835 X-3.896 Y2.244
N12840 X-3.991 Y2.064
N12845 X-4.044 Y1.97
N12850 X-4.099 Y1.884
N12855 X-4.223 Y1.704
N12860 X-4.404 Y1.477
N12865 X-4.523 Y1.344
N12870 X-4.584 Y1.281
N12875 X-4.702 Y1.164
N12880 X-4.764 Y1.108
N12885 X-4.905 Y0.984
N12890 X-4.944 Y0.951
N12895 X-5.124 Y0.809
N12900 X-5.303 Y0.673
N12905 X-5.374 Y0.624
N12910 X-5.483 Y0.548
N12915 X-5.642 Y0.444
N12920 X-5.843 Y0.317
N12925 X-5.928 Y0.264
N12930 X-6.203 Y0.103
N12935 X-6.236 Y0.084
N12940 X-6.383 Y0.003
N12945 X-6.564 Y-0.096
N12950 X-6.743 Y-0.189
N12955 X-6.912 Y-0.276
N12960 X-7.103 Y-0.371
N12965 X-7.283 Y-0.457
N12970 X-7.463 Y-0.542
N12975 G3 X-7.487 Y-1.595 I0.275 J-0.533
N12980 G1 X-7.418 Y-1.619 Z-1.595
N12985 X-7.349 Y-1.644 Z-1.582
N12990 X-7.283 Y-1.667 Z-1.559
N12995 X-7.234 Y-1.671 Z-1.537
N13000 X-7.188 Y-1.675 Z-1.511
N13005 X-7.123 Y-1.663 Z-1.464
N13010 X-7.065 Y-1.653 Z-1.409
N13015 X-7.015 Y-1.643 Z-1.346
N13020 X-6.974 Y-1.636 Z-1.277
N13025 X-6.946 Y-1.623 Z-1.207
N13030 X-6.926 Y-1.615 Z-1.133
N13035 X-6.916 Y-1.61 Z-1.067
N13040 X-6.912 Y-1.608 Z-1.
N13045 G0 Z5.
N13050 X-79.662 Y23.274
N13055 Z-0.3
N13060 G1 Z-0.9 F100.
N13065 X-79.666 Y23.267 Z-0.994
N13070 X-79.677 Y23.248 Z-1.085
N13075 X-79.696 Y23.217 Z-1.172
N13080 X-79.721 Y23.175 Z-1.253
N13085 X-79.752 Y23.123 Z-1.324
N13090 X-79.789 Y23.061 Z-1.385
N13095 X-79.83 Y22.992 Z-1.435
N13100 X-79.874 Y22.917 Z-1.471
N13105 X-79.921 Y22.839 Z-1.493
N13110 X-79.969 Y22.758 Z-1.5
N13115 G3 X-80.5 Y20.949 I3.265 J-1.941
N13120 G1 Y20.419
N13125 Y20.326
N13130 X-80.498 Y20.296
N13135 X-80.492 Y20.253
N13140 X-80.483 Y20.212
N13145 X-80.469 Y20.167
N13150 X-80.447 Y20.112
N13155 X-80.318 Y19.922
N13160 X-80.142 Y19.775
N13165 X-79.932 Y19.682
N13170 X-79.705 Y19.65
N13175 G3 X-79.115 Y20.607 I-0.024 J0.675
N13180 X-79.142 Y20.66 I-0.659 J-0.303
N13185 X-80.5 Y20.326 I-0.632 J-0.356
N13190 G1 X-80.499 Y20.239
N13195 X-80.488 Y20.149
N13200 X-80.462 Y20.059
N13205 X-80.42 Y19.969
N13210 X-80.358 Y19.879
N13215 X-80.345 Y19.863
N13220 X-80.3 Y19.815
N13225 X-80.255 Y19.776
N13230 X-80.21 Y19.745
N13235 X-80.165 Y19.718
N13240 X-80.124 Y19.699
N13245 X-80.055 Y19.674
N13250 X-79.985 Y19.658
N13255 X-79.805 Y19.65
N13260 X-66.129
N13265 X-65.949 Y19.652
N13270 X-61.45 Y19.771
N13275 X-61.27 Y19.776
N13280 X-61.09 Y19.782
N13285 X-60.19 Y19.812
N13290 X-60.01 Y19.825
N13295 X-55.691 Y20.168
N13300 X-55.511 Y20.184
N13305 X-55.331 Y20.201
N13310 X-55.151 Y20.218
N13315 X-54.612 Y20.272
N13320 X-54.432 Y20.291
N13325 X-54.252 Y20.31
N13330 X-49.753 Y20.909
N13335 X-49.573 Y20.938
N13340 X-48.853 Y21.058
N13345 X-48.673 Y21.088
N13350 X-48.385 Y21.138
N13355 X-44.174 Y21.928
N13360 X-43.994 Y21.965
N13365 X-43.814 Y22.002
N13370 X-43.094 Y22.172
N13375 X-42.899 Y22.218
N13380 X-42.734 Y22.257
N13385 X-42.554 Y22.301
N13390 X-42.152 Y22.398
N13395 X-38.415 Y23.306
N13400 X-38.236 Y23.348
N13405 X-38.056 Y23.388
N13410 X-37.876 Y23.427
N13415 X-36.976 Y23.609
N13420 X-36.733 Y23.658
N13425 X-36.616 Y23.681
N13430 X-34.816 Y24.033
N13435 X-34.636 Y24.064
N13440 X-34.456 Y24.092
N13445 X-34.276 Y24.108
N13450 X-34.097 Y24.123
N13455 X-33.557 Y24.166
N13460 X-33.197 Y24.194
N13465 X-33.146 Y24.198
N13470 X-32.657 Y24.222
N13475 X-31.397 Y24.286
N13480 X-31.217 Y24.295
N13485 X-31.037 Y24.302
N13490 X-30.857 Y24.306
N13495 X-30.497 Y24.305
N13500 X-30.317 Y24.304
N13505 X-30.137 Y24.296
N13510 X-29.958 Y24.288
N13515 X-29.778 Y24.276
N13520 X-29.598 Y24.264
N13525 X-29.418 Y24.25
N13530 X-29.238 Y24.234
N13535 X-27.438 Y24.067
N13540 X-27.258 Y24.047
N13545 X-27.078 Y24.027
N13550 X-26.898 Y24.006
N13555 X-26.718 Y23.982
N13560 X-26.538 Y23.956
N13565 X-26.358 Y23.925
N13570 X-26.178 Y23.894
N13575 X-25.998 Y23.862
N13580 X-25.877 Y23.838
N13585 X-25.819 Y23.824
N13590 X-25.459 Y23.74
N13595 X-25.279 Y23.697
N13600 X-25.099 Y23.654
N13605 X-23.299 Y23.222
N13610 X-23.119 Y23.174
N13615 X-22.939 Y23.125
N13620 X-22.759 Y23.071
N13625 X-22.579 Y23.017
N13630 X-22.399 Y22.962
N13635 X-22.327 Y22.938
N13640 X-22.219 Y22.899
N13645 X-21.83 Y22.758
N13650 X-21.68 Y22.702
N13655 X-21.367 Y22.578
N13660 X-19.88 Y21.986
N13665 X-19.7 Y21.913
N13670 X-19.52 Y21.838
N13675 X-19.34 Y21.761
N13680 X-19.149 Y21.678
N13685 X-18.98 Y21.602
N13690 X-18.8 Y21.513
N13695 X-18.411 Y21.318
N13700 X-18.26 Y21.237
N13705 X-18.08 Y21.135
N13710 X-17.72 Y20.929
N13715 X-16.101 Y19.998
N13720 X-15.921 Y19.891
N13725 X-15.741 Y19.778
N13730 X-15.617 Y19.699
N13735 X-15.381 Y19.545
N13740 X-15.341 Y19.519
N13745 X-15.201 Y19.423
N13750 X-15.085 Y19.339
N13755 X-14.841 Y19.159
N13760 X-14.661 Y19.024
N13765 X-14.481 Y18.886
N13770 X-14.369 Y18.799
N13775 X-13.22 Y17.899
N13780 X-13.042 Y17.758
N13785 X-12.862 Y17.612
N13790 X-12.773 Y17.539
N13795 X-12.502 Y17.313
N13800 X-12.346 Y17.179
N13805 X-12.322 Y17.157
N13810 X-12.142 Y16.989
N13815 X-11.962 Y16.819
N13820 X-11.775 Y16.64
N13825 X-11.602 Y16.466
N13830 X-10.522 Y15.337
N13835 X-10.392 Y15.2
N13840 X-10.221 Y15.02
N13845 X-9.883 Y14.66
N13850 X-9.802 Y14.569
N13855 X-9.622 Y14.358
N13860 X-9.425 Y14.12
N13865 X-9.279 Y13.94
N13870 X-9.142 Y13.76
N13875 X-9.083 Y13.682
N13880 X-8.619 Y13.041
N13885 X-8.362 Y12.681
N13890 X-7.719 Y11.781
N13895 X-7.643 Y11.673
N13900 X-7.593 Y11.601
N13905 X-7.467 Y11.421
N13910 X-7.357 Y11.241
N13915 X-6.923 Y10.521
N13920 X-6.818 Y10.341
N13925 X-6.743 Y10.206
N13930 X-6.069 Y8.902
N13935 X-5.978 Y8.722
N13940 X-5.888 Y8.542
N13945 X-5.448 Y7.642
N13950 X-5.37 Y7.462
N13955 X-5.303 Y7.305
N13960 X-4.887 Y6.202
N13965 X-4.82 Y6.022
N13970 X-4.757 Y5.843
N13975 X-4.693 Y5.663
N13980 X-4.568 Y5.303
N13985 X-4.381 Y4.763
N13990 X-4.318 Y4.583
N13995 X-4.257 Y4.403
N14000 X-4.224 Y4.297
N14005 X-4.203 Y4.223
N14010 X-4.162 Y4.043
N14015 X-4.127 Y3.863
N14020 X-4.107 Y3.683
N14025 X-4.096 Y3.503
N14030 X-4.093 Y3.323
N14035 X-4.104 Y3.143
N14040 X-4.125 Y2.963
N14045 X-4.153 Y2.783
N14050 X-4.197 Y2.603
N14055 X-4.224 Y2.5
N14060 X-4.312 Y2.244
N14065 X-4.404 Y2.039
N14070 X-4.479 Y1.884
N14075 X-4.584 Y1.704
N14080 X-4.708 Y1.524
N14085 X-4.764 Y1.443
N14090 X-4.841 Y1.344
N14095 X-4.944 Y1.223
N14100 X-4.996 Y1.164
N14105 X-5.124 Y1.034
N14110 X-5.303 Y0.86
N14115 X-5.367 Y0.804
N14120 X-5.586 Y0.624
N14125 X-5.663 Y0.562
N14130 X-5.843 Y0.432
N14135 X-6.023 Y0.306
N14140 X-6.085 Y0.264
N14145 X-6.203 Y0.187
N14150 X-6.383 Y0.076
N14155 X-6.563 Y-0.034
N14160 X-6.671 Y-0.096
N14165 X-6.743 Y-0.137
N14170 X-6.923 Y-0.237
N14175 X-7.103 Y-0.334
N14180 X-7.283 Y-0.428
N14185 X-7.463 Y-0.52
N14190 X-7.643 Y-0.608
N14195 X-7.699 Y-0.636
N14200 X-7.823 Y-0.696
N14205 X-8.003 Y-0.779
N14210 G3 X-8.035 Y-1.832 I0.271 J-0.535
N14215 G1 X-7.966 Y-1.857 Z-1.495
N14220 X-7.897 Y-1.882 Z-1.482
N14225 X-7.831 Y-1.906 Z-1.459
N14230 X-7.78 Y-1.91 Z-1.436
N14235 X-7.731 Y-1.914 Z-1.409
N14240 X-7.666 Y-1.902 Z-1.36
N14245 X-7.609 Y-1.892 Z-1.303
N14250 X-7.559 Y-1.882 Z-1.239
N14255 X-7.518 Y-1.875 Z-1.168
N14260 X-7.492 Y-1.864 Z-1.102
N14265 X-7.473 Y-1.856 Z-1.033
N14270 X-7.463 Y-1.851 Z-0.967
N14275 X-7.46 Y-1.849 Z-0.9
N14280 G0 Z5.
N14285 X-79.662 Y22.734
N14290 Z-0.2
N14295 G1 Z-0.8 F100.
N14300 X-79.666 Y22.727 Z-0.894
N14305 X-79.677 Y22.709 Z-0.985
N14310 X-79.696 Y22.678 Z-1.072
N14315 X-79.721 Y22.635 Z-1.153
N14320 X-79.752 Y22.583 Z-1.224
N14325 X-79.789 Y22.521 Z-1.285
N14330 X-79.83 Y22.452 Z-1.335
N14335 X-79.874 Y22.377 Z-1.371
N14340 X-79.921 Y22.299 Z-1.393
N14345 X-79.969 Y22.218 Z-1.4
N14350 G3 X-80.5 Y20.41 I3.265 J-1.941
N14355 G1 Y19.78
N14360 X-80.498 Y19.739
N14365 X-80.492 Y19.696
N14370 X-80.483 Y19.655
N14375 X-80.47 Y19.61
N14380 X-80.449 Y19.556
N14385 X-80.32 Y19.365
N14390 X-80.144 Y19.216
N14395 X-79.933 Y19.122
N14400 X-79.705 Y19.09
N14405 G3 X-79.101 Y20.044 I-0.024 J0.683
N14410 X-79.139 Y20.119 I-0.669 J-0.29
N14415 X-80.5 Y19.78 I-0.632 J-0.365
N14420 G1 Y19.699
N14425 X-80.493 Y19.609
N14430 X-80.471 Y19.519
N14435 X-80.434 Y19.429
N14440 X-80.408 Y19.384
N14445 X-80.377 Y19.339
N14450 X-80.345 Y19.301
N14455 X-80.256 Y19.217
N14460 X-80.211 Y19.185
N14465 X-80.165 Y19.159
N14470 X-80.075 Y19.12
N14475 X-79.985 Y19.098
N14480 X-79.805 Y19.09
N14485 X-66.129
N14490 X-65.949 Y19.092
N14495 X-61.27 Y19.216
N14500 X-61.09 Y19.221
N14505 X-60.19 Y19.251
N14510 X-60.01 Y19.264
N14515 X-59.29 Y19.321
N14520 X-55.511 Y19.622
N14525 X-55.331 Y19.637
N14530 X-55.151 Y19.654
N14535 X-54.612 Y19.708
N14540 X-54.432 Y19.727
N14545 X-54.252 Y19.746
N14550 X-49.753 Y20.345
N14555 X-49.573 Y20.372
N14560 X-49.393 Y20.399
N14565 X-49.275 Y20.419
N14570 X-48.853 Y20.489
N14575 X-48.673 Y20.52
N14580 X-48.493 Y20.551
N14585 X-48.313 Y20.583
N14590 X-43.994 Y21.392
N14595 X-43.814 Y21.426
N14600 X-42.914 Y21.639
N14605 X-42.734 Y21.681
N14610 X-42.554 Y21.725
N14615 X-42.195 Y21.812
N14620 X-38.299 Y22.758
N14625 X-38.056 Y22.816
N14630 X-37.876 Y22.856
N14635 X-37.696 Y22.893
N14640 X-36.976 Y23.039
N14645 X-36.796 Y23.075
N14650 X-36.616 Y23.111
N14655 X-34.741 Y23.478
N14660 X-34.636 Y23.497
N14665 X-34.456 Y23.529
N14670 X-34.276 Y23.546
N14675 X-34.097 Y23.563
N14680 X-33.557 Y23.606
N14685 X-33.377 Y23.62
N14690 X-33.197 Y23.633
N14695 X-33.017 Y23.643
N14700 X-31.217 Y23.733
N14705 X-31.037 Y23.741
N14710 X-30.857 Y23.746
N14715 X-30.677
N14720 X-30.497 Y23.745
N14725 X-30.317 Y23.744
N14730 X-30.137 Y23.736
N14735 X-29.958 Y23.727
N14740 X-29.778 Y23.715
N14745 X-29.598 Y23.702
N14750 X-29.418 Y23.687
N14755 X-29.238 Y23.671
N14760 X-27.438 Y23.504
N14765 X-27.204 Y23.478
N14770 X-27.078 Y23.463
N14775 X-26.898 Y23.442
N14780 X-26.718 Y23.417
N14785 X-26.538 Y23.388
N14790 X-26.358 Y23.357
N14795 X-26.178 Y23.325
N14800 X-25.998 Y23.288
N14805 X-25.819 Y23.249
N14810 X-25.639 Y23.206
N14815 X-25.459 Y23.164
N14820 X-25.266 Y23.118
N14825 X-23.659 Y22.732
N14830 X-23.299 Y22.645
N14835 X-23.064 Y22.578
N14840 X-22.939 Y22.541
N14845 X-22.759 Y22.488
N14850 X-22.579 Y22.43
N14855 X-22.399 Y22.368
N14860 X-22.219 Y22.304
N14865 X-22.039 Y22.238
N14870 X-21.859 Y22.169
N14875 X-21.68 Y22.099
N14880 X-20.171 Y21.498
N14885 X-20.06 Y21.454
N14890 X-19.88 Y21.381
N14895 X-19.729 Y21.318
N14900 X-19.52 Y21.229
N14905 X-19.317 Y21.138
N14910 X-19.16 Y21.068
N14915 X-18.942 Y20.958
N14920 X-18.8 Y20.887
N14925 X-18.59 Y20.778
N14930 X-18.44 Y20.695
N14935 X-18.08 Y20.489
N14940 X-17.645 Y20.239
N14945 X-16.393 Y19.519
N14950 X-16.281 Y19.454
N14955 X-16.101 Y19.345
N14960 X-15.921 Y19.229
N14965 X-15.741 Y19.112
N14970 X-15.561 Y18.988
N14975 X-15.381 Y18.861
N14980 X-15.296 Y18.799
N14985 X-15.053 Y18.619
N14990 X-14.841 Y18.456
N14995 X-14.819 Y18.439
N15000 X-13.441 Y17.359
N15005 X-13.217 Y17.179
N15010 X-13.042 Y17.034
N15015 X-12.862 Y16.884
N15020 X-12.786 Y16.82
N15025 X-12.682 Y16.728
N15030 X-12.587 Y16.64
N15035 X-12.206 Y16.28
N15040 X-12.142 Y16.217
N15045 X-11.856 Y15.92
N15050 X-10.824 Y14.84
N15055 X-10.702 Y14.713
N15060 X-10.653 Y14.66
N15065 X-10.483 Y14.48
N15070 X-10.314 Y14.3
N15075 X-10.162 Y14.128
N15080 X-10.002 Y13.94
N15085 X-9.802 Y13.7
N15090 X-9.706 Y13.58
N15095 X-9.622 Y13.472
N15100 X-9.57 Y13.4
N15105 X-9.181 Y12.861
N15110 X-9.083 Y12.725
N15115 X-8.152 Y11.421
N15120 X-8.023 Y11.241
N15125 X-8.003 Y11.211
N15130 X-7.903 Y11.061
N15135 X-7.793 Y10.881
N15140 X-7.684 Y10.701
N15145 X-7.463 Y10.335
N15150 X-7.359 Y10.161
N15155 X-7.262 Y9.981
N15160 X-7.166 Y9.801
N15165 X-6.515 Y8.542
N15170 X-6.423 Y8.362
N15175 X-6.383 Y8.281
N15180 X-6.334 Y8.182
N15185 X-6.07 Y7.642
N15190 X-5.983 Y7.462
N15195 X-5.898 Y7.282
N15200 X-5.843 Y7.149
N15205 X-5.824 Y7.102
N15210 X-5.483 Y6.199
N15215 X-5.417 Y6.022
N15220 X-5.303 Y5.706
N15225 X-5.226 Y5.483
N15230 X-5.1 Y5.123
N15235 X-4.913 Y4.583
N15240 X-4.851 Y4.403
N15245 X-4.764 Y4.143
N15250 X-4.736 Y4.043
N15255 X-4.687 Y3.863
N15260 X-4.654 Y3.683
N15265 X-4.628 Y3.503
N15270 X-4.613 Y3.323
N15275 X-4.611 Y3.143
N15280 X-4.617 Y2.963
N15285 X-4.634 Y2.783
N15290 X-4.664 Y2.603
N15295 X-4.701 Y2.423
N15300 X-4.751 Y2.244
N15305 X-4.764 Y2.199
N15310 X-4.813 Y2.064
N15315 X-4.887 Y1.884
N15320 X-4.973 Y1.704
N15325 X-5.074 Y1.524
N15330 X-5.124 Y1.44
N15335 X-5.19 Y1.344
N15340 X-5.323 Y1.164
N15345 X-5.473 Y0.984
N15350 X-5.639 Y0.804
N15355 X-5.663 Y0.779
N15360 X-5.843 Y0.615
N15365 X-6.023 Y0.46
N15370 X-6.275 Y0.264
N15375 X-6.383 Y0.188
N15380 X-6.563 Y0.063
N15385 X-6.743 Y-0.055
N15390 X-6.808 Y-0.096
N15395 X-6.923 Y-0.166
N15400 X-7.108 Y-0.276
N15405 X-7.283 Y-0.378
N15410 X-7.463 Y-0.477
N15415 X-7.643 Y-0.573
N15420 X-7.823 Y-0.668
N15425 X-8.003 Y-0.759
N15430 X-8.117 Y-0.816
N15435 X-8.183 Y-0.847
N15440 X-8.363 Y-0.933
N15445 G3 X-8.384 Y-1.986 I0.277 J-0.532
N15450 G1 X-8.314 Y-2.011 Z-1.395
N15455 X-8.245 Y-2.035 Z-1.382
N15460 X-8.179 Y-2.058 Z-1.359
N15465 X-8.131 Y-2.062 Z-1.338
N15470 X-8.086 Y-2.065 Z-1.313
N15475 X-8.021 Y-2.053 Z-1.266
N15480 X-7.964 Y-2.043 Z-1.211
N15485 X-7.914 Y-2.034 Z-1.149
N15490 X-7.872 Y-2.026 Z-1.081
N15495 X-7.842 Y-2.013 Z-1.009
N15500 X-7.822 Y-2.004 Z-0.933
N15505 X-7.812 Y-1.999 Z-0.867
N15510 X-7.808 Y-1.997 Z-0.8
N15515 G0 Z5.
N15520 X-79.662 Y22.194
N15525 Z-0.1
N15530 G1 Z-0.7 F100.
N15535 X-79.666 Y22.188 Z-0.794
N15540 X-79.677 Y22.169 Z-0.885
N15545 X-79.696 Y22.138 Z-0.972
N15550 X-79.721 Y22.095 Z-1.053
N15555 X-79.752 Y22.043 Z-1.124
N15560 X-79.789 Y21.981 Z-1.185
N15565 X-79.83 Y21.912 Z-1.235
N15570 X-79.874 Y21.838 Z-1.271
N15575 X-79.921 Y21.759 Z-1.293
N15580 X-79.969 Y21.678 Z-1.3
N15585 G3 X-80.5 Y19.87 I3.265 J-1.941
N15590 G1 Y19.24
N15595 X-80.497 Y19.179
N15600 X-80.491 Y19.136
N15605 X-80.482 Y19.095
N15610 X-80.469 Y19.051
N15615 X-80.448 Y18.996
N15620 X-80.319 Y18.805
N15625 X-80.143 Y18.656
N15630 X-79.932 Y18.562
N15635 X-79.704 Y18.53
N15640 G3 X-79.079 Y19.487 I-0.024 J0.698
N15645 X-80.5 Y19.24 I-0.685 J-0.273
N15650 G1 Y19.159
N15655 X-80.495 Y19.069
N15660 X-80.477 Y18.979
N15665 X-80.443 Y18.889
N15670 X-80.391 Y18.799
N15675 X-80.345 Y18.742
N15680 X-80.273 Y18.671
N15685 X-80.201 Y18.619
N15690 X-80.165 Y18.599
N15695 X-80.075 Y18.561
N15700 X-79.985 Y18.538
N15705 X-79.805 Y18.53
N15710 X-66.129
N15715 X-65.949 Y18.532
N15720 X-61.27 Y18.656
N15725 X-61.09 Y18.661
N15730 X-60.91 Y18.667
N15735 X-60.73 Y18.672
N15740 X-60.19 Y18.691
N15745 X-60.01 Y18.703
N15750 X-59.83 Y18.717
N15755 X-55.331 Y19.075
N15760 X-55.151 Y19.091
N15765 X-54.971 Y19.109
N15770 X-54.612 Y19.145
N15775 X-54.432 Y19.163
N15780 X-54.252 Y19.182
N15785 X-49.753 Y19.781
N15790 X-49.573 Y19.806
N15795 X-49.393 Y19.831
N15800 X-49.213 Y19.86
N15805 X-48.673 Y19.951
N15810 X-48.493 Y19.982
N15815 X-48.313 Y20.014
N15820 X-43.994 Y20.824
N15825 X-43.814 Y20.857
N15830 X-43.634 Y20.896
N15835 X-43.454 Y20.935
N15840 X-42.914 Y21.063
N15845 X-42.734 Y21.106
N15850 X-42.554 Y21.149
N15855 X-42.195 Y21.236
N15860 X-38.056 Y22.241
N15865 X-37.876 Y22.283
N15870 X-37.696 Y22.322
N15875 X-37.516 Y22.359
N15880 X-36.976 Y22.469
N15885 X-36.796 Y22.505
N15890 X-36.616 Y22.541
N15895 X-34.816 Y22.893
N15900 X-34.636 Y22.927
N15905 X-34.456 Y22.961
N15910 X-34.276 Y22.983
N15915 X-34.097 Y23.002
N15920 X-33.557 Y23.045
N15925 X-33.377 Y23.059
N15930 X-33.197 Y23.072
N15935 X-33.017 Y23.081
N15940 X-31.217 Y23.172
N15945 X-31.037 Y23.18
N15950 X-30.857 Y23.186
N15955 X-30.677
N15960 X-30.497
N15965 X-30.317 Y23.184
N15970 X-30.137 Y23.175
N15975 X-29.958 Y23.166
N15980 X-29.778 Y23.154
N15985 X-29.598 Y23.14
N15990 X-29.348 Y23.118
N15995 X-27.438 Y22.94
N16000 X-27.416 Y22.938
N16005 X-27.078 Y22.899
N16010 X-26.898 Y22.878
N16015 X-26.718 Y22.851
N16020 X-26.538 Y22.821
N16025 X-26.358 Y22.789
N16030 X-26.188 Y22.758
N16035 X-25.998 Y22.715
N16040 X-25.819 Y22.673
N16045 X-25.639 Y22.63
N16050 X-25.419 Y22.578
N16055 X-23.659 Y22.155
N16060 X-23.479 Y22.11
N16065 X-23.299 Y22.064
N16070 X-22.939 Y21.957
N16075 X-22.759 Y21.902
N16080 X-22.633 Y21.858
N16085 X-22.399 Y21.773
N16090 X-22.145 Y21.678
N16095 X-22.039 Y21.638
N16100 X-20.24 Y20.922
N16105 X-20.06 Y20.849
N16110 X-19.88 Y20.773
N16115 X-19.7 Y20.697
N16120 X-19.52 Y20.618
N16125 X-19.477 Y20.599
N16130 X-19.16 Y20.442
N16135 X-18.98 Y20.352
N16140 X-18.8 Y20.254
N16145 X-18.62 Y20.152
N16150 X-18.44 Y20.049
N16155 X-16.641 Y19.014
N16160 X-16.581 Y18.979
N16165 X-16.461 Y18.906
N16170 X-16.286 Y18.799
N16175 X-16.01 Y18.619
N16180 X-15.921 Y18.557
N16185 X-15.752 Y18.439
N16190 X-15.741 Y18.431
N16195 X-15.381 Y18.166
N16200 X-15.27 Y18.079
N16205 X-13.761 Y16.897
N16210 X-13.663 Y16.82
N16215 X-13.443 Y16.64
N16220 X-13.222 Y16.455
N16225 X-13.042 Y16.297
N16230 X-13.023 Y16.28
N16235 X-12.862 Y16.13
N16240 X-12.64 Y15.92
N16245 X-12.502 Y15.783
N16250 X-11.062 Y14.278
N16255 X-10.882 Y14.086
N16260 X-10.745 Y13.94
N16265 X-10.702 Y13.893
N16270 X-10.581 Y13.76
N16275 X-10.522 Y13.69
N16280 X-10.342 Y13.474
N16285 X-10.281 Y13.4
N16290 X-10.162 Y13.25
N16295 X-10.002 Y13.041
N16300 X-9.742 Y12.681
N16305 X-9.612 Y12.501
N16310 X-9.442 Y12.264
N16315 X-8.712 Y11.241
N16320 X-8.584 Y11.061
N16325 X-8.457 Y10.881
N16330 X-8.363 Y10.743
N16335 X-8.228 Y10.521
N16340 X-8.183 Y10.447
N16345 X-8.003 Y10.148
N16350 X-7.903 Y9.981
N16355 X-7.823 Y9.845
N16360 X-7.8 Y9.801
N16365 X-7.705 Y9.622
N16370 X-7.054 Y8.362
N16375 X-6.962 Y8.182
N16380 X-6.87 Y8.002
N16385 X-6.781 Y7.822
N16390 X-6.517 Y7.282
N16395 X-6.432 Y7.102
N16400 X-6.383 Y6.994
N16405 X-6.355 Y6.922
N16410 X-6.286 Y6.742
N16415 X-6.203 Y6.523
N16420 X-6.023 Y6.046
N16425 X-5.949 Y5.843
N16430 X-5.883 Y5.663
N16435 X-5.82 Y5.483
N16440 X-5.57 Y4.763
N16445 X-5.383 Y4.223
N16450 X-5.322 Y4.043
N16455 X-5.265 Y3.863
N16460 X-5.215 Y3.683
N16465 X-5.177 Y3.503
N16470 X-5.151 Y3.323
N16475 X-5.135 Y3.143
N16480 X-5.126 Y2.963
N16485 X-5.132 Y2.783
N16490 X-5.147 Y2.603
N16495 X-5.169 Y2.423
N16500 X-5.205 Y2.244
N16505 X-5.255 Y2.064
N16510 X-5.303 Y1.904
N16515 X-5.311 Y1.884
N16520 X-5.384 Y1.704
N16525 X-5.464 Y1.524
N16530 X-5.483 Y1.485
N16535 X-5.561 Y1.344
N16540 X-5.677 Y1.164
N16545 X-5.803 Y0.984
N16550 X-5.946 Y0.804
N16555 X-6.023 Y0.715
N16560 X-6.112 Y0.624
N16565 X-6.203 Y0.531
N16570 X-6.294 Y0.444
N16575 X-6.383 Y0.366
N16580 X-6.563 Y0.213
N16585 X-6.733 Y0.084
N16590 X-6.923 Y-0.057
N16595 X-6.979 Y-0.096
N16600 X-7.103 Y-0.178
N16605 X-7.251 Y-0.276
N16610 X-7.463 Y-0.408
N16615 X-7.543 Y-0.456
N16620 X-7.823 Y-0.617
N16625 X-7.855 Y-0.636
N16630 X-8.003 Y-0.717
N16635 X-8.187 Y-0.816
N16640 X-8.363 Y-0.906
N16645 X-8.543 Y-0.998
N16650 X-8.723 Y-1.086
N16655 X-8.903 Y-1.17
N16660 G3 X-8.93 Y-2.223 I0.274 J-0.534
N16665 G1 X-8.86 Y-2.248 Z-1.295
N16670 X-8.792 Y-2.272 Z-1.282
N16675 X-8.726 Y-2.296 Z-1.259
N16680 X-8.676 Y-2.3 Z-1.237
N16685 X-8.629 Y-2.304 Z-1.21
N16690 X-8.564 Y-2.292 Z-1.163
N16695 X-8.506 Y-2.282 Z-1.107
N16700 X-8.456 Y-2.272 Z-1.044
N16705 X-8.415 Y-2.265 Z-0.974
N16710 X-8.388 Y-2.253 Z-0.905
N16715 X-8.368 Y-2.245 Z-0.833
N16720 X-8.358 Y-2.24 Z-0.767
N16725 X-8.355 Y-2.238 Z-0.7
N16730 G0 Z5.
N16735 X-79.662 Y21.483
N16740 Z0.
N16745 G1 Z-0.6 F100.
N16750 X-79.666 Y21.477 Z-0.694
N16755 X-79.677 Y21.458 Z-0.785
N16760 X-79.696 Y21.427 Z-0.872
N16765 X-79.721 Y21.385 Z-0.953
N16770 X-79.752 Y21.332 Z-1.024
N16775 X-79.789 Y21.271 Z-1.085
N16780 X-79.83 Y21.202 Z-1.135
N16785 X-79.874 Y21.127 Z-1.171
N16790 X-79.921 Y21.048 Z-1.193
N16795 X-79.969 Y20.967 Z-1.2
N16800 G3 X-80.5 Y19.159 I3.265 J-1.941
N16805 G1 Y18.655
N16810 X-80.498 Y18.62
N16815 X-80.493 Y18.577
N16820 X-80.484 Y18.535
N16825 X-80.47 Y18.491
N16830 X-80.449 Y18.436
N16835 X-80.321 Y18.245
N16840 X-80.144 Y18.096
N16845 X-79.933 Y18.002
N16850 X-79.705 Y17.97
N16855 G3 X-79.106 Y18.924 I-0.024 J0.679
N16860 X-79.14 Y18.99 I-0.666 J-0.294
N16865 X-80.5 Y18.655 I-0.633 J-0.36
N16870 G1 Y18.619
N16875 X-80.498 Y18.529
N16880 X-80.482 Y18.439
N16885 X-80.452 Y18.349
N16890 X-80.405 Y18.259
N16895 X-80.345 Y18.181
N16900 X-80.288 Y18.125
N16905 X-80.231 Y18.079
N16910 X-80.165 Y18.039
N16915 X-80.075 Y18.001
N16920 X-79.985 Y17.978
N16925 X-79.805 Y17.97
N16930 X-66.129
N16935 X-65.949 Y17.972
N16940 X-61.09 Y18.101
N16945 X-60.91 Y18.106
N16950 X-60.73 Y18.112
N16955 X-60.19 Y18.13
N16960 X-60.01 Y18.142
N16965 X-59.83 Y18.156
N16970 X-55.331 Y18.514
N16975 X-55.151 Y18.529
N16980 X-54.971 Y18.545
N16985 X-54.792 Y18.563
N16990 X-54.612 Y18.581
N16995 X-54.432 Y18.599
N17000 X-54.252 Y18.618
N17005 X-49.393 Y19.265
N17010 X-49.213 Y19.293
N17015 X-49.033 Y19.322
N17020 X-48.673 Y19.382
N17025 X-48.493 Y19.413
N17030 X-48.313 Y19.445
N17035 X-43.814 Y20.288
N17040 X-43.634 Y20.323
N17045 X-43.454 Y20.36
N17050 X-42.914 Y20.487
N17055 X-42.734 Y20.53
N17060 X-42.554 Y20.573
N17065 X-42.375 Y20.616
N17070 X-38.002 Y21.678
N17075 X-37.876 Y21.708
N17080 X-37.696 Y21.751
N17085 X-37.516 Y21.789
N17090 X-36.976 Y21.899
N17095 X-36.796 Y21.935
N17100 X-36.616 Y21.971
N17105 X-34.816 Y22.323
N17110 X-34.431 Y22.398
N17115 X-34.276 Y22.419
N17120 X-34.097 Y22.442
N17125 X-33.557 Y22.485
N17130 X-33.377 Y22.498
N17135 X-33.197 Y22.511
N17140 X-33.017 Y22.52
N17145 X-31.217 Y22.61
N17150 X-31.037 Y22.619
N17155 X-30.857 Y22.625
N17160 X-30.677 Y22.626
N17165 X-30.497
N17170 X-30.317 Y22.625
N17175 X-30.137 Y22.615
N17180 X-29.958 Y22.604
N17185 X-29.778 Y22.592
N17190 X-29.598 Y22.578
N17195 X-27.438 Y22.377
N17200 X-27.258 Y22.356
N17205 X-27.078 Y22.335
N17210 X-26.898 Y22.312
N17215 X-26.718 Y22.284
N17220 X-26.538 Y22.253
N17225 X-26.358 Y22.219
N17230 X-26.178 Y22.182
N17235 X-25.998 Y22.139
N17240 X-25.819 Y22.097
N17245 X-25.459 Y22.011
N17250 X-23.659 Y21.578
N17255 X-23.479 Y21.53
N17260 X-23.362 Y21.498
N17265 X-23.299 Y21.481
N17270 X-23.119 Y21.427
N17275 X-22.939 Y21.37
N17280 X-22.759 Y21.308
N17285 X-22.579 Y21.243
N17290 X-22.399 Y21.177
N17295 X-22.301 Y21.138
N17300 X-20.24 Y20.318
N17305 X-20.052 Y20.239
N17310 X-19.88 Y20.164
N17315 X-19.7 Y20.082
N17320 X-19.65 Y20.059
N17325 X-19.52 Y19.997
N17330 X-19.286 Y19.879
N17335 X-19.16 Y19.813
N17340 X-18.957 Y19.699
N17345 X-18.44 Y19.402
N17350 X-17.001 Y18.575
N17355 X-16.767 Y18.439
N17360 X-16.641 Y18.362
N17365 X-16.461 Y18.245
N17370 X-16.281 Y18.127
N17375 X-16.211 Y18.079
N17380 X-16.101 Y18.
N17385 X-15.963 Y17.899
N17390 X-15.921 Y17.868
N17395 X-15.741 Y17.735
N17400 X-15.721 Y17.719
N17405 X-15.491 Y17.539
N17410 X-14.113 Y16.46
N17415 X-13.889 Y16.28
N17420 X-13.761 Y16.176
N17425 X-13.581 Y16.025
N17430 X-13.457 Y15.92
N17435 X-13.402 Y15.87
N17440 X-13.222 Y15.7
N17445 X-13.074 Y15.56
N17450 X-12.862 Y15.347
N17455 X-12.682 Y15.159
N17460 X-11.516 Y13.94
N17465 X-11.422 Y13.842
N17470 X-11.345 Y13.76
N17475 X-11.176 Y13.58
N17480 X-11.062 Y13.458
N17485 X-11.012 Y13.4
N17490 X-10.882 Y13.248
N17495 X-10.702 Y13.032
N17500 X-10.566 Y12.861
N17505 X-10.522 Y12.802
N17510 X-10.433 Y12.681
N17515 X-10.303 Y12.501
N17520 X-10.162 Y12.305
N17525 X-9.982 Y12.054
N17530 X-9.016 Y10.701
N17535 X-8.889 Y10.521
N17540 X-8.773 Y10.341
N17545 X-8.723 Y10.26
N17550 X-8.663 Y10.161
N17555 X-8.446 Y9.801
N17560 X-8.363 Y9.66
N17565 X-8.341 Y9.622
N17570 X-8.244 Y9.442
N17575 X-7.463 Y7.931
N17580 X-7.407 Y7.822
N17585 X-7.316 Y7.642
N17590 X-7.283 Y7.575
N17595 X-7.052 Y7.102
N17600 X-6.966 Y6.922
N17605 X-6.888 Y6.742
N17610 X-6.816 Y6.562
N17615 X-6.612 Y6.022
N17620 X-6.545 Y5.843
N17625 X-6.478 Y5.663
N17630 X-6.383 Y5.391
N17635 X-5.915 Y4.043
N17640 X-5.843 Y3.835
N17645 X-5.797 Y3.683
N17650 X-5.744 Y3.503
N17655 X-5.705 Y3.323
N17660 X-5.675 Y3.143
N17665 X-5.653 Y2.963
N17670 X-5.646 Y2.783
N17675 X-5.647 Y2.603
N17680 X-5.657 Y2.423
N17685 X-5.663 Y2.371
N17690 X-5.682 Y2.244
N17695 X-5.714 Y2.064
N17700 X-5.757 Y1.884
N17705 X-5.813 Y1.704
N17710 X-5.843 Y1.612
N17715 X-5.881 Y1.524
N17720 X-5.96 Y1.344
N17725 X-6.023 Y1.221
N17730 X-6.055 Y1.164
N17735 X-6.162 Y0.984
N17740 X-6.285 Y0.804
N17745 X-6.383 Y0.672
N17750 X-6.424 Y0.624
N17755 X-6.563 Y0.464
N17760 X-6.582 Y0.444
N17765 X-6.743 Y0.283
N17770 X-6.763 Y0.264
N17775 X-6.923 Y0.117
N17780 X-6.961 Y0.084
N17785 X-7.184 Y-0.096
N17790 X-7.283 Y-0.17
N17795 X-7.463 Y-0.298
N17800 X-7.643 Y-0.422
N17805 X-7.823 Y-0.537
N17810 X-7.983 Y-0.636
N17815 X-8.003 Y-0.648
N17820 X-8.183 Y-0.755
N17825 X-8.363 Y-0.857
N17830 X-8.543 Y-0.957
N17835 X-8.615 Y-0.996
N17840 X-8.723 Y-1.053
N17845 X-8.903 Y-1.142
N17850 X-9.083 Y-1.229
N17855 X-9.263 Y-1.304
N17860 X-9.388 Y-1.355
N17865 X-9.622 Y-1.448
N17870 X-9.802 Y-1.516
N17875 G3 X-9.908 Y-2.564 I0.233 J-0.553
N17880 G1 X-9.841 Y-2.594 Z-1.195
N17885 X-9.775 Y-2.624 Z-1.182
N17890 X-9.71 Y-2.652 Z-1.159
N17895 X-9.637 Y-2.661 Z-1.124
N17900 X-9.569 Y-2.669 Z-1.08
N17905 X-9.511 Y-2.658 Z-1.028
N17910 X-9.459 Y-2.649 Z-0.969
N17915 X-9.416 Y-2.641 Z-0.904
N17920 X-9.381 Y-2.634 Z-0.833
N17925 X-9.356 Y-2.63 Z-0.759
N17930 X-9.35 Y-2.627 Z-0.733
N17935 X-9.339 Y-2.623 Z-0.667
N17940 X-9.336 Y-2.622 Z-0.6
N17945 G0 Z5.
N17950 X-79.662 Y20.934
N17955 Z0.1
N17960 G1 Z-0.5 F100.
N17965 X-79.666 Y20.928 Z-0.594
N17970 X-79.677 Y20.909 Z-0.685
N17975 X-79.696 Y20.878 Z-0.772
N17980 X-79.721 Y20.836 Z-0.853
N17985 X-79.752 Y20.783 Z-0.924
N17990 X-79.789 Y20.722 Z-0.985
N17995 X-79.83 Y20.653 Z-1.035
N18000 X-79.874 Y20.578 Z-1.071
N18005 X-79.921 Y20.499 Z-1.093
N18010 X-79.969 Y20.419 Z-1.1
N18015 G3 X-80.5 Y18.61 I3.265 J-1.941
N18020 G1 Y18.116
N18025 X-80.497 Y18.06
N18030 X-80.492 Y18.017
N18035 X-80.483 Y17.975
N18040 X-80.469 Y17.931
N18045 X-80.448 Y17.877
N18050 X-80.32 Y17.685
N18055 X-80.143 Y17.536
N18060 X-79.932 Y17.442
N18065 X-79.704 Y17.41
N18070 G3 X-79.084 Y18.367 I-0.024 J0.695
N18075 X-80.5 Y18.116 I-0.681 J-0.277
N18080 G1 Y18.079
N18085 X-80.499 Y17.989
N18090 X-80.486 Y17.899
N18095 X-80.459 Y17.809
N18100 X-80.415 Y17.719
N18105 X-80.345 Y17.624
N18110 X-80.302 Y17.577
N18115 X-80.258 Y17.539
N18120 X-80.212 Y17.506
N18125 X-80.165 Y17.479
N18130 X-80.075 Y17.441
N18135 X-79.985 Y17.418
N18140 X-79.805 Y17.41
N18145 X-66.129
N18150 X-65.949 Y17.413
N18155 X-60.91 Y17.546
N18160 X-60.73 Y17.551
N18165 X-60.37 Y17.563
N18170 X-60.19 Y17.569
N18175 X-60.01 Y17.581
N18180 X-59.83 Y17.595
N18185 X-55.151 Y17.967
N18190 X-54.971 Y17.982
N18195 X-54.792 Y17.999
N18200 X-54.612 Y18.017
N18205 X-54.432 Y18.035
N18210 X-54.252 Y18.054
N18215 X-49.393 Y18.701
N18220 X-49.213 Y18.727
N18225 X-49.033 Y18.753
N18230 X-48.757 Y18.799
N18235 X-48.673 Y18.813
N18240 X-48.493 Y18.844
N18245 X-48.313 Y18.876
N18250 X-43.634 Y19.753
N18255 X-43.454 Y19.788
N18260 X-43.274 Y19.828
N18265 X-43.094 Y19.869
N18270 X-42.734 Y19.953
N18275 X-42.554 Y19.997
N18280 X-37.696 Y21.177
N18285 X-37.516 Y21.217
N18290 X-37.336 Y21.256
N18295 X-36.976 Y21.329
N18300 X-36.796 Y21.365
N18305 X-36.616 Y21.401
N18310 X-34.456 Y21.824
N18315 X-34.276 Y21.853
N18320 X-34.246 Y21.858
N18325 X-34.097 Y21.88
N18330 X-33.917 Y21.895
N18335 X-33.737 Y21.91
N18340 X-33.557 Y21.924
N18345 X-33.377 Y21.937
N18350 X-33.197 Y21.949
N18355 X-33.017 Y21.959
N18360 X-31.037 Y22.058
N18365 X-30.857 Y22.065
N18370 X-30.677 Y22.067
N18375 X-30.497 Y22.066
N18380 X-30.317 Y22.064
N18385 X-30.137 Y22.054
N18390 X-29.958 Y22.043
N18395 X-29.778 Y22.029
N18400 X-29.598 Y22.014
N18405 X-27.438 Y21.813
N18410 X-27.258 Y21.793
N18415 X-27.078 Y21.771
N18420 X-26.898 Y21.745
N18425 X-26.718 Y21.716
N18430 X-26.538 Y21.685
N18435 X-26.504 Y21.678
N18440 X-26.358 Y21.646
N18445 X-26.178 Y21.606
N18450 X-25.998 Y21.563
N18455 X-25.726 Y21.498
N18460 X-24.019 Y21.088
N18465 X-23.839 Y21.045
N18470 X-23.659 Y21.001
N18475 X-23.507 Y20.958
N18480 X-23.479 Y20.95
N18485 X-23.299 Y20.896
N18490 X-23.119 Y20.839
N18495 X-22.939 Y20.778
N18500 X-22.759 Y20.713
N18505 X-22.579 Y20.645
N18510 X-22.399 Y20.574
N18515 X-20.6 Y19.858
N18520 X-20.42 Y19.785
N18525 X-20.215 Y19.699
N18530 X-20.06 Y19.63
N18535 X-19.88 Y19.549
N18540 X-19.816 Y19.519
N18545 X-19.52 Y19.371
N18550 X-19.462 Y19.339
N18555 X-19.34 Y19.27
N18560 X-19.16 Y19.169
N18565 X-18.8 Y18.962
N18570 X-17.264 Y18.079
N18575 X-17.001 Y17.925
N18580 X-16.956 Y17.899
N18585 X-16.821 Y17.812
N18590 X-16.679 Y17.719
N18595 X-16.641 Y17.694
N18600 X-16.421 Y17.539
N18605 X-16.281 Y17.438
N18610 X-16.101 Y17.302
N18615 X-15.941 Y17.179
N18620 X-14.301 Y15.894
N18625 X-14.112 Y15.74
N18630 X-13.897 Y15.56
N18635 X-13.761 Y15.439
N18640 X-13.507 Y15.2
N18645 X-13.402 Y15.095
N18650 X-13.328 Y15.02
N18655 X-13.222 Y14.912
N18660 X-11.948 Y13.58
N18665 X-11.777 Y13.4
N18670 X-11.602 Y13.215
N18675 X-11.422 Y13.02
N18680 X-11.287 Y12.861
N18685 X-11.242 Y12.806
N18690 X-11.138 Y12.681
N18695 X-10.998 Y12.501
N18700 X-10.882 Y12.346
N18705 X-10.702 Y12.096
N18710 X-10.605 Y11.961
N18715 X-9.577 Y10.521
N18720 X-9.442 Y10.333
N18725 X-9.321 Y10.161
N18730 X-9.263 Y10.068
N18735 X-9.209 Y9.981
N18740 X-9.098 Y9.801
N18745 X-8.99 Y9.622
N18750 X-8.903 Y9.473
N18755 X-8.785 Y9.262
N18760 X-8.723 Y9.145
N18765 X-7.946 Y7.642
N18770 X-7.823 Y7.401
N18775 X-7.763 Y7.282
N18780 X-7.643 Y7.038
N18785 X-7.587 Y6.922
N18790 X-7.463 Y6.667
N18795 X-7.418 Y6.562
N18800 X-7.346 Y6.382
N18805 X-7.278 Y6.202
N18810 X-7.103 Y5.74
N18815 X-7.075 Y5.663
N18820 X-7.011 Y5.483
N18825 X-6.947 Y5.303
N18830 X-6.448 Y3.863
N18835 X-6.383 Y3.673
N18840 X-6.327 Y3.503
N18845 X-6.277 Y3.323
N18850 X-6.232 Y3.143
N18855 X-6.199 Y2.963
N18860 X-6.178 Y2.783
N18865 X-6.164 Y2.603
N18870 X-6.163 Y2.423
N18875 X-6.173 Y2.244
N18880 X-6.189 Y2.064
N18885 X-6.222 Y1.884
N18890 X-6.264 Y1.704
N18895 X-6.315 Y1.524
N18900 X-6.383 Y1.335
N18905 X-6.454 Y1.164
N18910 X-6.544 Y0.984
N18915 X-6.651 Y0.804
N18920 X-6.743 Y0.657
N18925 X-6.901 Y0.444
N18930 X-6.923 Y0.418
N18935 X-7.056 Y0.264
N18940 X-7.103 Y0.214
N18945 X-7.231 Y0.084
N18950 X-7.283 Y0.033
N18955 X-7.425 Y-0.096
N18960 X-7.463 Y-0.13
N18965 X-7.643 Y-0.276
N18970 X-7.823 Y-0.415
N18975 X-7.879 Y-0.456
N18980 X-8.003 Y-0.541
N18985 X-8.183 Y-0.664
N18990 X-8.363 Y-0.779
N18995 X-8.422 Y-0.816
N19000 X-8.543 Y-0.889
N19005 X-8.724 Y-0.996
N19010 X-8.903 Y-1.09
N19015 X-9.083 Y-1.18
N19020 X-9.263 Y-1.263
N19025 X-9.442 Y-1.344
N19030 X-9.622 Y-1.421
N19035 X-9.802 Y-1.496
N19040 X-9.982 Y-1.569
N19045 X-10.162 Y-1.64
N19050 X-10.342 Y-1.702
N19055 X-10.522 Y-1.751
N19060 G3 X-10.726 Y-2.784 I0.18 J-0.572
N19065 G1 X-10.662 Y-2.821 Z-1.095
N19070 X-10.599 Y-2.856 Z-1.082
N19075 X-10.537 Y-2.891 Z-1.059
N19080 X-10.467 Y-2.903 Z-1.025
N19085 X-10.401 Y-2.914 Z-0.982
N19090 X-10.342 Y-2.924 Z-0.931
N19095 X-10.285 Y-2.916 Z-0.867
N19100 X-10.238 Y-2.909 Z-0.794
N19105 X-10.201 Y-2.904 Z-0.716
N19110 X-10.176 Y-2.9 Z-0.633
N19115 X-10.166 Y-2.897 Z-0.567
N19120 X-10.162 Y-2.896 Z-0.5
N19125 G0 Z5.
N19130 X-125.228 Y44.55
N19135 Z-1.8
N19140 G1 Z-2.4 F100.
N19145 X-125.224 Y44.543 Z-2.494
N19150 X-125.215 Y44.523 Z-2.585
N19155 X-125.199 Y44.491 Z-2.672
N19160 X-125.177 Y44.447 Z-2.753
N19165 X-125.149 Y44.392 Z-2.824
N19170 X-125.118 Y44.328 Z-2.885
N19175 X-125.082 Y44.256 Z-2.935
N19180 X-125.043 Y44.178 Z-2.971
N19185 X-125.002 Y44.096 Z-2.993
N19190 X-124.961 Y44.012 Z-3.
N19195 G3 X-123.945 Y42.425 I7.835 J3.895
N19200 G1 X-123.927 Y42.405
N19205 X-123.861 Y42.353
N19210 X-123.602 Y42.195
N19215 X-123.316 Y42.097
N19220 X-123.015 Y42.063
N19225 X-122.714 Y42.096
N19230 X-122.427 Y42.193
N19235 X-122.275 Y42.256
N19240 X-122.095 Y42.323
N19245 X-121.931 Y42.373
N19250 X-121.915 Y42.377
N19255 X-121.735 Y42.419
N19260 X-121.555 Y42.454
N19265 X-121.375 Y42.477
N19270 X-121.195 Y42.495
N19275 X-121.015 Y42.499
N19280 X-120.836 Y42.5
N19285 X-84.304
N19290 X-84.124
N19295 X-83.944 Y42.499
N19300 X-83.764 Y42.489
N19305 X-83.585 Y42.473
N19310 X-83.405 Y42.447
N19315 X-83.225 Y42.41
N19320 X-83.069 Y42.373
N19325 X-82.865 Y42.308
N19330 X-82.685 Y42.239
N19335 X-82.57 Y42.193
N19340 X-82.505 Y42.164
N19345 X-82.325 Y42.072
N19350 X-82.223 Y42.013
N19355 X-82.061 Y41.92
N19360 X-81.672 Y41.738
N19365 X-81.27 Y41.585
N19370 X-80.861 Y41.456
N19375 X-80.445 Y41.348
N19380 X-80.026 Y41.255
N19385 X-79.603 Y41.177
N19390 X-79.179 Y41.111
N19395 X-78.753 Y41.055
N19400 X-78.326 Y41.007
N19405 X-77.899 Y40.966
N19410 X-77.47 Y40.932
N19415 X-77.042 Y40.902
N19420 X-76.613 Y40.877
N19425 X-76.184 Y40.856
N19430 X-75.755 Y40.837
N19435 X-75.326 Y40.822
N19440 X-74.897 Y40.808
N19445 X-74.467 Y40.797
N19450 X-74.038 Y40.787
N19455 X-73.608 Y40.779
N19460 X-73.179 Y40.772
N19465 X-72.749 Y40.766
N19470 X-72.32 Y40.761
N19475 X-71.89 Y40.757
N19480 X-71.461 Y40.753
N19485 X-71.031 Y40.75
N19490 X-70.602 Y40.747
N19495 X-70.172 Y40.745
N19500 X-69.743 Y40.743
N19505 X-69.313 Y40.741
N19510 X-68.884 Y40.74
N19515 X-68.025 Y40.737
N19520 X-67.166 Y40.736
N19525 X-65.877 Y40.734
N19530 X-64.588 Y40.733
N19535 X-62.441 Y40.732
N19540 X-59.005 Y40.731
N19545 X-46.978
N19550 X-32.374
N19555 X-2.737
N19560 X-2.318 Y40.635
N19565 X-1.939 Y40.433
N19570 X-1.602 Y40.167
N19575 X-1.305 Y39.856
N19580 X-1.046 Y39.514
N19585 X-0.819 Y39.149
N19590 X-0.622 Y38.767
N19595 X-0.452 Y38.373
N19600 X-0.304 Y37.97
N19605 X-0.177 Y37.559
N19610 X-0.067 Y37.144
N19615 X0.027 Y36.725
N19620 X0.109 Y36.303
N19625 X0.178 Y35.88
N19630 X0.238 Y35.454
N19635 X0.29 Y35.028
N19640 X0.334 Y34.6
N19645 X0.371 Y34.173
N19650 X0.404 Y33.744
N19655 X0.431 Y33.316
N19660 X0.455 Y32.887
N19665 X0.475 Y32.458
N19670 X0.493 Y32.029
N19675 X0.507 Y31.599
N19680 X0.52 Y31.17
N19685 X0.531 Y30.741
N19690 X0.54 Y30.311
N19695 X0.548 Y29.882
N19700 X0.555 Y29.452
N19705 X0.56 Y29.023
N19710 X0.565 Y28.593
N19715 X0.57 Y28.164
N19720 X0.573 Y27.734
N19725 X0.576 Y27.305
N19730 X0.579 Y26.875
N19735 X0.581 Y26.446
N19740 X0.583 Y26.016
N19745 X0.585 Y25.587
N19750 X0.586 Y25.157
N19755 X0.588 Y24.298
N19760 X0.59 Y23.439
N19765 X0.591 Y22.15
N19770 X0.592 Y21.291
N19775 X0.593 Y19.573
N19780 X0.594 Y16.567
N19785 Y14.667
N19790 X0.615 Y14.423
N19795 X0.679 Y14.187
N19800 X0.782 Y13.965
N19805 X0.797 Y13.94
N19810 X0.899 Y13.76
N19815 X0.995 Y13.568
N19820 X1.077 Y13.4
N19825 X1.355 Y12.832
N19830 X1.422 Y12.681
N19835 X1.498 Y12.501
N19840 X1.563 Y12.321
N19845 X1.623 Y12.141
N19850 X1.676 Y11.961
N19855 X1.715 Y11.814
N19860 X1.723 Y11.781
N19865 X1.77 Y11.601
N19870 X1.811 Y11.421
N19875 X1.852 Y11.241
N19880 X1.895 Y11.04
N19885 X1.927 Y10.881
N19890 X1.963 Y10.701
N19895 X1.997 Y10.521
N19900 X2.03 Y10.341
N19905 X2.075 Y10.09
N19910 X2.093 Y9.981
N19915 X2.121 Y9.801
N19920 X2.144 Y9.622
N19925 X2.164 Y9.442
N19930 X2.203 Y9.082
N19935 X2.222 Y8.902
N19940 X2.241 Y8.722
N19945 X2.259 Y8.542
N19950 X2.294 Y8.182
N19955 X2.328 Y7.822
N19960 X2.361 Y7.462
N19965 X2.392 Y7.102
N19970 X2.408 Y6.922
N19975 X2.438 Y6.562
N19980 X2.45 Y6.382
N19985 X2.46 Y6.202
N19990 X2.459 Y6.022
N19995 X2.448 Y5.843
N20000 X2.435 Y5.688
N20005 X2.431 Y5.663
N20010 X2.401 Y5.483
N20015 X2.362 Y5.303
N20020 X2.316 Y5.123
N20025 X2.255 Y4.941
N20030 X2.182 Y4.763
N20035 X2.102 Y4.583
N20040 X2.075 Y4.529
N20045 X2.007 Y4.403
N20050 X1.895 Y4.225
N20055 X1.872 Y4.188
N20060 X1.678 Y3.811
N20065 X1.513 Y3.415
N20070 X1.374 Y3.008
N20075 X1.257 Y2.595
N20080 X1.118 Y2.188
N20085 X0.892 Y1.823
N20090 X0.609 Y1.5
N20095 X0.287 Y1.216
N20100 X-0.063 Y0.968
N20105 X-0.434 Y0.751
N20110 X-0.821 Y0.563
N20115 X-1.218 Y0.401
N20120 X-1.624 Y0.26
N20125 X-2.036 Y0.139
N20130 X-2.453 Y0.034
N20135 X-2.873 Y-0.055
N20140 X-3.295 Y-0.133
N20145 X-3.72 Y-0.199
N20150 X-4.145 Y-0.256
N20155 X-4.572 Y-0.305
N20160 X-5. Y-0.347
N20165 X-5.428 Y-0.383
N20170 X-5.856 Y-0.413
N20175 X-6.285 Y-0.44
N20180 X-6.714 Y-0.462
N20185 X-7.074 Y-0.478
N20190 X-7.246 Y-0.496
N20195 X-7.413 Y-0.536
N20200 X-7.575 Y-0.595
N20205 X-8.903 Y-1.179
N20210 X-9.083 Y-1.257
N20215 X-9.263 Y-1.328
N20220 X-9.339 Y-1.355
N20225 X-9.845 Y-1.535
N20230 X-9.982 Y-1.584
N20235 X-10.162 Y-1.648
N20240 X-10.342 Y-1.708
N20245 X-10.522 Y-1.758
N20250 X-10.702 Y-1.801
N20255 X-10.882 Y-1.838
N20260 X-11.172 Y-1.895
N20265 X-11.422 Y-1.944
N20270 X-11.602 Y-1.979
