%
(1)
(T1  D=6. CR=0. - ZMIN=-12.498 - FLAT END MILL)
N10 G90 G94 G17 G91.1
N15 G21
N20 G53 G0 Z0.
(ADAPTIVE2)
N25 M9
N30 T1 M6
N35 S2500 M3
N40 G54
N45 M8
N55 G0 X-4.153 Y-3.55
N60 G43 Z5. H1
N65 G0 Z-0.8
N70 G1 Z-1.4 F100.
N75 X-4.146 Y-3.547 Z-1.494
N80 X-4.127 Y-3.535 Z-1.585
N85 X-4.096 Y-3.517 Z-1.672
N90 X-4.054 Y-3.492 Z-1.753
N95 X-4.001 Y-3.461 Z-1.824
N100 X-3.94 Y-3.424 Z-1.885
N105 X-3.871 Y-3.384 Z-1.935
N110 X-3.796 Y-3.339 Z-1.971
N115 X-3.717 Y-3.293 Z-1.993
N120 X-3.636 Y-3.245 Z-2.
N125 G3 X-2.127 Y-2.115 I-4.458 J7.529
N130 G1 X-2.11 Y-2.098
N135 X-2.092 Y-2.074
N140 X-2.074 Y-2.05
N145 X-2.056 Y-2.026
N150 X-2.039 Y-2.002
N155 X-2.021 Y-1.978
N160 X-2.004 Y-1.953
N165 X-1.987 Y-1.929
N170 X-1.97 Y-1.904
N175 X-1.953 Y-1.879
N180 X-1.936 Y-1.853
N185 X-1.92 Y-1.828
N190 X-1.903 Y-1.801
N195 X-1.886 Y-1.774
N200 X-1.868 Y-1.746
N205 X-1.851 Y-1.718
N210 X-1.834 Y-1.689
N215 X-1.816 Y-1.659
N220 X-1.799 Y-1.629
N225 X-1.781 Y-1.598
N230 X-1.764 Y-1.566
N235 X-1.746 Y-1.534
N240 X-1.728 Y-1.501
N245 X-1.71 Y-1.467
N250 X-1.692 Y-1.432
N255 X-1.674 Y-1.396
N260 X-1.655 Y-1.36
N265 X-1.637 Y-1.323
N270 X-1.618 Y-1.285
N275 X-1.6 Y-1.246
N280 X-1.581 Y-1.206
N285 X-1.562 Y-1.165
N290 X-1.544 Y-1.123
N295 X-1.525 Y-1.08
N300 X-1.506 Y-1.036
N305 X-1.487 Y-0.991
N310 X-1.468 Y-0.945
N315 X-1.448 Y-0.897
N320 X-1.429 Y-0.849
N325 X-1.41 Y-0.799
N330 X-1.39 Y-0.747
N335 X-1.371 Y-0.695
N340 X-1.351 Y-0.641
N345 X-1.332 Y-0.586
N350 X-1.312 Y-0.529
N355 X-1.292 Y-0.47
N360 X-1.272 Y-0.41
N365 X-1.252 Y-0.348
N370 X-1.232 Y-0.284
N375 X-1.212 Y-0.219
N380 X-1.192 Y-0.151
N385 X-1.179 Y-0.108
N390 X-1.129 Y0.164
N395 X-1.133 Y0.44
N400 X-1.191 Y0.71
N405 X-1.3 Y0.963
N410 X-1.354 Y1.06
N415 X-1.39 Y1.129
N420 X-1.756 Y1.848
N425 X-1.847 Y2.027
N430 X-1.938 Y2.207
N435 X-2.02 Y2.387
N440 X-2.074 Y2.519
N445 X-2.091 Y2.566
N450 X-2.15 Y2.746
N455 X-2.199 Y2.926
N460 X-2.241 Y3.105
N465 X-2.271 Y3.285
N470 X-2.3 Y3.464
N475 X-2.443 Y4.363
N480 X-2.467 Y4.542
N485 X-2.487 Y4.722
N490 X-2.497 Y4.901
N495 X-2.5 Y5.081
N500 Y5.261
N505 Y42.265
N510 Y42.445
N515 X-2.497 Y42.624
N520 X-2.487 Y42.804
N525 X-2.467 Y42.984
N530 X-2.443 Y43.163
N535 X-2.3 Y44.061
N540 X-2.271 Y44.241
N545 X-2.241 Y44.421
N550 X-2.199 Y44.6
N555 X-2.15 Y44.78
N560 X-2.091 Y44.96
N565 X-2.074 Y45.007
N570 X-2.02 Y45.139
N575 X-1.938 Y45.319
N580 X-1.847 Y45.499
N585 X-1.756 Y45.678
N590 X-1.39 Y46.397
N595 X-1.354 Y46.466
N600 X-1.293 Y46.576
N605 X-1.174 Y46.774
N610 X-1.065 Y46.936
N615 X-0.994 Y47.028
N620 X-0.925 Y47.115
N625 X-0.814 Y47.243
N630 X-0.765 Y47.295
N635 X-0.634 Y47.428
N640 X0.13 Y48.193
N645 X0.265 Y48.325
N650 X0.32 Y48.373
N655 X0.445 Y48.48
N660 X0.539 Y48.552
N665 X0.625 Y48.617
N670 X0.805 Y48.732
N675 X0.985 Y48.841
N680 X1.121 Y48.912
N685 X1.885 Y49.301
N690 X2.245 Y49.483
N695 X2.425 Y49.562
N700 X2.607 Y49.63
N705 X2.785 Y49.689
N710 X2.965 Y49.734
N715 X3.145 Y49.774
N720 X3.325 Y49.804
N725 X4.225 Y49.947
N730 X4.404 Y49.974
N735 X4.584 Y49.999
N740 X4.764 Y50.015
N745 X4.944 Y50.025
N750 X5.124 Y50.026
N755 X5.304
N760 X46.696
N765 X46.876
N770 X47.056 Y50.025
N775 X47.236 Y50.015
N780 X47.416 Y49.999
N785 X47.596 Y49.974
N790 X47.775 Y49.947
N795 X48.675 Y49.804
N800 X48.855 Y49.774
N805 X49.035 Y49.734
N810 X49.215 Y49.689
N815 X49.395 Y49.629
N820 X49.575 Y49.562
N825 X49.755 Y49.483
N830 X50.115 Y49.301
N835 X50.879 Y48.912
N840 X51.015 Y48.841
N845 X51.195 Y48.732
N850 X51.375 Y48.617
N855 X51.461 Y48.552
N860 X51.555 Y48.48
N865 X51.68 Y48.373
N870 X51.735 Y48.325
N875 X51.87 Y48.193
N880 X52.634 Y47.428
N885 X52.765 Y47.295
N890 X52.814 Y47.243
N895 X52.925 Y47.115
N900 X52.994 Y47.028
N905 X53.065 Y46.936
N910 X53.174 Y46.774
N915 X53.293 Y46.576
N920 X53.354 Y46.466
N925 X53.39 Y46.397
N930 X53.756 Y45.678
N935 X53.847 Y45.499
N940 X53.938 Y45.319
N945 X54.02 Y45.139
N950 X54.074 Y45.007
N955 X54.091 Y44.96
N960 X54.15 Y44.78
N965 X54.199 Y44.6
N970 X54.241 Y44.421
N975 X54.271 Y44.241
N980 X54.3 Y44.061
N985 X54.443 Y43.163
N990 X54.467 Y42.984
N995 X54.487 Y42.804
N1000 X54.497 Y42.624
N1005 X54.5 Y42.445
N1010 Y42.265
N1015 Y5.261
N1020 Y5.081
N1025 X54.497 Y4.901
N1030 X54.487 Y4.722
N1035 X54.467 Y4.542
N1040 X54.443 Y4.363
N1045 X54.3 Y3.464
N1050 X54.271 Y3.285
N1055 X54.241 Y3.105
N1060 X54.199 Y2.926
N1065 X54.15 Y2.746
N1070 X54.091 Y2.566
N1075 X54.074 Y2.519
N1080 X54.02 Y2.387
N1085 X53.938 Y2.207
N1090 X53.847 Y2.027
N1095 X53.756 Y1.848
N1100 X53.39 Y1.129
N1105 X53.354 Y1.06
N1110 X53.293 Y0.95
N1115 X53.174 Y0.752
N1120 X53.065 Y0.59
N1125 X52.994 Y0.498
N1130 X52.925 Y0.411
N1135 X52.814 Y0.283
N1140 X52.765 Y0.231
N1145 X52.634 Y0.098
N1150 X51.87 Y-0.667
N1155 X51.735 Y-0.799
N1160 X51.68 Y-0.847
N1165 X51.555 Y-0.954
N1170 X51.461 Y-1.026
N1175 X51.375 Y-1.091
N1180 X51.195 Y-1.206
N1185 X51.015 Y-1.315
N1190 X50.879 Y-1.386
N1195 X50.115 Y-1.775
N1200 X49.755 Y-1.957
N1205 X49.575 Y-2.036
N1210 X49.393 Y-2.104
N1215 X49.215 Y-2.163
N1220 X49.035 Y-2.208
N1225 X48.855 Y-2.248
N1230 X48.675 Y-2.278
N1235 X47.775 Y-2.421
N1240 X47.596 Y-2.448
N1245 X47.416 Y-2.473
N1250 X47.236 Y-2.489
N1255 X47.056 Y-2.499
N1260 X46.876 Y-2.5
N1265 X46.696
N1270 X5.304
N1275 X5.124
N1280 X4.944 Y-2.499
N1285 X4.764 Y-2.489
N1290 X4.584 Y-2.473
N1295 X4.404 Y-2.448
N1300 X4.225 Y-2.421
N1305 X3.325 Y-2.278
N1310 X3.145 Y-2.248
N1315 X2.965 Y-2.208
N1320 X2.785 Y-2.163
N1325 X2.605 Y-2.104
N1330 X2.425 Y-2.036
N1335 X2.245 Y-1.957
N1340 X1.885 Y-1.775
N1345 X1.121 Y-1.386
N1350 X0.985 Y-1.315
N1355 X0.805 Y-1.206
N1360 X0.625 Y-1.091
N1365 X0.539 Y-1.026
N1370 X0.445 Y-0.954
N1375 X0.32 Y-0.847
N1380 X0.265 Y-0.799
N1385 X0.13 Y-0.667
N1390 X-0.634 Y0.098
N1395 X-0.765 Y0.231
N1400 G3 X-1.768 Y-0.09 I-0.414 J-0.434
N1405 G1 X-1.774 Y-0.147 Z-1.997
N1410 X-1.779 Y-0.203 Z-1.989
N1415 X-1.765 Y-0.278 Z-1.969
N1420 X-1.752 Y-0.35 Z-1.939
N1425 X-1.74 Y-0.417 Z-1.9
N1430 X-1.705 Y-0.475 Z-1.847
N1435 X-1.674 Y-0.526 Z-1.785
N1440 X-1.648 Y-0.568 Z-1.715
N1445 X-1.627 Y-0.602 Z-1.639
N1450 X-1.614 Y-0.617 Z-1.587
N1455 X-1.604 Y-0.627 Z-1.533
N1460 X-1.596 Y-0.635 Z-1.467
N1465 X-1.593 Y-0.638 Z-1.4
N1470 G0 Z5.
N1475 X29.104 Y21.135
N1480 Z3.1
N1485 G1 Z2.5 F100.
N1490 G3 X27.215 Y26.512 Z2.187 I-0.945 J2.689
N1495 X29.104 Y21.135 Z1.875 I0.945 J-2.689
N1500 X27.215 Y26.512 Z1.562 I-0.945 J2.689
N1505 X29.104 Y21.135 Z1.249 I0.945 J-2.689
N1510 X27.215 Y26.512 Z0.937 I-0.945 J2.689
N1515 X29.104 Y21.135 Z0.624 I0.945 J-2.689
N1520 X27.215 Y26.512 Z0.311 I-0.945 J2.689
N1525 X29.104 Y21.135 Z-0.001 I0.945 J-2.689
N1530 X27.215 Y26.512 Z-0.314 I-0.945 J2.689
N1535 X29.104 Y21.135 Z-0.627 I0.945 J-2.689
N1540 X27.215 Y26.512 Z-0.939 I-0.945 J2.689
N1545 X29.104 Y21.135 Z-1.252 I0.945 J-2.689
N1550 X27.215 Y26.512 Z-1.565 I-0.945 J2.689
N1555 X29.104 Y21.135 Z-1.877 I0.945 J-2.689
N1560 X31.01 Y23.824 Z-2. I-0.945 J2.689
N1565 X25.31 I-2.85 J0.
N1570 X30.991 Y23.496 I2.85 J0.
N1575 X31.01 Y23.824 I-2.831 J0.327
N1580 G1 Y24.038
N1585 X31.044 Y24.25
N1590 X31.175 Y24.659
N1595 X31.186 Y24.679
N1600 X31.227 Y24.759
N1605 X31.265 Y24.852
N1610 X31.299 Y24.958
N1615 X31.327 Y25.077
N1620 X31.347 Y25.209
N1625 X31.357 Y25.353
N1630 X31.356 Y25.508
N1635 X31.341 Y25.673
N1640 X31.311 Y25.848
N1645 X31.264 Y26.03
N1650 X31.199 Y26.219
N1655 X31.115 Y26.411
N1660 X31.011 Y26.606
N1665 X30.886 Y26.8
N1670 X30.74 Y26.991
N1675 X30.572 Y27.178
N1680 X30.383 Y27.356
N1685 X30.173 Y27.525
N1690 X29.943 Y27.681
N1695 X29.694 Y27.822
N1700 X29.428 Y27.946
N1705 X29.146 Y28.051
N1710 X28.851 Y28.135
N1715 X28.543 Y28.195
N1720 X28.226 Y28.232
N1725 X27.902 Y28.243
N1730 X27.574 Y28.228
N1735 X27.244 Y28.186
N1740 X26.914 Y28.117
N1745 X26.588 Y28.02
N1750 X26.267 Y27.897
N1755 X25.955 Y27.747
N1760 X25.654 Y27.572
N1765 X25.367 Y27.371
N1770 X25.094 Y27.147
N1775 X24.84 Y26.901
N1780 X24.605 Y26.633
N1785 X24.391 Y26.347
N1790 X24.201 Y26.044
N1795 X24.035 Y25.725
N1800 X23.895 Y25.393
N1805 X23.781 Y25.05
N1810 X23.695 Y24.699
N1815 X23.638 Y24.341
N1820 X23.61 Y23.98
N1825 Y23.616
N1830 X23.64 Y23.254
N1835 X23.699 Y22.894
N1840 X23.787 Y22.541
N1845 X23.902 Y22.195
N1850 X24.046 Y21.859
N1855 X24.215 Y21.536
N1860 X24.411 Y21.227
N1865 X24.63 Y20.935
N1870 X24.873 Y20.661
N1875 X25.136 Y20.408
N1880 X25.42 Y20.176
N1885 X25.721 Y19.968
N1890 X26.038 Y19.785
N1895 X26.368 Y19.628
N1900 X26.71 Y19.497
N1905 X27.062 Y19.395
N1910 X27.421 Y19.321
N1915 X27.784 Y19.276
N1920 X28.15 Y19.261
N1925 X28.516 Y19.274
N1930 X28.88 Y19.318
N1935 X29.239 Y19.39
N1940 X29.591 Y19.491
N1945 X29.935 Y19.62
N1950 X30.266 Y19.775
N1955 X30.584 Y19.958
N1960 X30.887 Y20.165
N1965 X31.171 Y20.395
N1970 X31.437 Y20.648
N1975 X31.681 Y20.921
N1980 X31.903 Y21.213
N1985 X32.134 Y21.575
N1990 X32.344 Y21.95
N1995 X32.54 Y22.332
N2000 X32.72 Y22.722
N2005 X32.877 Y23.122
N2010 X33.008 Y23.531
N2015 X33.11 Y23.948
N2020 X33.179 Y24.369
N2025 X33.212 Y24.779
N2030 X33.213 Y25.18
N2035 X33.182 Y25.574
N2040 X33.119 Y25.961
N2045 X33.026 Y26.342
N2050 X32.902 Y26.716
N2055 X32.748 Y27.08
N2060 X32.564 Y27.433
N2065 X32.35 Y27.773
N2070 X32.107 Y28.099
N2075 X31.835 Y28.407
N2080 X31.536 Y28.696
N2085 X31.211 Y28.964
N2090 X30.861 Y29.208
N2095 X30.489 Y29.424
N2100 X30.102 Y29.61
N2105 X29.702 Y29.765
N2110 X29.29 Y29.889
N2115 X28.871 Y29.981
N2120 X28.446 Y30.041
N2125 X28.017 Y30.07
N2130 X27.588 Y30.067
N2135 X27.159 Y30.032
N2140 X26.735 Y29.966
N2145 X26.316 Y29.87
N2150 X25.906 Y29.744
N2155 X25.505 Y29.589
N2160 X25.116 Y29.407
N2165 X24.741 Y29.198
N2170 X24.381 Y28.963
N2175 X24.039 Y28.703
N2180 X23.716 Y28.421
N2185 X23.413 Y28.116
N2190 X23.131 Y27.792
N2195 X22.872 Y27.45
N2200 X22.636 Y27.09
N2205 X22.427 Y26.716
N2210 X22.243 Y26.327
N2215 X22.086 Y25.927
N2220 X21.956 Y25.518
N2225 X21.854 Y25.101
N2230 X21.78 Y24.678
N2235 X21.735 Y24.251
N2240 X21.719 Y23.821
N2245 X21.732 Y23.392
N2250 X21.773 Y22.965
N2255 X21.843 Y22.541
N2260 X21.941 Y22.122
N2265 X22.067 Y21.712
N2270 X22.22 Y21.311
N2275 X22.4 Y20.921
N2280 X22.606 Y20.543
N2285 X22.835 Y20.18
N2290 X23.089 Y19.834
N2295 X23.365 Y19.505
N2300 X23.663 Y19.195
N2305 X23.981 Y18.906
N2310 X24.317 Y18.639
N2315 X24.67 Y18.394
N2320 X25.038 Y18.173
N2325 X25.421 Y17.978
N2330 X25.816 Y17.809
N2335 X26.221 Y17.666
N2340 X26.635 Y17.551
N2345 X27.055 Y17.463
N2350 X27.48 Y17.403
N2355 X27.909 Y17.372
N2360 X28.338 Y17.37
N2365 X28.767 Y17.396
N2370 X29.193 Y17.45
N2375 X29.615 Y17.533
N2380 X30.03 Y17.643
N2385 X30.436 Y17.781
N2390 X30.833 Y17.946
N2395 X31.218 Y18.137
N2400 X31.589 Y18.353
N2405 X31.946 Y18.593
N2410 X32.285 Y18.856
N2415 X32.607 Y19.14
N2420 X32.912 Y19.442
N2425 X33.201 Y19.761
N2430 X33.472 Y20.093
N2435 X33.727 Y20.439
N2440 X33.964 Y20.797
N2445 X34.182 Y21.168
N2450 X34.381 Y21.548
N2455 X34.56 Y21.939
N2460 X34.718 Y22.338
N2465 X34.853 Y22.746
N2470 X34.965 Y23.16
N2475 X35.055 Y23.581
N2480 X35.119 Y24.005
N2485 X35.158 Y24.433
N2490 X35.172 Y24.862
N2495 X35.16 Y25.292
N2500 X35.123 Y25.719
N2505 X35.059 Y26.144
N2510 X34.969 Y26.564
N2515 X34.854 Y26.978
N2520 X34.715 Y27.384
N2525 X34.55 Y27.781
N2530 X34.361 Y28.167
N2535 X34.149 Y28.54
N2540 X33.915 Y28.901
N2545 X33.659 Y29.246
N2550 X33.383 Y29.575
N2555 X33.088 Y29.887
N2560 X32.775 Y30.181
N2565 X32.444 Y30.455
N2570 X32.098 Y30.709
N2575 X31.738 Y30.943
N2580 X31.365 Y31.156
N2585 X30.979 Y31.346
N2590 X30.584 Y31.513
N2595 X30.179 Y31.658
N2600 X29.768 Y31.78
N2605 X29.349 Y31.877
N2610 X28.926 Y31.951
N2615 X28.5 Y32.002
N2620 X28.071 Y32.029
N2625 X27.641 Y32.031
N2630 X27.212 Y32.01
N2635 X26.785 Y31.966
N2640 X26.361 Y31.898
N2645 X25.941 Y31.807
N2650 X25.527 Y31.694
N2655 X25.119 Y31.559
N2660 X24.719 Y31.402
N2665 X24.329 Y31.224
N2670 X23.948 Y31.025
N2675 X23.578 Y30.806
N2680 X23.221 Y30.568
N2685 X22.876 Y30.311
N2690 X22.546 Y30.037
N2695 X22.23 Y29.746
N2700 X21.93 Y29.439
N2705 X21.646 Y29.116
N2710 X21.38 Y28.779
N2715 X21.132 Y28.428
N2720 X20.902 Y28.065
N2725 X20.691 Y27.691
N2730 X20.5 Y27.306
N2735 X20.329 Y26.912
N2740 X20.179 Y26.51
N2745 X20.049 Y26.101
N2750 X19.941 Y25.685
N2755 X19.855 Y25.264
N2760 X19.79 Y24.839
N2765 X19.747 Y24.412
N2770 X19.726 Y23.983
N2775 X19.727 Y23.554
N2780 X19.75 Y23.125
N2785 X19.795 Y22.697
N2790 X19.862 Y22.273
N2795 X19.95 Y21.853
N2800 X20.06 Y21.438
N2805 X20.191 Y21.028
N2810 X20.342 Y20.626
N2815 X20.514 Y20.233
N2820 X20.706 Y19.849
N2825 X20.917 Y19.474
N2830 X21.146 Y19.111
N2835 X21.394 Y18.761
N2840 X21.66 Y18.423
N2845 X21.942 Y18.1
N2850 X22.241 Y17.79
N2855 X22.555 Y17.497
N2860 X22.883 Y17.221
N2865 X23.225 Y16.961
N2870 X23.58 Y16.718
N2875 X23.946 Y16.495
N2880 X24.324 Y16.29
N2885 X24.712 Y16.105
N2890 X25.108 Y15.939
N2895 X25.512 Y15.794
N2900 X25.923 Y15.67
N2905 X26.34 Y15.567
N2910 X26.762 Y15.485
N2915 X27.187 Y15.424
N2920 X27.615 Y15.386
N2925 X28.044 Y15.369
N2930 X28.474 Y15.374
N2935 X28.902 Y15.4
N2940 X29.329 Y15.449
N2945 X29.753 Y15.519
N2950 X30.173 Y15.611
N2955 X30.587 Y15.723
N2960 X30.995 Y15.857
N2965 X31.396 Y16.011
N2970 X31.789 Y16.186
N2975 X32.172 Y16.379
N2980 X32.545 Y16.592
N2985 X32.908 Y16.822
N2990 X33.259 Y17.069
N2995 X33.598 Y17.333
N3000 X33.926 Y17.611
N3005 X34.24 Y17.904
N3010 X34.541 Y18.21
N3015 X34.829 Y18.529
N3020 X35.102 Y18.861
N3025 X35.361 Y19.203
N3030 X35.605 Y19.557
N3035 X35.833 Y19.92
N3040 X36.046 Y20.294
N3045 X36.242 Y20.676
N3050 X36.421 Y21.066
N3055 X36.583 Y21.464
N3060 X36.727 Y21.869
N3065 X36.853 Y22.279
N3070 X36.961 Y22.695
N3075 X37.049 Y23.115
N3080 X37.119 Y23.539
N3085 X37.169 Y23.966
N3090 X37.199 Y24.394
N3095 X37.21 Y24.824
N3100 X37.201 Y25.253
N3105 X37.171 Y25.682
N3110 X37.122 Y26.108
N3115 X37.053 Y26.532
N3120 X36.964 Y26.953
N3125 X36.855 Y27.368
N3130 X36.727 Y27.778
N3135 X36.579 Y28.181
N3140 X36.414 Y28.578
N3145 X36.229 Y28.966
N3150 X36.026 Y29.344
N3155 X35.806 Y29.713
N3160 X35.569 Y30.071
N3165 X35.315 Y30.418
N3170 X35.046 Y30.752
N3175 X34.76 Y31.073
N3180 X34.461 Y31.381
N3185 X34.147 Y31.675
N3190 X33.821 Y31.953
N3195 X33.481 Y32.217
N3200 X33.13 Y32.464
N3205 X32.768 Y32.695
N3210 X32.396 Y32.91
N3215 X32.014 Y33.107
N3220 X31.624 Y33.286
N3225 X31.226 Y33.448
N3230 X30.821 Y33.592
N3235 X30.411 Y33.718
N3240 X29.995 Y33.825
N3245 X29.574 Y33.913
N3250 X29.15 Y33.982
N3255 X28.724 Y34.033
N3260 X28.296 Y34.065
N3265 X27.866 Y34.079
N3270 X27.437 Y34.073
N3275 X27.008 Y34.048
N3280 X26.581 Y34.005
N3285 X26.155 Y33.944
N3290 X25.733 Y33.864
N3295 X25.315 Y33.766
N3300 X24.902 Y33.649
N3305 X24.493 Y33.516
N3310 X24.091 Y33.365
N3315 X23.696 Y33.197
N3320 X23.308 Y33.012
N3325 X22.929 Y32.811
N3330 X22.558 Y32.595
N3335 X22.196 Y32.362
N3340 X21.845 Y32.115
N3345 X21.505 Y31.853
N3350 X21.176 Y31.577
N3355 X20.859 Y31.287
N3360 X20.554 Y30.985
N3365 X20.262 Y30.669
N3370 X19.984 Y30.342
N3375 X19.72 Y30.003
N3380 X19.47 Y29.654
N3385 X19.234 Y29.295
N3390 X19.014 Y28.926
N3395 X18.809 Y28.549
N3400 X18.621 Y28.163
N3405 X18.448 Y27.77
N3410 X18.291 Y27.37
N3415 X18.152 Y26.963
N3420 X18.029 Y26.552
N3425 X17.924 Y26.135
N3430 X17.836 Y25.715
N3435 X17.765 Y25.291
N3440 X17.711 Y24.865
N3445 X17.676 Y24.437
N3450 X17.658 Y24.008
N3455 X17.657 Y23.578
N3460 X17.674 Y23.149
N3465 X17.709 Y22.721
N3470 X17.762 Y22.295
N3475 X17.832 Y21.871
N3480 X17.919 Y21.45
N3485 X18.023 Y21.034
N3490 X18.145 Y20.622
N3495 X18.283 Y20.215
N3500 X18.438 Y19.814
N3505 X18.609 Y19.42
N3510 X18.796 Y19.034
N3515 X18.998 Y18.655
N3520 X19.217 Y18.285
N3525 X19.45 Y17.924
N3530 X19.697 Y17.573
N3535 X19.959 Y17.233
N3540 X20.234 Y16.903
N3545 X20.523 Y16.585
N3550 X20.825 Y16.279
N3555 X21.138 Y15.986
N3560 X21.464 Y15.705
N3565 X21.8 Y15.438
N3570 X22.148 Y15.186
N3575 X22.505 Y14.948
N3580 X22.872 Y14.724
N3585 X23.247 Y14.515
N3590 X23.631 Y14.322
N3595 X24.022 Y14.145
N3600 X24.421 Y13.985
N3605 X24.825 Y13.84
N3610 X25.235 Y13.712
N3615 X25.65 Y13.601
N3620 X26.069 Y13.507
N3625 X26.492 Y13.43
N3630 X26.917 Y13.371
N3635 X27.345 Y13.328
N3640 X27.773 Y13.303
N3645 X28.203 Y13.296
N3650 X28.632 Y13.307
N3655 X29.061 Y13.335
N3660 X29.488 Y13.38
N3665 X29.913 Y13.443
N3670 X30.335 Y13.523
N3675 X30.753 Y13.62
N3680 X31.167 Y13.735
N3685 X31.576 Y13.865
N3690 X31.98 Y14.012
N3695 X32.377 Y14.175
N3700 X32.768 Y14.354
N3705 X33.151 Y14.549
N3710 X33.526 Y14.758
N3715 X33.893 Y14.981
N3720 X34.252 Y15.218
N3725 X34.6 Y15.468
N3730 X34.94 Y15.732
N3735 X35.269 Y16.008
N3740 X35.587 Y16.295
N3745 X35.896 Y16.595
N3750 X36.193 Y16.905
N3755 X36.478 Y17.226
N3760 X36.751 Y17.558
N3765 X37.012 Y17.899
N3770 X37.261 Y18.249
N3775 X37.497 Y18.607
N3780 X37.72 Y18.975
N3785 X37.929 Y19.35
N3790 X38.125 Y19.732
N3795 X38.306 Y20.122
N3800 X38.473 Y20.517
N3805 X38.626 Y20.919
N3810 X38.764 Y21.326
N3815 X38.886 Y21.737
N3820 X38.993 Y22.153
N3825 X39.085 Y22.573
N3830 X39.162 Y22.996
N3835 X39.222 Y23.421
N3840 X39.266 Y23.848
N3845 X39.294 Y24.277
N3850 X39.307 Y24.706
N3855 X39.303 Y25.135
N3860 X39.283 Y25.565
N3865 X39.246 Y25.993
N3870 X39.193 Y26.419
N3875 X39.125 Y26.843
N3880 X39.04 Y27.264
N3885 X38.939 Y27.681
N3890 X38.823 Y28.095
N3895 X38.69 Y28.503
N3900 X38.542 Y28.907
N3905 X38.379 Y29.304
N3910 X38.201 Y29.695
N3915 X38.008 Y30.079
N3920 X37.801 Y30.455
N3925 X37.579 Y30.823
N3930 X37.343 Y31.182
N3935 X37.095 Y31.532
N3940 X36.833 Y31.872
N3945 X36.558 Y32.202
N3950 X36.271 Y32.522
N3955 X35.972 Y32.83
N3960 X35.661 Y33.127
N3965 X35.34 Y33.412
N3970 X35.008 Y33.685
N3975 X34.666 Y33.945
N3980 X34.315 Y34.192
N3985 X33.954 Y34.425
N3990 X33.586 Y34.646
N3995 X33.209 Y34.852
N4000 X32.825 Y35.044
N4005 X32.434 Y35.222
N4010 X32.036 Y35.385
N4015 X31.633 Y35.533
N4020 X31.225 Y35.667
N4025 X30.812 Y35.785
N4030 X30.395 Y35.888
N4035 X29.975 Y35.976
N4040 X29.551 Y36.048
N4045 X29.126 Y36.105
N4050 X28.698 Y36.147
N4055 X28.269 Y36.173
N4060 X27.84 Y36.183
N4065 X27.41 Y36.178
N4070 X26.981 Y36.158
N4075 X26.553 Y36.122
N4080 X26.127 Y36.071
N4085 X25.702 Y36.005
N4090 X25.281 Y35.923
N4095 X24.862 Y35.826
N4100 X24.447 Y35.715
N4105 X24.037 Y35.589
N4110 X23.631 Y35.449
N4115 X23.23 Y35.294
N4120 X22.835 Y35.125
N4125 X22.446 Y34.943
N4130 X22.064 Y34.746
N4135 X21.689 Y34.537
N4140 X21.322 Y34.315
N4145 X20.962 Y34.079
N4150 X20.612 Y33.832
N4155 X20.27 Y33.572
N4160 X19.937 Y33.3
N4165 X19.613 Y33.018
N4170 X19.3 Y32.723
N4175 X18.998 Y32.419
N4180 X18.706 Y32.103
N4185 X18.425 Y31.778
N4190 X18.156 Y31.444
N4195 X17.898 Y31.1
N4200 X17.652 Y30.748
N4205 X17.419 Y30.387
N4210 X17.199 Y30.019
N4215 X16.991 Y29.643
N4220 X16.796 Y29.26
N4225 X16.615 Y28.87
N4230 X16.447 Y28.475
N4235 X16.293 Y28.074
N4240 X16.153 Y27.668
N4245 X16.026 Y27.258
N4250 X15.914 Y26.843
N4255 X15.816 Y26.425
N4260 X15.733 Y26.003
N4265 X15.664 Y25.579
N4270 X15.61 Y25.153
N4275 X15.57 Y24.726
N4280 X15.545 Y24.297
N4285 X15.534 Y23.867
N4290 X15.539 Y23.438
N4295 X15.558 Y23.009
N4300 X15.592 Y22.581
N4305 X15.64 Y22.154
N4310 X15.703 Y21.729
N4315 X15.78 Y21.306
N4320 X15.872 Y20.887
N4325 X15.978 Y20.471
N4330 X16.098 Y20.058
N4335 X16.232 Y19.65
N4340 X16.38 Y19.247
N4345 X16.541 Y18.849
N4350 X16.716 Y18.457
N4355 X16.905 Y18.071
N4360 X17.106 Y17.691
N4365 X17.32 Y17.319
N4370 X17.547 Y16.954
N4375 X17.786 Y16.597
N4380 X18.037 Y16.249
N4385 X18.3 Y15.909
N4390 X18.574 Y15.578
N4395 X18.859 Y15.257
N4400 X19.155 Y14.946
N4405 X19.462 Y14.645
N4410 X19.778 Y14.354
N4415 X20.104 Y14.075
N4420 X20.44 Y13.807
N4425 X20.784 Y13.55
N4430 X21.137 Y13.305
N4435 X21.498 Y13.073
N4440 X21.867 Y12.852
N4445 X22.243 Y12.645
N4450 X22.626 Y12.45
N4455 X23.015 Y12.269
N4460 X23.41 Y12.1
N4465 X23.811 Y11.946
N4470 X24.217 Y11.805
N4475 X24.627 Y11.678
N4480 X25.042 Y11.565
N4485 X25.46 Y11.466
N4490 X25.881 Y11.381
N4495 X26.304 Y11.31
N4500 X26.73 Y11.255
N4505 X27.158 Y11.213
N4510 X27.586 Y11.187
N4515 X28.016 Y11.174
N4520 X28.445 Y11.176
N4525 X28.875 Y11.193
N4530 X29.303 Y11.225
N4535 X29.73 Y11.271
N4540 X30.155 Y11.331
N4545 X30.578 Y11.406
N4550 X30.998 Y11.495
N4555 X31.415 Y11.598
N4560 X31.829 Y11.715
N4565 X32.238 Y11.846
N4570 X32.642 Y11.99
N4575 X33.042 Y12.148
N4580 X33.436 Y12.318
N4585 X33.824 Y12.502
N4590 X34.207 Y12.698
N4595 X34.582 Y12.907
N4600 X34.951 Y13.127
N4605 X35.312 Y13.359
N4610 X35.666 Y13.603
N4615 X36.012 Y13.857
N4620 X36.349 Y14.123
N4625 X36.678 Y14.399
N4630 X36.998 Y14.685
N4635 X37.31 Y14.982
N4640 X37.611 Y15.287
N4645 X37.904 Y15.602
N4650 X38.186 Y15.926
N4655 X38.458 Y16.258
N4660 X38.719 Y16.599
N4665 X38.97 Y16.948
N4670 X39.21 Y17.304
N4675 X39.439 Y17.667
N4680 X39.657 Y18.038
N4685 X39.863 Y18.414
N4690 X40.057 Y18.798
N4695 X40.239 Y19.187
N4700 X40.409 Y19.581
N4705 X40.567 Y19.98
N4710 X40.713 Y20.385
N4715 X40.845 Y20.793
N4720 X40.965 Y21.206
N4725 X41.072 Y21.622
N4730 X41.165 Y22.041
N4735 X41.246 Y22.463
N4740 X41.313 Y22.887
N4745 X41.367 Y23.313
N4750 X41.408 Y23.741
N4755 X41.434 Y24.169
N4760 X41.448 Y24.599
N4765 X41.447 Y25.028
N4770 X41.433 Y25.458
N4775 X41.406 Y25.886
N4780 X41.365 Y26.314
N4785 X41.31 Y26.74
N4790 X41.241 Y27.164
N4795 X41.159 Y27.585
N4800 X41.064 Y28.004
N4805 X40.956 Y28.42
N4810 X40.834 Y28.832
N4815 X40.699 Y29.239
N4820 X40.551 Y29.643
N4825 X40.39 Y30.041
N4830 X40.216 Y30.434
N4835 X40.03 Y30.821
N4840 X39.832 Y31.202
N4845 X39.622 Y31.577
N4850 X39.4 Y31.944
N4855 X39.166 Y32.304
N4860 X38.921 Y32.657
N4865 X38.664 Y33.002
N4870 X38.397 Y33.338
N4875 X38.12 Y33.666
N4880 X37.831 Y33.985
N4885 X37.533 Y34.294
N4890 X37.226 Y34.593
N4895 X36.909 Y34.883
N4900 X36.583 Y35.163
N4905 X36.248 Y35.432
N4910 X35.905 Y35.691
N4915 X35.554 Y35.938
N4920 X35.195 Y36.174
N4925 X34.829 Y36.399
N4930 X34.457 Y36.613
N4935 X34.077 Y36.815
N4940 X33.692 Y37.004
N4945 X33.301 Y37.181
N4950 X32.904 Y37.346
N4955 X32.503 Y37.499
N4960 X32.097 Y37.639
N4965 X31.687 Y37.767
N4970 X31.273 Y37.882
N4975 X30.855 Y37.983
N4980 X30.435 Y38.072
N4985 X30.012 Y38.148
N4990 X29.587 Y38.211
N4995 X29.161 Y38.261
N5000 X28.733 Y38.297
N5005 X28.304 Y38.321
N5010 X27.874 Y38.331
N5015 X27.445 Y38.328
N5020 X27.016 Y38.312
N5025 X26.587 Y38.283
N5030 X26.16 Y38.241
N5035 X25.734 Y38.186
N5040 X25.31 Y38.118
N5045 X24.888 Y38.038
N5050 X24.469 Y37.944
N5055 X24.052 Y37.838
N5060 X23.639 Y37.719
N5065 X23.23 Y37.589
N5070 X22.825 Y37.446
N5075 X22.425 Y37.29
N5080 X22.029 Y37.123
N5085 X21.639 Y36.944
N5090 X21.254 Y36.753
N5095 X20.875 Y36.551
N5100 X20.502 Y36.338
N5105 X20.136 Y36.113
N5110 X19.776 Y35.878
N5115 X19.424 Y35.632
N5120 X19.08 Y35.376
N5125 X18.743 Y35.11
N5130 X18.413 Y34.834
N5135 X18.093 Y34.548
N5140 X17.781 Y34.253
N5145 X17.478 Y33.948
N5150 X17.184 Y33.635
N5155 X16.899 Y33.313
N5160 X16.624 Y32.983
N5165 X16.359 Y32.646
N5170 X16.104 Y32.3
N5175 X15.859 Y31.947
N5180 X15.625 Y31.587
N5185 X15.402 Y31.22
N5190 X15.189 Y30.847
N5195 X14.988 Y30.467
N5200 X14.797 Y30.082
N5205 X14.618 Y29.692
N5210 X14.451 Y29.296
N5215 X14.295 Y28.896
N5220 X14.152 Y28.491
N5225 X14.02 Y28.082
N5230 X13.9 Y27.67
N5235 X13.792 Y27.254
N5240 X13.696 Y26.836
N5245 X13.613 Y26.414
N5250 X13.542 Y25.991
N5255 X13.484 Y25.565
N5260 X13.438 Y25.138
N5265 X13.404 Y24.71
N5270 X13.383 Y24.281
N5275 X13.375 Y23.851
N5280 X13.379 Y23.422
N5285 X13.396 Y22.993
N5290 X13.425 Y22.564
N5295 X13.466 Y22.137
N5300 X13.52 Y21.71
N5305 X13.587 Y21.286
N5310 X13.666 Y20.864
N5315 X13.757 Y20.444
N5320 X13.86 Y20.027
N5325 X13.976 Y19.613
N5330 X14.103 Y19.203
N5335 X14.242 Y18.797
N5340 X14.393 Y18.395
N5345 X14.556 Y17.997
N5350 X14.73 Y17.605
N5355 X14.916 Y17.217
N5360 X15.112 Y16.835
N5365 X15.32 Y16.46
N5370 X15.539 Y16.09
N5375 X15.768 Y15.726
N5380 X16.008 Y15.37
N5385 X16.258 Y15.021
N5390 X16.518 Y14.679
N5395 X16.788 Y14.345
N5400 X17.067 Y14.019
N5405 X17.356 Y13.701
N5410 X17.654 Y13.391
N5415 X17.96 Y13.091
N5420 X18.276 Y12.799
N5425 X18.6 Y12.517
N5430 X18.931 Y12.244
N5435 X19.271 Y11.981
N5440 X19.618 Y11.728
N5445 X19.972 Y11.485
N5450 X20.333 Y11.252
N5455 X20.701 Y11.03
N5460 X21.075 Y10.819
N5465 X21.455 Y10.619
N5470 X21.841 Y10.43
N5475 X22.232 Y10.252
N5480 X22.628 Y10.086
N5485 X23.028 Y9.931
N5490 X23.433 Y9.788
N5495 X23.842 Y9.657
N5500 X24.255 Y9.537
N5505 X24.671 Y9.43
N5510 X25.09 Y9.334
N5515 X25.511 Y9.251
N5520 X25.935 Y9.181
N5525 X26.36 Y9.122
N5530 X26.787 Y9.076
N5535 X27.216 Y9.042
N5540 X27.645 Y9.021
N5545 X28.074 Y9.012
N5550 X28.503 Y9.016
N5555 X28.933 Y9.032
N5560 X29.361 Y9.06
N5565 X29.789 Y9.101
N5570 X30.215 Y9.154
N5575 X30.64 Y9.22
N5580 X31.062 Y9.297
N5585 X31.482 Y9.387
N5590 X31.899 Y9.489
N5595 X32.314 Y9.603
N5600 X32.724 Y9.728
N5605 X33.131 Y9.865
N5610 X33.535 Y10.013
N5615 X33.933 Y10.173
N5620 X34.327 Y10.344
N5625 X34.716 Y10.526
N5630 X35.1 Y10.719
N5635 X35.478 Y10.923
N5640 X35.851 Y11.137
N5645 X36.217 Y11.361
N5650 X36.578 Y11.595
N5655 X36.931 Y11.838
N5660 X37.278 Y12.092
N5665 X37.617 Y12.355
N5670 X37.95 Y12.627
N5675 X38.274 Y12.908
N5680 X38.592 Y13.198
N5685 X38.901 Y13.496
N5690 X39.202 Y13.802
N5695 X39.494 Y14.117
N5700 X39.778 Y14.439
N5705 X40.054 Y14.769
N5710 X40.32 Y15.106
N5715 X40.577 Y15.45
N5720 X40.825 Y15.801
N5725 X41.063 Y16.158
N5730 X41.292 Y16.522
N5735 X41.511 Y16.891
N5740 X41.719 Y17.267
N5745 X41.918 Y17.648
N5750 X42.106 Y18.034
N5755 X42.284 Y18.425
N5760 X42.452 Y18.82
N5765 X42.609 Y19.22
N5770 X42.754 Y19.624
N5775 X42.889 Y20.032
N5780 X43.013 Y20.443
N5785 X43.125 Y20.858
N5790 X43.227 Y21.275
N5795 X43.317 Y21.695
N5800 X43.396 Y22.117
N5805 X43.463 Y22.542
N5810 X43.518 Y22.967
N5815 X43.562 Y23.395
N5820 X43.595 Y23.823
N5825 X43.615 Y24.252
N5830 X43.624 Y24.681
N5835 X43.622 Y25.111
N5840 X43.607 Y25.54
N5845 X43.581 Y25.969
N5850 X43.543 Y26.397
N5855 X43.493 Y26.823
N5860 X43.432 Y27.249
N5865 X43.359 Y27.672
N5870 X43.274 Y28.093
N5875 X43.178 Y28.512
N5880 X43.07 Y28.927
N5885 X42.951 Y29.34
N5890 X42.821 Y29.749
N5895 X42.679 Y30.155
N5900 X42.527 Y30.557
N5905 X42.363 Y30.954
N5910 X42.189 Y31.346
N5915 X42.004 Y31.734
N5920 X41.808 Y32.116
N5925 X41.601 Y32.493
N5930 X41.385 Y32.864
N5935 X41.159 Y33.229
N5940 X40.922 Y33.587
N5945 X40.676 Y33.939
N5950 X40.42 Y34.284
N5955 X40.155 Y34.622
N5960 X39.88 Y34.952
N5965 X39.597 Y35.275
N5970 X39.305 Y35.59
N5975 X39.005 Y35.897
N5980 X38.696 Y36.196
N5985 X38.379 Y36.486
N5990 X38.054 Y36.767
N5995 X37.722 Y37.039
N6000 X37.382 Y37.302
N6005 X37.036 Y37.556
N6010 X36.683 Y37.801
N6015 X36.323 Y38.035
N6020 X35.957 Y38.26
N6025 X35.585 Y38.475
N6030 X35.207 Y38.679
N6035 X34.824 Y38.874
N6040 X34.436 Y39.058
N6045 X34.043 Y39.231
N6050 X33.646 Y39.394
N6055 X33.244 Y39.546
N6060 X32.838 Y39.688
N6065 X32.429 Y39.818
N6070 X32.016 Y39.937
N6075 X31.601 Y40.045
N6080 X31.182 Y40.142
N6085 X30.762 Y40.228
N6090 X30.339 Y40.303
N6095 X29.914 Y40.366
N6100 X29.487 Y40.418
N6105 X29.06 Y40.458
N6110 X28.631 Y40.487
N6115 X28.202 Y40.505
N6120 X27.773 Y40.512
N6125 X27.343 Y40.507
N6130 X26.914 Y40.491
N6135 X26.485 Y40.463
N6140 X26.057 Y40.424
N6145 X25.631 Y40.374
N6150 X25.206 Y40.313
N6155 X24.782 Y40.24
N6160 X24.361 Y40.157
N6165 X23.942 Y40.062
N6170 X23.526 Y39.957
N6175 X23.112 Y39.84
N6180 X22.702 Y39.713
N6185 X22.295 Y39.575
N6190 X21.892 Y39.427
N6195 X21.493 Y39.268
N6200 X21.098 Y39.099
N6205 X20.708 Y38.92
N6210 X20.322 Y38.73
N6215 X19.942 Y38.531
N6220 X19.567 Y38.321
N6225 X19.197 Y38.102
N6230 X18.834 Y37.874
N6235 X18.476 Y37.636
N6240 X18.124 Y37.39
N6245 X17.779 Y37.134
N6250 X17.441 Y36.869
N6255 X17.11 Y36.595
N6260 X16.786 Y36.313
N6265 X16.469 Y36.023
N6270 X16.16 Y35.725
N6275 X15.858 Y35.419
N6280 X15.565 Y35.106
N6285 X15.28 Y34.784
N6290 X15.003 Y34.456
N6295 X14.735 Y34.121
N6300 X14.475 Y33.778
N6305 X14.224 Y33.43
N6310 X13.982 Y33.075
N6315 X13.75 Y32.714
N6320 X13.526 Y32.347
N6325 X13.313 Y31.974
N6330 X13.108 Y31.596
N6335 X12.914 Y31.213
N6340 X12.729 Y30.825
N6345 X12.555 Y30.433
N6350 X12.39 Y30.036
N6355 X12.236 Y29.636
N6360 X12.091 Y29.231
N6365 X11.958 Y28.823
N6370 X11.835 Y28.411
N6375 X11.722 Y27.997
N6380 X11.62 Y27.58
N6385 X11.528 Y27.16
N6390 X11.447 Y26.738
N6395 X11.377 Y26.314
N6400 X11.318 Y25.889
N6405 X11.27 Y25.462
N6410 X11.232 Y25.034
N6415 X11.206 Y24.606
N6420 X11.19 Y24.176
N6425 X11.185 Y23.747
N6430 X11.191 Y23.317
N6435 X11.208 Y22.888
N6440 X11.236 Y22.46
N6445 X11.275 Y22.032
N6450 X11.325 Y21.605
N6455 X11.386 Y21.18
N6460 X11.457 Y20.756
N6465 X11.539 Y20.335
N6470 X11.632 Y19.915
N6475 X11.735 Y19.498
N6480 X11.849 Y19.084
N6485 X11.973 Y18.673
N6490 X12.108 Y18.265
N6495 X12.253 Y17.861
N6500 X12.408 Y17.46
N6505 X12.573 Y17.064
N6510 X12.748 Y16.672
N6515 X12.934 Y16.284
N6520 X13.129 Y15.901
N6525 X13.333 Y15.524
N6530 X13.547 Y15.152
N6535 X13.771 Y14.785
N6540 X14.003 Y14.424
N6545 X14.245 Y14.068
N6550 X14.496 Y13.72
N6555 X14.755 Y13.377
N6560 X15.023 Y13.042
N6565 X15.3 Y12.713
N6570 X15.584 Y12.391
N6575 X15.877 Y12.077
N6580 X16.177 Y11.77
N6585 X16.485 Y11.47
N6590 X16.801 Y11.179
N6595 X17.124 Y10.896
N6600 X17.454 Y10.621
N6605 X17.791 Y10.355
N6610 X18.134 Y10.097
N6615 X18.484 Y9.848
N6620 X18.84 Y9.607
N6625 X19.202 Y9.376
N6630 X19.57 Y9.154
N6635 X19.943 Y8.942
N6640 X20.322 Y8.739
N6645 X20.705 Y8.545
N6650 X21.094 Y8.362
N6655 X21.486 Y8.188
N6660 X21.884 Y8.024
N6665 X22.285 Y7.87
N6670 X22.689 Y7.727
N6675 X23.098 Y7.594
N6680 X23.509 Y7.471
N6685 X23.924 Y7.359
N6690 X24.341 Y7.257
N6695 X24.761 Y7.165
N6700 X25.183 Y7.085
N6705 X25.607 Y7.015
N6710 X26.032 Y6.955
N6715 X26.459 Y6.907
N6720 X26.887 Y6.869
N6725 X27.315 Y6.843
N6730 X27.745 Y6.826
N6735 X28.174 Y6.821
N6740 X28.604 Y6.827
N6745 X29.033 Y6.843
N6750 X29.461 Y6.87
N6755 X29.889 Y6.908
N6760 X30.316 Y6.957
N6765 X30.741 Y7.017
N6770 X31.165 Y7.087
N6775 X31.587 Y7.167
N6780 X32.007 Y7.258
N6785 X32.424 Y7.36
N6790 X32.839 Y7.472
N6795 X33.251 Y7.594
N6800 X33.659 Y7.727
N6805 X34.064 Y7.869
N6810 X34.466 Y8.022
N6815 X34.864 Y8.184
N6820 X35.257 Y8.356
N6825 X35.647 Y8.537
N6830 X36.031 Y8.729
N6835 X36.411 Y8.929
N6840 X36.786 Y9.139
N6845 X37.156 Y9.357
N6850 X37.52 Y9.585
N6855 X37.879 Y9.821
N6860 X38.232 Y10.066
N6865 X38.579 Y10.319
N6870 X38.919 Y10.58
N6875 X39.254 Y10.85
N6880 X39.582 Y11.128
N6885 X39.903 Y11.413
N6890 X40.217 Y11.706
N6895 X40.524 Y12.006
N6900 X40.824 Y12.313
N6905 X41.117 Y12.628
N6910 X41.402 Y12.949
N6915 X41.679 Y13.277
N6920 X41.948 Y13.612
N6925 X42.21 Y13.953
N6930 X42.463 Y14.299
N6935 X42.708 Y14.652
N6940 X42.945 Y15.011
N6945 X43.173 Y15.374
N6950 X43.393 Y15.744
N6955 X43.603 Y16.118
N6960 X43.805 Y16.497
N6965 X43.998 Y16.881
N6970 X44.181 Y17.269
N6975 X44.356 Y17.662
N6980 X44.521 Y18.058
N6985 X44.676 Y18.459
N6990 X44.823 Y18.863
N6995 X44.959 Y19.27
N7000 X45.086 Y19.68
N7005 X45.202 Y20.094
N7010 X45.309 Y20.51
N7015 X45.407 Y20.928
N7020 X45.494 Y21.349
N7025 X45.571 Y21.771
N7030 X45.604 Y21.98
N7035 X45.614 Y22.052
N7040 X45.619 Y22.125
N7045 X45.621 Y22.198
N7050 Y25.739
N7055 X45.6 Y26.168
N7060 X45.588 Y26.597
N7065 X45.561 Y27.026
N7070 X45.52 Y27.454
N7075 X45.466 Y27.88
N7080 X45.4 Y28.304
N7085 X45.322 Y28.726
N7090 X45.231 Y29.146
N7095 X45.129 Y29.563
N7100 X45.016 Y29.978
N7105 X44.892 Y30.389
N7110 X44.757 Y30.797
N7115 X44.611 Y31.201
N7120 X44.455 Y31.601
N7125 X44.289 Y31.997
N7130 X44.114 Y32.389
N7135 X43.928 Y32.777
N7140 X43.733 Y33.159
N7145 X43.528 Y33.537
N7150 X43.314 Y33.909
N7155 X43.091 Y34.276
N7160 X42.86 Y34.638
N7165 X42.619 Y34.994
N7170 X42.37 Y35.344
N7175 X42.112 Y35.687
N7180 X41.846 Y36.025
N7185 X41.573 Y36.356
N7190 X41.291 Y36.68
N7195 X41.001 Y36.997
N7200 X40.704 Y37.307
N7205 X40.399 Y37.61
N7210 X40.087 Y37.905
N7215 X39.769 Y38.193
N7220 X39.443 Y38.474
N7225 X39.111 Y38.746
N7230 X38.773 Y39.01
N7235 X38.428 Y39.267
N7240 X38.077 Y39.514
N7245 X37.72 Y39.754
N7250 X37.358 Y39.984
N7255 X36.991 Y40.207
N7260 X36.618 Y40.42
N7265 X36.24 Y40.625
N7270 X35.858 Y40.82
N7275 X35.471 Y41.006
N7280 X35.434 Y41.023
N7285 X35.248 Y41.091
N7290 X35.055 Y41.133
N7295 X34.857 Y41.147
N7300 X22.581
N7305 X22.152 Y41.126
N7310 X21.723 Y41.094
N7315 X21.298 Y41.035
N7320 X20.877 Y40.951
N7325 X20.46 Y40.845
N7330 X20.05 Y40.72
N7335 X19.644 Y40.577
N7340 X19.245 Y40.419
N7345 X18.852 Y40.245
N7350 X18.465 Y40.059
N7355 X18.085 Y39.859
N7360 X17.711 Y39.648
N7365 X17.344 Y39.425
N7370 X16.983 Y39.192
N7375 X16.629 Y38.949
N7380 X16.282 Y38.696
N7385 X15.941 Y38.434
N7390 X15.607 Y38.164
N7395 X15.281 Y37.885
N7400 X14.961 Y37.598
N7405 X14.648 Y37.304
N7410 X14.343 Y37.001
N7415 X14.046 Y36.692
N7420 X13.755 Y36.375
N7425 X13.473 Y36.052
N7430 X13.197 Y35.722
N7435 X12.93 Y35.386
N7440 X12.671 Y35.043
N7445 X12.419 Y34.695
N7450 X12.176 Y34.341
N7455 X11.941 Y33.982
N7460 X11.714 Y33.617
N7465 X11.496 Y33.247
N7470 X11.286 Y32.872
N7475 X11.085 Y32.493
N7480 X10.892 Y32.109
N7485 X10.708 Y31.721
N7490 X10.533 Y31.328
N7495 X10.368 Y30.932
N7500 X10.211 Y30.532
N7505 X10.063 Y30.129
N7510 X9.924 Y29.722
N7515 X9.795 Y29.313
N7520 X9.675 Y28.9
N7525 X9.564 Y28.485
N7530 X9.462 Y28.068
N7535 X9.37 Y27.649
N7540 X9.288 Y27.227
N7545 X9.215 Y26.804
N7550 X9.152 Y26.379
N7555 X9.098 Y25.953
N7560 X9.053 Y25.526
N7565 X9.019 Y25.097
N7570 X8.994 Y24.669
N7575 X8.978 Y24.239
N7580 X8.973 Y23.81
N7585 X8.977 Y23.38
N7590 X8.99 Y22.951
N7595 X9.014 Y22.522
N7600 X9.047 Y22.094
N7605 X9.089 Y21.666
N7610 X9.141 Y21.24
N7615 X9.203 Y20.815
N7620 X9.274 Y20.391
N7625 X9.355 Y19.97
N7630 X9.445 Y19.55
N7635 X9.544 Y19.132
N7640 X9.653 Y18.716
N7645 X9.772 Y18.303
N7650 X9.899 Y17.893
N7655 X10.035 Y17.486
N7660 X10.181 Y17.082
N7665 X10.336 Y16.681
N7670 X10.499 Y16.284
N7675 X10.672 Y15.891
N7680 X10.853 Y15.501
N7685 X11.043 Y15.116
N7690 X11.242 Y14.735
N7695 X11.449 Y14.359
N7700 X11.664 Y13.987
N7705 X11.888 Y13.62
N7710 X12.12 Y13.259
N7715 X12.36 Y12.903
N7720 X12.608 Y12.552
N7725 X12.863 Y12.207
N7730 X13.127 Y11.867
N7735 X13.397 Y11.534
N7740 X13.676 Y11.207
N7745 X13.961 Y10.886
N7750 X14.253 Y10.571
N7755 X14.553 Y10.263
N7760 X14.859 Y9.962
N7765 X15.173 Y9.668
N7770 X15.492 Y9.381
N7775 X15.818 Y9.102
N7780 X16.15 Y8.829
N7785 X16.488 Y8.564
N7790 X16.832 Y8.307
N7795 X17.181 Y8.057
N7800 X17.537 Y7.815
N7805 X17.897 Y7.582
N7810 X18.263 Y7.356
N7815 X18.633 Y7.139
N7820 X19.008 Y6.93
N7825 X19.388 Y6.729
N7830 X19.551 Y6.648
N7835 X19.752 Y6.566
N7840 X19.962 Y6.517
N7845 X20.178 Y6.5
N7850 X34.278
N7855 X34.707 Y6.521
N7860 X35.135 Y6.564
N7865 X35.558 Y6.634
N7870 X35.977 Y6.729
N7875 X36.391 Y6.846
N7880 X36.798 Y6.983
N7885 X37.199 Y7.136
N7890 X37.594 Y7.305
N7895 X37.982 Y7.489
N7900 X38.364 Y7.685
N7905 X38.74 Y7.894
N7910 X39.109 Y8.114
N7915 X39.471 Y8.344
N7920 X39.827 Y8.585
N7925 X40.176 Y8.835
N7930 X40.519 Y9.094
N7935 X40.855 Y9.361
N7940 X41.184 Y9.637
N7945 X41.507 Y9.92
N7950 X41.823 Y10.211
N7955 X42.132 Y10.509
N7960 X42.434 Y10.815
N7965 X42.73 Y11.127
N7970 X43.018 Y11.445
N7975 X43.299 Y11.77
N7980 X43.573 Y12.101
N7985 X43.839 Y12.438
N7990 X44.098 Y12.78
N7995 X44.35 Y13.129
N8000 X44.594 Y13.482
N8005 X44.83 Y13.841
N8010 X45.059 Y14.204
N8015 X45.28 Y14.573
N8020 X45.437 Y14.848
N8025 X45.538 Y15.068
N8030 X45.6 Y15.301
N8035 X45.621 Y15.542
N8040 Y22.198
N8045 G3 X44.533 Y22.525 I-0.6 J-0.021
N8050 G1 X44.306 Y22.206
N8055 X34.154 Y7.93
N8060 X33.81 Y7.447
N8065 G3 X34.278 Y6.5 I0.489 J-0.348
N8070 G1 X38.417
N8075 X38.806 Y6.519
N8080 X39.193 Y6.57
N8085 X39.613 Y6.66
N8090 X40.025 Y6.782
N8095 X40.428 Y6.93
N8100 X40.822 Y7.102
N8105 X41.206 Y7.294
N8110 X41.581 Y7.504
N8115 X41.946 Y7.729
N8120 X42.303 Y7.968
N8125 X42.651 Y8.22
N8130 X42.991 Y8.483
N8135 X43.322 Y8.757
N8140 X43.645 Y9.04
N8145 X43.96 Y9.332
N8150 X44.267 Y9.632
N8155 X44.566 Y9.94
N8160 X44.858 Y10.255
N8165 X45.142 Y10.578
N8170 X45.293 Y10.756
N8175 X45.433 Y10.957
N8180 X45.537 Y11.178
N8185 X45.6 Y11.414
N8190 X45.621 Y11.658
N8195 Y15.542
N8200 G3 X44.549 Y15.891 I-0.6 J-0.021
N8205 G1 X44.291 Y15.561
N8210 X38.314 Y7.915
N8215 X37.966 Y7.469
N8220 G3 X38.417 Y6.5 I0.473 J-0.37
N8225 G1 X41.657
N8230 X42.076 Y6.521
N8235 X42.404 Y6.564
N8240 X42.775 Y6.643
N8245 X43.186 Y6.767
N8250 X43.586 Y6.922
N8255 X43.975 Y7.104
N8260 X44.352 Y7.31
N8265 X44.718 Y7.535
N8270 X45.012 Y7.736
N8275 X45.22 Y7.91
N8280 X45.39 Y8.122
N8285 X45.517 Y8.362
N8290 X45.595 Y8.622
N8295 X45.621 Y8.892
N8300 G3 X44.741 Y9.401 I-0.6 J-0.021
N8305 G1 X44.148 Y9.087
N8310 X41.674 Y7.776
N8315 X41.397 Y7.63
N8320 G3 X41.657 Y6.5 I0.281 J-0.53
N8325 G1 X44.536
N8330 X44.781 Y6.512
N8335 X45.005 Y6.57
N8340 X45.209 Y6.678
N8345 X45.382 Y6.833
N8350 X45.512 Y7.024
N8355 X45.594 Y7.24
N8360 X45.621 Y7.47
N8365 G3 X44.661 Y7.928 I-0.6 J-0.021
N8370 G1 X44.523 Y7.824
N8375 X44.197 Y7.579
N8380 G3 X44.536 Y6.5 I0.36 J-0.48
N8385 G1 X44.896
N8390 X45.076 Y6.504
N8395 X45.155 Y6.518
N8400 X45.206 Y6.533
N8405 X45.256 Y6.553
N8410 X45.346 Y6.604
N8415 X45.391 Y6.638
N8420 X45.436 Y6.679
N8425 X45.455 Y6.698
N8430 X45.494 Y6.743
N8435 X45.526 Y6.788
N8440 X45.573 Y6.877
N8445 X45.6 Y6.955
N8450 X45.616 Y7.033
N8455 X45.619 Y7.057
N8460 X45.621 Y7.237
N8465 Y11.658
N8470 G3 X44.422 Y11.631 I-0.6 J-0.021
N8475 Y11.616 I0.6 J0.006
N8480 G1 X44.425 Y11.522 Z-1.993
N8485 X44.429 Y11.431 Z-1.971
N8490 X44.432 Y11.344 Z-1.935
N8495 X44.434 Y11.263 Z-1.885
N8500 X44.437 Y11.192 Z-1.824
N8505 X44.439 Y11.131 Z-1.753
N8510 X44.441 Y11.082 Z-1.672
N8515 X44.442 Y11.046 Z-1.585
N8520 X44.443 Y11.024 Z-1.494
N8525 Y11.016 Z-1.4
N8530 G0 Z5.
N8535 X24.905 Y40.309
N8540 Z-0.8
N8545 G1 Z-1.4 F100.
N8550 X24.899 Y40.313 Z-1.494
N8555 X24.88 Y40.324 Z-1.585
N8560 X24.849 Y40.343 Z-1.672
N8565 X24.807 Y40.368 Z-1.753
N8570 X24.754 Y40.399 Z-1.824
N8575 X24.692 Y40.436 Z-1.885
N8580 X24.623 Y40.477 Z-1.935
N8585 X24.549 Y40.521 Z-1.971
N8590 X24.47 Y40.568 Z-1.993
N8595 X24.389 Y40.616 Z-2.
N8600 G3 X22.581 Y41.147 I-1.941 J-3.265
N8605 G1 X18.262
N8610 X17.833 Y41.126
N8615 X17.619 Y41.099
N8620 X17.205 Y41.029
N8625 X16.789 Y40.923
N8630 X16.381 Y40.788
N8635 X15.983 Y40.628
N8640 X15.593 Y40.446
N8645 X15.214 Y40.245
N8650 X14.843 Y40.028
N8655 X14.482 Y39.795
N8660 X14.13 Y39.549
N8665 X13.787 Y39.291
N8670 X13.452 Y39.022
N8675 X13.126 Y38.742
N8680 X12.808 Y38.453
N8685 X12.499 Y38.156
N8690 X12.197 Y37.85
N8695 X11.904 Y37.536
N8700 X11.619 Y37.215
N8705 X11.342 Y36.886
N8710 X11.072 Y36.552
N8715 X10.811 Y36.211
N8720 X10.557 Y35.864
N8725 X10.311 Y35.512
N8730 X10.073 Y35.155
N8735 X9.843 Y34.792
N8740 X9.621 Y34.424
N8745 X9.407 Y34.052
N8750 X9.201 Y33.675
N8755 X9.003 Y33.294
N8760 X8.813 Y32.909
N8765 X8.631 Y32.52
N8770 X8.457 Y32.127
N8775 X8.291 Y31.731
N8780 X8.134 Y31.331
N8785 X7.984 Y30.928
N8790 X7.843 Y30.523
N8795 X7.711 Y30.114
N8800 X7.586 Y29.703
N8805 X7.471 Y29.289
N8810 X7.363 Y28.874
N8815 X7.264 Y28.456
N8820 X7.174 Y28.036
N8825 X7.092 Y27.614
N8830 X7.018 Y27.191
N8835 X7.016 Y27.177
N8840 X7.007 Y27.107
N8845 X7.002 Y27.036
N8850 X7. Y26.966
N8855 Y22.326
N8860 X7.021 Y21.897
N8865 X7.034 Y21.468
N8870 X7.06 Y21.039
N8875 X7.098 Y20.611
N8880 X7.148 Y20.184
N8885 X7.21 Y19.759
N8890 X7.282 Y19.336
N8895 X7.365 Y18.914
N8900 X7.458 Y18.495
N8905 X7.561 Y18.078
N8910 X7.673 Y17.663
N8915 X7.795 Y17.252
N8920 X7.926 Y16.842
N8925 X8.065 Y16.436
N8930 X8.214 Y16.033
N8935 X8.371 Y15.633
N8940 X8.536 Y15.237
N8945 X8.71 Y14.844
N8950 X8.892 Y14.455
N8955 X9.081 Y14.07
N8960 X9.279 Y13.688
N8965 X9.484 Y13.311
N8970 X9.698 Y12.938
N8975 X9.918 Y12.57
N8980 X10.147 Y12.206
N8985 X10.382 Y11.847
N8990 X10.625 Y11.493
N8995 X10.875 Y11.143
N9000 X11.132 Y10.799
N9005 X11.396 Y10.46
N9010 X11.666 Y10.126
N9015 X11.944 Y9.798
N9020 X12.227 Y9.476
N9025 X12.518 Y9.159
N9030 X12.814 Y8.849
N9035 X13.117 Y8.544
N9040 X13.426 Y8.246
N9045 X13.741 Y7.953
N9050 X14.061 Y7.667
N9055 X14.387 Y7.388
N9060 X14.719 Y7.115
N9065 X15.056 Y6.849
N9070 X15.143 Y6.784
N9075 X15.401 Y6.629
N9080 X15.687 Y6.533
N9085 X15.987 Y6.5
N9090 X20.178
N9095 G3 X20.619 Y7.482 I-0.021 J0.6
N9100 G1 X20.269 Y7.905
N9105 X8.339 Y22.351
N9110 X8.062 Y22.687
N9115 G3 X7. Y22.326 I-0.463 J-0.382
N9120 G1 Y15.5
N9125 X7.021 Y15.071
N9130 X7.067 Y14.644
N9135 X7.141 Y14.221
N9140 X7.239 Y13.802
N9145 X7.358 Y13.39
N9150 X7.496 Y12.983
N9155 X7.651 Y12.582
N9160 X7.82 Y12.188
N9165 X8.003 Y11.799
N9170 X8.198 Y11.416
N9175 X8.404 Y11.039
N9180 X8.621 Y10.668
N9185 X8.847 Y10.303
N9190 X9.082 Y9.944
N9195 X9.326 Y9.591
N9200 X9.579 Y9.243
N9205 X9.839 Y8.901
N9210 X10.106 Y8.565
N9215 X10.38 Y8.234
N9220 X10.661 Y7.909
N9225 X10.949 Y7.591
N9230 X11.243 Y7.277
N9235 X11.543 Y6.97
N9240 X11.611 Y6.903
N9245 X11.823 Y6.732
N9250 X12.063 Y6.605
N9255 X12.323 Y6.526
N9260 X12.594 Y6.5
N9265 X15.987
N9270 G3 X16.391 Y7.524 I-0.021 J0.6
N9275 G1 X16.043 Y7.872
N9280 X8.372 Y15.555
N9285 X8.024 Y15.903
N9290 G3 X7. Y15.5 I-0.425 J-0.424
N9295 G1 Y11.368
N9300 X7.021 Y10.95
N9305 X7.074 Y10.548
N9310 X7.163 Y10.128
N9315 X7.284 Y9.716
N9320 X7.43 Y9.312
N9325 X7.598 Y8.916
N9330 X7.785 Y8.53
N9335 X7.989 Y8.152
N9340 X8.207 Y7.782
N9345 X8.439 Y7.421
N9350 X8.684 Y7.067
N9355 X8.694 Y7.054
N9360 X8.916 Y6.822
N9365 X9.186 Y6.646
N9370 X9.489 Y6.537
N9375 X9.809 Y6.5
N9380 G3 X10.322 Y7.374 I-0.021 J0.6
N9385 G1 X10.011 Y7.977
N9390 X8.273 Y11.35
N9395 X8.133 Y11.622
N9400 G3 X7. Y11.368 I-0.533 J-0.275
N9405 G1 Y7.955
N9410 X7.013 Y7.687
N9415 X7.078 Y7.414
N9420 X7.197 Y7.161
N9425 X7.366 Y6.937
N9430 X7.576 Y6.752
N9435 X7.821 Y6.614
N9440 X8.088 Y6.529
N9445 X8.366 Y6.5
N9450 G3 X8.793 Y7.499 I-0.021 J0.6
N9455 G1 X8.442 Y7.892
N9460 X8.353 Y7.992
N9465 X8.047 Y8.334
N9470 G3 X7. Y7.955 I-0.447 J-0.4
N9475 G1 Y7.237
N9480 X7.003 Y7.057
N9485 X7.018 Y6.967
N9490 X7.048 Y6.877
N9495 X7.073 Y6.826
N9500 X7.104 Y6.775
N9505 X7.167 Y6.698
N9510 X7.225 Y6.643
N9515 X7.284 Y6.599
N9520 X7.374 Y6.55
N9525 X7.464 Y6.519
N9530 X7.468 Y6.518
N9535 X7.556 Y6.503
N9540 X7.644 Y6.5
N9545 X12.594
N9550 G3 X12.567 Y7.7 I-0.021 J0.6
N9555 X12.552 Y7.699 I0.006 J-0.6
N9560 G1 X12.458 Y7.696 Z-1.993
N9565 X12.367 Y7.693 Z-1.971
N9570 X12.28 Y7.69 Z-1.935
N9575 X12.2 Y7.687 Z-1.885
N9580 X12.128 Y7.684 Z-1.824
N9585 X12.067 Y7.682 Z-1.753
N9590 X12.018 Y7.681 Z-1.672
N9595 X11.982 Y7.679 Z-1.585
N9600 X11.96 Z-1.494
N9605 X11.952 Y7.678 Z-1.4
N9610 G0 Z5.
N9615 X20.586 Y40.309
N9620 Z-0.8
N9625 G1 Z-1.4 F100.
N9630 X20.58 Y40.313 Z-1.494
N9635 X20.561 Y40.324 Z-1.585
N9640 X20.53 Y40.343 Z-1.672
N9645 X20.487 Y40.368 Z-1.753
N9650 X20.435 Y40.399 Z-1.824
N9655 X20.373 Y40.436 Z-1.885
N9660 X20.304 Y40.477 Z-1.935
N9665 X20.23 Y40.521 Z-1.971
N9670 X20.151 Y40.568 Z-1.993
N9675 X20.07 Y40.616 Z-2.
N9680 G3 X18.262 Y41.147 I-1.941 J-3.265
N9685 G1 X14.842
N9690 X14.546 Y41.132
N9695 X14.222 Y41.09
N9700 X13.854 Y41.011
N9705 X13.443 Y40.888
N9710 X13.042 Y40.732
N9715 X12.654 Y40.549
N9720 X12.277 Y40.343
N9725 X11.912 Y40.117
N9730 X11.558 Y39.873
N9735 X11.216 Y39.614
N9740 X10.884 Y39.341
N9745 X10.562 Y39.056
N9750 X10.251 Y38.76
N9755 X9.949 Y38.455
N9760 X9.657 Y38.14
N9765 X9.373 Y37.818
N9770 X9.099 Y37.487
N9775 X8.833 Y37.15
N9780 X8.575 Y36.806
N9785 X8.326 Y36.456
N9790 X8.086 Y36.1
N9795 X7.853 Y35.739
N9800 X7.629 Y35.373
N9805 X7.412 Y35.002
N9810 X7.203 Y34.627
N9815 X7.163 Y34.551
N9820 X7.073 Y34.342
N9825 X7.018 Y34.122
N9830 X7. Y33.895
N9835 Y26.966
N9840 G3 X8.129 Y26.704 I0.6 J0.021
N9845 G1 X8.277 Y26.982
N9850 X15.036 Y39.674
N9855 X15.351 Y40.266
N9860 G3 X14.842 Y41.147 I-0.53 J0.282
N9865 G1 X11.963
N9870 X11.611 Y41.13
N9875 X11.319 Y41.091
N9880 X10.989 Y41.021
N9885 X10.62 Y40.91
N9890 X10.22 Y40.754
N9895 X9.833 Y40.568
N9900 X9.46 Y40.355
N9905 X9.1 Y40.12
N9910 X8.753 Y39.867
N9915 X8.419 Y39.597
N9920 X8.097 Y39.313
N9925 X7.787 Y39.016
N9930 X7.487 Y38.708
N9935 X7.363 Y38.572
N9940 X7.209 Y38.366
N9945 X7.094 Y38.135
N9950 X7.024 Y37.887
N9955 X7. Y37.631
N9960 G3 X7.933 Y37.153 I0.6 J0.021
N9965 G1 X8.44 Y37.491
N9970 X11.964 Y39.841
N9975 X12.275 Y40.048
N9980 G3 X11.963 Y41.147 I-0.333 J0.499
N9985 G1 X9.084
N9990 X8.879 Y41.137
N9995 X8.602 Y41.101
N10000 X8.292 Y41.034
N10005 X7.964 Y40.936
N10010 X7.892 Y40.908
N10015 X7.643 Y40.781
N10020 X7.424 Y40.607
N10025 X7.244 Y40.394
N10030 X7.11 Y40.148
N10035 X7.028 Y39.882
N10040 X7. Y39.604
N10045 G3 X7.92 Y39.117 I0.6 J0.021
N10050 G1 X8.449 Y39.451
N10055 X9.079 Y39.849
N10060 X9.383 Y40.04
N10065 G3 X9.084 Y41.147 I-0.32 J0.507
N10070 G1 X7.644
N10075 X7.554 Y41.144
N10080 X7.464 Y41.128
N10085 X7.374 Y41.097
N10090 X7.284 Y41.048
N10095 X7.23 Y41.008
N10100 X7.158 Y40.939
N10105 X7.104 Y40.871
N10110 X7.077 Y40.828
N10115 X7.036 Y40.738
N10120 X7.011 Y40.648
N10125 X7.001 Y40.559
N10130 X7. Y40.469
N10135 Y33.895
N10140 G3 X8.2 Y33.922 I0.6 J0.021
N10145 X8.199 Y33.937 I-0.6 J-0.006
N10150 G1 X8.196 Y34.031 Z-1.993
N10155 X8.193 Y34.123 Z-1.971
N10160 X8.19 Y34.21 Z-1.935
N10165 X8.187 Y34.29 Z-1.885
N10170 X8.184 Y34.361 Z-1.824
N10175 X8.182 Y34.422 Z-1.753
N10180 X8.181 Y34.472 Z-1.672
N10185 X8.179 Y34.508 Z-1.585
N10190 Y34.53 Z-1.494
N10195 X8.178 Y34.537 Z-1.4
N10200 G0 Z5.
N10205 X44.784 Y23.415
N10210 Z-0.8
N10215 G1 Z-1.4 F100.
N10220 X44.787 Y23.421 Z-1.494
N10225 X44.799 Y23.44 Z-1.585
N10230 X44.817 Y23.471 Z-1.672
N10235 X44.842 Y23.513 Z-1.753
N10240 X44.873 Y23.566 Z-1.824
N10245 X44.91 Y23.627 Z-1.885
N10250 X44.951 Y23.696 Z-1.935
N10255 X44.995 Y23.771 Z-1.971
N10260 X45.042 Y23.85 Z-1.993
N10265 X45.09 Y23.93 Z-2.
N10270 G3 X45.621 Y25.739 I-3.265 J1.941
N10275 G1 Y32.026
N10280 X45.6 Y32.455
N10285 X45.556 Y32.882
N10290 X45.48 Y33.305
N10295 X45.376 Y33.722
N10300 X45.25 Y34.132
N10305 X45.102 Y34.536
N10310 X44.936 Y34.932
N10315 X44.753 Y35.321
N10320 X44.556 Y35.702
N10325 X44.345 Y36.076
N10330 X44.121 Y36.443
N10335 X43.886 Y36.802
N10340 X43.64 Y37.155
N10345 X43.385 Y37.5
N10350 X43.119 Y37.838
N10355 X42.845 Y38.168
N10360 X42.563 Y38.492
N10365 X42.273 Y38.808
N10370 X41.974 Y39.118
N10375 X41.669 Y39.419
N10380 X41.356 Y39.714
N10385 X41.036 Y40.001
N10390 X40.71 Y40.281
N10395 X40.378 Y40.553
N10400 X40.04 Y40.818
N10405 X39.972 Y40.868
N10410 X39.715 Y41.021
N10415 X39.431 Y41.115
N10420 X39.134 Y41.147
N10425 X34.857
N10430 G3 X34.493 Y40.088 I0.021 J-0.6
N10435 G1 X34.83 Y39.805
N10440 X44.219 Y31.937
N10445 X44.636 Y31.587
N10450 G3 X45.621 Y32.026 I0.385 J0.46
N10455 G1 Y35.798
N10460 X45.6 Y36.227
N10465 X45.574 Y36.441
N10470 X45.509 Y36.826
N10475 X45.404 Y37.243
N10480 X45.267 Y37.65
N10485 X45.104 Y38.047
N10490 X44.917 Y38.434
N10495 X44.711 Y38.811
N10500 X44.488 Y39.178
N10505 X44.249 Y39.535
N10510 X43.996 Y39.882
N10515 X43.731 Y40.22
N10520 X43.455 Y40.549
N10525 X43.337 Y40.681
N10530 X43.119 Y40.878
N10535 X42.865 Y41.025
N10540 X42.586 Y41.116
N10545 X42.294 Y41.147
N10550 G3 X41.794 Y40.249 I0.021 J-0.6
N10555 G1 X42.117 Y39.684
N10560 X44.336 Y35.81
N10565 X44.501 Y35.521
N10570 G3 X45.621 Y35.798 I0.521 J0.298
N10575 G1 Y39.032
N10580 X45.602 Y39.411
N10585 X45.561 Y39.724
N10590 X45.496 Y40.028
N10595 X45.46 Y40.149
N10600 X45.345 Y40.424
N10605 X45.174 Y40.668
N10610 X44.955 Y40.87
N10615 X44.698 Y41.022
N10620 X44.415 Y41.115
N10625 X44.119 Y41.147
N10630 G3 X43.623 Y40.243 I0.021 J-0.6
N10635 G1 X43.95 Y39.688
N10640 X44.332 Y39.041
N10645 X44.505 Y38.748
N10650 G3 X45.621 Y39.032 I0.517 J0.305
N10655 G1 Y40.469
N10660 X45.616 Y40.613
N10665 X45.61 Y40.648
N10670 X45.585 Y40.738
N10675 X45.544 Y40.828
N10680 X45.498 Y40.898
N10685 X45.436 Y40.968
N10690 X45.393 Y41.008
N10695 X45.325 Y41.057
N10700 X45.256 Y41.094
N10705 X45.166 Y41.126
N10710 X45.076 Y41.143
N10715 X44.896 Y41.147
N10720 X39.134
N10725 G3 X38.662 Y40.206 I0.021 J-0.6
N10730 G1 X38.714 Y40.154 Z-1.995
N10735 X38.765 Y40.103 Z-1.982
N10740 X38.815 Y40.053 Z-1.959
N10745 X38.888 Y40.021 Z-1.921
N10750 X38.954 Y39.991 Z-1.871
N10755 X39.013 Y39.964 Z-1.812
N10760 X39.06 Y39.959 Z-1.755
N10765 X39.1 Y39.954 Z-1.693
N10770 X39.131 Y39.95 Z-1.627
N10775 X39.155 Y39.948 Z-1.557
N10780 X39.161 Z-1.533
N10785 X39.172 Z-1.467
N10790 X39.176 Z-1.4
N10795 G0 Z5.
N10800 X-1.878 Y-2.178
N10805 Z-0.2
N10810 G1 Z-0.8 F100.
N10815 X-1.873 Y-2.173 Z-0.894
N10820 X-1.858 Y-2.157 Z-0.985
N10825 X-1.833 Y-2.131 Z-1.072
N10830 X-1.798 Y-2.096 Z-1.153
N10835 X-1.755 Y-2.052 Z-1.224
N10840 X-1.705 Y-2.001 Z-1.285
N10845 X-1.649 Y-1.944 Z-1.335
N10850 X-1.588 Y-1.881 Z-1.371
N10855 X-1.524 Y-1.816 Z-1.393
N10860 X-1.459 Y-1.749 Z-1.4
N10865 G3 X-0.293 Y-0.267 I-6.255 J6.118
N10870 G1 X-0.287 Y-0.255
N10875 Y-0.241
N10880 X-0.293 Y-0.23
N10885 X-0.634 Y0.112
N10890 X-0.751 Y0.231
N10895 G3 X-1.755 Y-0.088 I-0.415 J-0.434
N10900 G1 X-1.76 Y-0.146 Z-1.397
N10905 X-1.766 Y-0.203 Z-1.389
N10910 X-1.752 Y-0.278 Z-1.368
N10915 X-1.739 Y-0.349 Z-1.338
N10920 X-1.726 Y-0.416 Z-1.299
N10925 X-1.691 Y-0.474 Z-1.246
N10930 X-1.66 Y-0.525 Z-1.183
N10935 X-1.634 Y-0.568 Z-1.113
N10940 X-1.614 Y-0.602 Z-1.036
N10945 X-1.601 Y-0.616 Z-0.985
N10950 X-1.591 Y-0.626 Z-0.933
N10955 X-1.583 Y-0.634 Z-0.867
N10960 X-1.58 Y-0.637 Z-0.8
N10965 G0 Z5.
N10970 X-2.338 Y-1.669
N10975 Z0.
N10980 G1 Z-0.6 F100.
N10985 X-2.331 Y-1.666 Z-0.694
N10990 X-2.312 Y-1.654 Z-0.785
N10995 X-2.281 Y-1.636 Z-0.872
N11000 X-2.239 Y-1.611 Z-0.953
N11005 X-2.186 Y-1.58 Z-1.024
N11010 X-2.125 Y-1.543 Z-1.085
N11015 X-2.056 Y-1.503 Z-1.135
N11020 X-1.981 Y-1.458 Z-1.171
N11025 X-1.902 Y-1.412 Z-1.193
N11030 X-1.821 Y-1.364 Z-1.2
N11035 G3 X-0.312 Y-0.234 I-4.458 J7.529
N11040 G1 X-0.291 Y-0.213
N11045 X-0.287 Y-0.199
N11050 X-0.289 Y-0.186
N11055 X-0.297 Y-0.174
N11060 X-0.522 Y0.051
N11065 X-0.634 Y0.164
N11070 X-0.699 Y0.231
N11075 X-0.814 Y0.352
N11080 X-0.865 Y0.411
N11085 X-0.994 Y0.579
N11090 X-1.003 Y0.59
N11095 X-1.13 Y0.77
N11100 X-1.239 Y0.95
N11105 X-1.337 Y1.129
N11110 X-1.354 Y1.163
N11115 X-1.429 Y1.309
N11120 X-1.714 Y1.869
N11125 X-1.795 Y2.027
N11130 X-1.894 Y2.224
N11135 X-1.969 Y2.387
N11140 X-2.041 Y2.566
N11145 X-2.101 Y2.746
N11150 X-2.151 Y2.926
N11155 X-2.193 Y3.105
N11160 X-2.222 Y3.285
N11165 X-2.25 Y3.464
N11170 X-2.381 Y4.363
N11175 X-2.405 Y4.542
N11180 X-2.424 Y4.722
N11185 X-2.434 Y4.902
N11190 X-2.437 Y5.081
N11195 Y5.261
N11200 Y42.265
N11205 Y42.445
N11210 X-2.434 Y42.624
N11215 X-2.424 Y42.804
N11220 X-2.405 Y42.984
N11225 X-2.381 Y43.163
N11230 X-2.25 Y44.061
N11235 X-2.222 Y44.241
N11240 X-2.193 Y44.421
N11245 X-2.151 Y44.6
N11250 X-2.101 Y44.78
N11255 X-2.041 Y44.96
N11260 X-1.969 Y45.139
N11265 X-1.894 Y45.302
N11270 X-1.795 Y45.499
N11275 X-1.704 Y45.678
N11280 X-1.429 Y46.217
N11285 X-1.354 Y46.363
N11290 X-1.337 Y46.397
N11295 X-1.239 Y46.576
N11300 X-1.13 Y46.756
N11305 X-1.003 Y46.936
N11310 X-0.994 Y46.947
N11315 X-0.865 Y47.115
N11320 X-0.814 Y47.173
N11325 X-0.699 Y47.295
N11330 X-0.634 Y47.362
N11335 X-0.522 Y47.474
N11340 X0.085 Y48.082
N11345 X0.198 Y48.193
N11350 X0.265 Y48.258
N11355 X0.39 Y48.373
N11360 X0.445 Y48.418
N11365 X0.625 Y48.556
N11370 X0.805 Y48.677
N11375 X0.985 Y48.787
N11380 X1.165 Y48.882
N11385 X1.929 Y49.271
N11390 X2.245 Y49.431
N11395 X2.287 Y49.45
N11400 X2.425 Y49.513
N11405 X2.605 Y49.58
N11410 X2.785 Y49.64
N11415 X2.965 Y49.686
N11420 X3.145 Y49.725
N11425 X3.325 Y49.755
N11430 X3.505 Y49.782
N11435 X4.225 Y49.887
N11440 X4.404 Y49.912
N11445 X4.584 Y49.937
N11450 X4.764 Y49.952
N11455 X4.944 Y49.962
N11460 X5.124 Y49.963
N11465 X5.304
N11470 X46.696
N11475 X46.876
N11480 X47.056 Y49.962
N11485 X47.236 Y49.952
N11490 X47.416 Y49.937
N11495 X47.596 Y49.912
N11500 X47.775 Y49.887
N11505 X48.495 Y49.782
N11510 X48.675 Y49.755
N11515 X48.855 Y49.725
N11520 X49.035 Y49.686
N11525 X49.215 Y49.64
N11530 X49.395 Y49.58
N11535 X49.575 Y49.513
N11540 X49.713 Y49.45
N11545 X49.755 Y49.431
N11550 X50.115 Y49.248
N11555 X50.835 Y48.882
N11560 X51.015 Y48.787
N11565 X51.195 Y48.677
N11570 X51.375 Y48.556
N11575 X51.555 Y48.418
N11580 X51.61 Y48.373
N11585 X51.735 Y48.258
N11590 X51.802 Y48.193
N11595 X51.915 Y48.082
N11600 X52.522 Y47.474
N11605 X52.634 Y47.362
N11610 X52.699 Y47.295
N11615 X52.814 Y47.173
N11620 X52.865 Y47.115
N11625 X52.994 Y46.947
N11630 X53.003 Y46.936
N11635 X53.13 Y46.756
N11640 X53.239 Y46.576
N11645 X53.337 Y46.397
N11650 X53.354 Y46.363
N11655 X53.429 Y46.217
N11660 X53.714 Y45.657
N11665 X53.795 Y45.499
N11670 X53.894 Y45.302
N11675 X53.969 Y45.139
N11680 X54.041 Y44.96
N11685 X54.101 Y44.78
N11690 X54.151 Y44.6
N11695 X54.193 Y44.421
N11700 X54.222 Y44.241
N11705 X54.25 Y44.061
N11710 X54.381 Y43.163
N11715 X54.405 Y42.984
N11720 X54.424 Y42.804
N11725 X54.434 Y42.624
N11730 X54.437 Y42.445
N11735 Y42.265
N11740 Y5.261
N11745 Y5.081
N11750 X54.434 Y4.901
N11755 X54.424 Y4.722
N11760 X54.405 Y4.542
N11765 X54.381 Y4.363
N11770 X54.25 Y3.464
N11775 X54.222 Y3.285
N11780 X54.193 Y3.105
N11785 X54.151 Y2.926
N11790 X54.101 Y2.746
N11795 X54.041 Y2.566
N11800 X53.969 Y2.387
N11805 X53.894 Y2.224
N11810 X53.795 Y2.027
N11815 X53.704 Y1.848
N11820 X53.429 Y1.309
N11825 X53.354 Y1.163
N11830 X53.337 Y1.129
N11835 X53.239 Y0.95
N11840 X53.13 Y0.77
N11845 X53.003 Y0.59
N11850 X52.994 Y0.579
N11855 X52.865 Y0.411
N11860 X52.814 Y0.352
N11865 X52.699 Y0.231
N11870 X52.634 Y0.164
N11875 X52.522 Y0.051
N11880 X51.915 Y-0.556
N11885 X51.802 Y-0.667
N11890 X51.735 Y-0.732
N11895 X51.61 Y-0.847
N11900 X51.555 Y-0.893
N11905 X51.375 Y-1.03
N11910 X51.195 Y-1.151
N11915 X51.015 Y-1.261
N11920 X50.835 Y-1.356
N11925 X50.071 Y-1.745
N11930 X49.755 Y-1.905
N11935 X49.713 Y-1.925
N11940 X49.575 Y-1.987
N11945 X49.395 Y-2.054
N11950 X49.215 Y-2.114
N11955 X49.035 Y-2.16
N11960 X48.855 Y-2.199
N11965 X48.675 Y-2.229
N11970 X48.495 Y-2.256
N11975 X47.775 Y-2.361
N11980 X47.596 Y-2.387
N11985 X47.416 Y-2.411
N11990 X47.236 Y-2.426
N11995 X47.056 Y-2.436
N12000 X46.876 Y-2.437
N12005 X46.696
N12010 X5.304
N12015 X5.124
N12020 X4.944 Y-2.436
N12025 X4.764 Y-2.426
N12030 X4.584 Y-2.411
N12035 X4.404 Y-2.387
N12040 X4.225 Y-2.361
N12045 X3.505 Y-2.256
N12050 X3.325 Y-2.229
N12055 X3.145 Y-2.199
N12060 X2.965 Y-2.16
N12065 X2.785 Y-2.114
N12070 X2.605 Y-2.054
N12075 X2.425 Y-1.987
N12080 X2.287 Y-1.925
N12085 X2.245 Y-1.905
N12090 X1.885 Y-1.723
N12095 X1.165 Y-1.356
N12100 X0.985 Y-1.261
N12105 X0.805 Y-1.151
N12110 X0.625 Y-1.03
N12115 X0.445 Y-0.893
N12120 X0.39 Y-0.847
N12125 X0.265 Y-0.732
N12130 X0.198 Y-0.667
N12135 X0.085 Y-0.556
N12140 X-0.297 Y-0.174
N12145 G3 X-1.296 Y-0.506 I-0.409 J-0.439
N12150 G1 X-1.301 Y-0.559 Z-1.198
N12155 X-1.306 Y-0.613 Z-1.19
N12160 X-1.292 Y-0.687 Z-1.171
N12165 X-1.279 Y-0.759 Z-1.142
N12170 X-1.267 Y-0.826 Z-1.104
N12175 X-1.232 Y-0.883 Z-1.053
N12180 X-1.201 Y-0.934 Z-0.994
N12185 X-1.175 Y-0.977 Z-0.926
N12190 X-1.154 Y-1.012 Z-0.853
N12195 X-1.138 Y-1.029 Z-0.794
N12200 X-1.126 Y-1.041 Z-0.733
N12205 X-1.118 Y-1.049 Z-0.667
N12210 X-1.115 Y-1.052 Z-0.6
N12215 G0 Z5.
N12220 X-2.31 Y-1.658
N12225 Z0.202
N12230 G1 Z-0.398 F100.
N12235 X-2.303 Y-1.654 Z-0.492
N12240 X-2.285 Y-1.643 Z-0.583
N12245 X-2.254 Y-1.625 Z-0.67
N12250 X-2.211 Y-1.6 Z-0.751
N12255 X-2.159 Y-1.569 Z-0.822
N12260 X-2.097 Y-1.532 Z-0.883
N12265 X-2.028 Y-1.491 Z-0.933
N12270 X-1.953 Y-1.447 Z-0.969
N12275 X-1.874 Y-1.4 Z-0.991
N12280 X-1.794 Y-1.352 Z-0.998
N12285 G3 X-0.285 Y-0.223 I-4.458 J7.529
N12290 G1 X-0.246 Y-0.185
N12295 X-0.235 Y-0.137
N12300 X-0.243 Y-0.089
N12305 X-0.27 Y-0.048
N12310 X-0.455 Y0.136
N12315 X-0.547 Y0.231
N12320 X-0.718 Y0.411
N12325 X-0.814 Y0.521
N12330 X-0.868 Y0.59
N12335 X-0.994 Y0.759
N12340 X-1.002 Y0.77
N12345 X-1.116 Y0.95
N12350 X-1.174 Y1.054
N12355 X-1.308 Y1.309
N12360 X-1.714 Y2.107
N12365 X-1.765 Y2.207
N12370 X-1.848 Y2.387
N12375 X-1.894 Y2.491
N12380 X-1.927 Y2.566
N12385 X-1.99 Y2.746
N12390 X-2.039 Y2.926
N12395 X-2.083 Y3.105
N12400 X-2.117 Y3.285
N12405 X-2.15 Y3.464
N12410 X-2.182 Y3.644
N12415 X-2.214 Y3.824
N12420 X-2.254 Y4.057
N12425 X-2.276 Y4.183
N12430 X-2.306 Y4.363
N12435 X-2.331 Y4.542
N12440 X-2.351 Y4.722
N12445 X-2.362 Y4.901
N12450 X-2.365 Y5.081
N12455 Y5.261
N12460 Y42.265
N12465 Y42.445
N12470 X-2.362 Y42.624
N12475 X-2.351 Y42.804
N12480 X-2.331 Y42.984
N12485 X-2.306 Y43.163
N12490 X-2.276 Y43.343
N12495 X-2.254 Y43.469
N12500 X-2.214 Y43.702
N12505 X-2.182 Y43.882
N12510 X-2.15 Y44.061
N12515 X-2.117 Y44.241
N12520 X-2.083 Y44.421
N12525 X-2.039 Y44.6
N12530 X-1.99 Y44.78
N12535 X-1.927 Y44.96
N12540 X-1.894 Y45.035
N12545 X-1.848 Y45.139
N12550 X-1.765 Y45.319
N12555 X-1.534 Y45.773
N12560 X-1.308 Y46.217
N12565 X-1.174 Y46.472
N12570 X-1.116 Y46.576
N12575 X-1.002 Y46.756
N12580 X-0.994 Y46.767
N12585 X-0.868 Y46.936
N12590 X-0.814 Y47.005
N12595 X-0.718 Y47.115
N12600 X-0.547 Y47.295
N12605 X-0.455 Y47.39
N12610 X0.169 Y48.013
N12615 X0.445 Y48.278
N12620 X0.564 Y48.373
N12625 X0.625 Y48.421
N12630 X0.806 Y48.552
N12635 X0.985 Y48.664
N12640 X1.165 Y48.758
N12645 X1.345 Y48.852
N12650 X2.245 Y49.311
N12655 X2.425 Y49.391
N12660 X2.561 Y49.45
N12665 X2.605 Y49.466
N12670 X2.785 Y49.528
N12675 X2.965 Y49.575
N12680 X3.145 Y49.617
N12685 X3.325 Y49.65
N12690 X3.505 Y49.683
N12695 X3.685 Y49.715
N12700 X4.045 Y49.778
N12705 X4.232 Y49.81
N12710 X4.404 Y49.838
N12715 X4.584 Y49.863
N12720 X4.764 Y49.879
N12725 X4.944 Y49.89
N12730 X5.124
N12735 X5.304 Y49.891
N12740 X46.696
N12745 X46.876 Y49.89
N12750 X47.056
N12755 X47.236 Y49.879
N12760 X47.416 Y49.863
N12765 X47.596 Y49.838
N12770 X47.775 Y49.809
N12775 X47.955 Y49.778
N12780 X48.315 Y49.715
N12785 X48.495 Y49.683
N12790 X48.675 Y49.65
N12795 X48.855 Y49.617
N12800 X49.035 Y49.575
N12805 X49.215 Y49.528
N12810 X49.395 Y49.466
N12815 X49.439 Y49.45
N12820 X49.575 Y49.391
N12825 X49.755 Y49.311
N12830 X50.655 Y48.852
N12835 X50.835 Y48.758
N12840 X51.015 Y48.664
N12845 X51.195 Y48.551
N12850 X51.375 Y48.421
N12855 X51.436 Y48.373
N12860 X51.555 Y48.278
N12865 X51.831 Y48.013
N12870 X52.455 Y47.39
N12875 X52.547 Y47.295
N12880 X52.718 Y47.115
N12885 X52.814 Y47.005
N12890 X52.868 Y46.936
N12895 X52.994 Y46.767
N12900 X53.002 Y46.756
N12905 X53.116 Y46.576
N12910 X53.174 Y46.472
N12915 X53.308 Y46.217
N12920 X53.714 Y45.419
N12925 X53.765 Y45.319
N12930 X53.848 Y45.139
N12935 X53.894 Y45.035
N12940 X53.927 Y44.96
N12945 X53.99 Y44.78
N12950 X54.039 Y44.6
N12955 X54.083 Y44.421
N12960 X54.117 Y44.241
N12965 X54.15 Y44.061
N12970 X54.182 Y43.882
N12975 X54.214 Y43.702
N12980 X54.254 Y43.469
N12985 X54.276 Y43.343
N12990 X54.306 Y43.163
N12995 X54.331 Y42.984
N13000 X54.351 Y42.804
N13005 X54.362 Y42.624
N13010 X54.365 Y42.445
N13015 Y42.265
N13020 Y5.261
N13025 Y5.081
N13030 X54.362 Y4.901
N13035 X54.351 Y4.722
N13040 X54.331 Y4.542
N13045 X54.306 Y4.363
N13050 X54.276 Y4.183
N13055 X54.254 Y4.057
N13060 X54.214 Y3.824
N13065 X54.182 Y3.644
N13070 X54.15 Y3.464
N13075 X54.117 Y3.285
N13080 X54.083 Y3.105
N13085 X54.039 Y2.926
N13090 X53.99 Y2.746
N13095 X53.927 Y2.566
N13100 X53.894 Y2.491
N13105 X53.848 Y2.387
N13110 X53.765 Y2.207
N13115 X53.534 Y1.753
N13120 X53.308 Y1.309
N13125 X53.174 Y1.054
N13130 X53.116 Y0.95
N13135 X53.002 Y0.77
N13140 X52.994 Y0.759
N13145 X52.868 Y0.59
N13150 X52.814 Y0.521
N13155 X52.718 Y0.411
N13160 X52.547 Y0.231
N13165 X52.455 Y0.136
N13170 X51.831 Y-0.488
N13175 X51.555 Y-0.752
N13180 X51.436 Y-0.847
N13185 X51.375 Y-0.895
N13190 X51.194 Y-1.026
N13195 X51.015 Y-1.138
N13200 X50.835 Y-1.233
N13205 X50.655 Y-1.326
N13210 X49.755 Y-1.785
N13215 X49.575 Y-1.865
N13220 X49.439 Y-1.925
N13225 X49.395 Y-1.941
N13230 X49.215 Y-2.002
N13235 X49.035 Y-2.049
N13240 X48.855 Y-2.091
N13245 X48.675 Y-2.124
N13250 X48.495 Y-2.157
N13255 X48.315 Y-2.189
N13260 X47.955 Y-2.252
N13265 X47.768 Y-2.284
N13270 X47.596 Y-2.312
N13275 X47.416 Y-2.337
N13280 X47.236 Y-2.354
N13285 X47.056 Y-2.364
N13290 X46.876 Y-2.365
N13295 X46.696
N13300 X5.304
N13305 X5.124
N13310 X4.944 Y-2.364
N13315 X4.764 Y-2.354
N13320 X4.584 Y-2.337
N13325 X4.404 Y-2.312
N13330 X4.225 Y-2.283
N13335 X4.045 Y-2.252
N13340 X3.685 Y-2.189
N13345 X3.505 Y-2.157
N13350 X3.325 Y-2.124
N13355 X3.145 Y-2.091
N13360 X2.965 Y-2.049
N13365 X2.785 Y-2.002
N13370 X2.605 Y-1.941
N13375 X2.561 Y-1.925
N13380 X2.425 Y-1.865
N13385 X2.245 Y-1.785
N13390 X1.345 Y-1.326
N13395 X1.165 Y-1.233
N13400 X0.985 Y-1.138
N13405 X0.805 Y-1.026
N13410 X0.625 Y-0.895
N13415 X0.564 Y-0.847
N13420 X0.445 Y-0.752
N13425 X0.169 Y-0.488
N13430 X-0.27 Y-0.048
N13435 G3 X-1.269 Y-0.38 I-0.409 J-0.439
N13440 G1 X-1.274 Y-0.434 Z-0.996
N13445 X-1.279 Y-0.487 Z-0.988
N13450 X-1.265 Y-0.562 Z-0.969
N13455 X-1.252 Y-0.633 Z-0.94
N13460 X-1.24 Y-0.701 Z-0.902
N13465 X-1.205 Y-0.758 Z-0.851
N13470 X-1.174 Y-0.809 Z-0.792
N13475 X-1.148 Y-0.852 Z-0.724
N13480 X-1.127 Y-0.886 Z-0.651
N13485 X-1.111 Y-0.903 Z-0.592
N13490 X-1.099 Y-0.916 Z-0.531
N13495 X-1.091 Y-0.924 Z-0.465
N13500 X-1.088 Y-0.926 Z-0.398
N13505 G0 Z5.
N13510 X-2.252 Y-1.559
N13515 Z0.4
N13520 G1 Z-0.2 F100.
N13525 X-2.246 Y-1.556 Z-0.294
N13530 X-2.227 Y-1.544 Z-0.385
N13535 X-2.196 Y-1.526 Z-0.472
N13540 X-2.154 Y-1.501 Z-0.553
N13545 X-2.101 Y-1.47 Z-0.624
N13550 X-2.04 Y-1.433 Z-0.685
N13555 X-1.971 Y-1.392 Z-0.735
N13560 X-1.896 Y-1.348 Z-0.771
N13565 X-1.817 Y-1.301 Z-0.793
N13570 X-1.736 Y-1.254 Z-0.8
N13575 G3 X-0.227 Y-0.124 I-4.458 J7.529
N13580 G1 X-0.19 Y-0.087
N13585 X-0.17 Y-0.007
N13590 X-0.184 Y0.074
N13595 X-0.229 Y0.143
N13600 X-0.496 Y0.411
N13605 X-0.634 Y0.57
N13610 X-0.652 Y0.59
N13615 X-0.797 Y0.77
N13620 X-0.918 Y0.95
N13625 X-0.994 Y1.069
N13630 X-1.029 Y1.129
N13635 X-1.124 Y1.309
N13640 X-1.581 Y2.207
N13645 X-1.67 Y2.387
N13650 X-1.714 Y2.485
N13655 X-1.748 Y2.566
N13660 X-1.812 Y2.746
N13665 X-1.867 Y2.926
N13670 X-1.914 Y3.105
N13675 X-1.949 Y3.285
N13680 X-1.982 Y3.464
N13685 X-2.015 Y3.644
N13690 X-2.045 Y3.824
N13695 X-2.074 Y4.005
N13700 X-2.131 Y4.363
N13705 X-2.156 Y4.542
N13710 X-2.176 Y4.722
N13715 X-2.187 Y4.901
N13720 X-2.19 Y5.081
N13725 Y5.261
N13730 Y42.265
N13735 Y42.445
N13740 X-2.187 Y42.624
N13745 X-2.176 Y42.804
N13750 X-2.156 Y42.984
N13755 X-2.131 Y43.163
N13760 X-2.074 Y43.523
N13765 X-2.045 Y43.702
N13770 X-2.015 Y43.882
N13775 X-1.982 Y44.061
N13780 X-1.949 Y44.241
N13785 X-1.914 Y44.421
N13790 X-1.867 Y44.6
N13795 X-1.812 Y44.78
N13800 X-1.748 Y44.96
N13805 X-1.714 Y45.041
N13810 X-1.67 Y45.139
N13815 X-1.581 Y45.319
N13820 X-1.124 Y46.217
N13825 X-1.029 Y46.397
N13830 X-0.994 Y46.457
N13835 X-0.918 Y46.576
N13840 X-0.797 Y46.756
N13845 X-0.652 Y46.936
N13850 X-0.634 Y46.956
N13855 X-0.496 Y47.115
N13860 X-0.275 Y47.337
N13865 X0.265 Y47.877
N13870 X0.402 Y48.013
N13875 X0.445 Y48.055
N13880 X0.625 Y48.207
N13885 X0.805 Y48.346
N13890 X0.985 Y48.469
N13895 X1.124 Y48.552
N13900 X1.165 Y48.575
N13905 X1.345 Y48.668
N13910 X2.245 Y49.126
N13915 X2.425 Y49.213
N13920 X2.559 Y49.271
N13925 X2.785 Y49.352
N13930 X2.965 Y49.403
N13935 X3.145 Y49.448
N13940 X3.325 Y49.483
N13945 X3.685 Y49.548
N13950 X3.865 Y49.577
N13955 X4.045 Y49.606
N13960 X4.225 Y49.635
N13965 X4.404 Y49.663
N13970 X4.584 Y49.688
N13975 X4.764 Y49.704
N13980 X4.944 Y49.715
N13985 X5.124 Y49.716
N13990 X5.304
N13995 X46.696
N14000 X46.876
N14005 X47.056 Y49.715
N14010 X47.236 Y49.704
N14015 X47.416 Y49.688
N14020 X47.596 Y49.663
N14025 X47.775 Y49.635
N14030 X47.955 Y49.606
N14035 X48.135 Y49.577
N14040 X48.315 Y49.548
N14045 X48.675 Y49.483
N14050 X48.855 Y49.448
N14055 X49.035 Y49.403
N14060 X49.215 Y49.352
N14065 X49.441 Y49.271
N14070 X49.575 Y49.213
N14075 X49.755 Y49.126
N14080 X50.655 Y48.668
N14085 X50.835 Y48.575
N14090 X50.876 Y48.552
N14095 X51.015 Y48.469
N14100 X51.195 Y48.346
N14105 X51.375 Y48.207
N14110 X51.555 Y48.055
N14115 X51.598 Y48.013
N14120 X52.138 Y47.474
N14125 X52.317 Y47.295
N14130 X52.496 Y47.115
N14135 X52.634 Y46.956
N14140 X52.652 Y46.936
N14145 X52.797 Y46.756
N14150 X52.918 Y46.576
N14155 X52.994 Y46.457
N14160 X53.029 Y46.397
N14165 X53.124 Y46.217
N14170 X53.581 Y45.319
N14175 X53.67 Y45.139
N14180 X53.714 Y45.041
N14185 X53.748 Y44.96
N14190 X53.812 Y44.78
N14195 X53.867 Y44.6
N14200 X53.914 Y44.421
N14205 X53.949 Y44.241
N14210 X53.982 Y44.061
N14215 X54.015 Y43.882
N14220 X54.045 Y43.702
N14225 X54.074 Y43.521
N14230 X54.131 Y43.163
N14235 X54.156 Y42.984
N14240 X54.176 Y42.804
N14245 X54.187 Y42.624
N14250 X54.19 Y42.445
N14255 Y42.265
N14260 Y5.261
N14265 Y5.081
N14270 X54.187 Y4.901
N14275 X54.176 Y4.722
N14280 X54.156 Y4.542
N14285 X54.131 Y4.363
N14290 X54.074 Y4.003
N14295 X54.045 Y3.824
N14300 X54.015 Y3.644
N14305 X53.982 Y3.464
N14310 X53.949 Y3.285
N14315 X53.914 Y3.105
N14320 X53.867 Y2.926
N14325 X53.812 Y2.746
N14330 X53.748 Y2.566
N14335 X53.714 Y2.485
N14340 X53.67 Y2.387
N14345 X53.581 Y2.207
N14350 X53.124 Y1.309
N14355 X53.029 Y1.129
N14360 X52.994 Y1.069
N14365 X52.918 Y0.95
N14370 X52.797 Y0.77
N14375 X52.652 Y0.59
N14380 X52.634 Y0.57
N14385 X52.496 Y0.411
N14390 X52.275 Y0.189
N14395 X51.735 Y-0.351
N14400 X51.598 Y-0.488
N14405 X51.555 Y-0.529
N14410 X51.375 Y-0.681
N14415 X51.195 Y-0.821
N14420 X51.015 Y-0.943
N14425 X50.876 Y-1.026
N14430 X50.835 Y-1.049
N14435 X50.655 Y-1.142
N14440 X49.755 Y-1.601
N14445 X49.575 Y-1.688
N14450 X49.441 Y-1.745
N14455 X49.215 Y-1.826
N14460 X49.035 Y-1.878
N14465 X48.855 Y-1.922
N14470 X48.675 Y-1.957
N14475 X48.315 Y-2.022
N14480 X48.135 Y-2.052
N14485 X47.955 Y-2.081
N14490 X47.775 Y-2.109
N14495 X47.596 Y-2.137
N14500 X47.416 Y-2.162
N14505 X47.236 Y-2.179
N14510 X47.056 Y-2.189
N14515 X46.876 Y-2.19
N14520 X46.696
N14525 X5.304
N14530 X5.124
N14535 X4.944 Y-2.189
N14540 X4.764 Y-2.179
N14545 X4.584 Y-2.162
N14550 X4.404 Y-2.137
N14555 X4.225 Y-2.109
N14560 X4.045 Y-2.081
N14565 X3.865 Y-2.052
N14570 X3.685 Y-2.022
N14575 X3.325 Y-1.957
N14580 X3.145 Y-1.922
N14585 X2.965 Y-1.878
N14590 X2.785 Y-1.826
N14595 X2.559 Y-1.745
N14600 X2.425 Y-1.688
N14605 X2.245 Y-1.601
N14610 X1.345 Y-1.142
N14615 X1.165 Y-1.049
N14620 X1.124 Y-1.026
N14625 X0.985 Y-0.943
N14630 X0.805 Y-0.821
N14635 X0.625 Y-0.681
N14640 X0.445 Y-0.529
N14645 X0.402 Y-0.488
N14650 X-0.137 Y0.051
N14655 X-0.229 Y0.143
N14660 G3 X-1.229 Y-0.188 I-0.409 J-0.439
N14665 G1 X-1.234 Y-0.242 Z-0.798
N14670 X-1.239 Y-0.296 Z-0.79
N14675 X-1.225 Y-0.37 Z-0.771
N14680 X-1.212 Y-0.442 Z-0.742
N14685 X-1.199 Y-0.509 Z-0.704
N14690 X-1.165 Y-0.566 Z-0.653
N14695 X-1.134 Y-0.617 Z-0.593
N14700 X-1.108 Y-0.66 Z-0.526
N14705 X-1.087 Y-0.694 Z-0.452
N14710 X-1.071 Y-0.711 Z-0.394
N14715 X-1.059 Y-0.724 Z-0.333
N14720 X-1.051 Y-0.732 Z-0.267
N14725 X-1.048 Y-0.734 Z-0.2
N14730 G0 Z5.
N14735 X27.742 Y38.694
N14740 Z0.4
N14745 G1 Z-0.2 F100.
N14750 X27.744 Y38.701 Z-0.294
N14755 X27.75 Y38.722 Z-0.385
N14760 X27.759 Y38.757 Z-0.472
N14765 X27.771 Y38.805 Z-0.553
N14770 X27.786 Y38.864 Z-0.624
N14775 X27.804 Y38.934 Z-0.685
N14780 X27.824 Y39.011 Z-0.735
N14785 X27.845 Y39.096 Z-0.771
N14790 X27.868 Y39.184 Z-0.793
N14795 X27.891 Y39.275 Z-0.8
N14800 G3 X28.16 Y41.141 I-8.476 J2.171
N14805 G1 Y41.171
N14810 X28.154 Y41.18
N14815 X28.145 Y41.187
N14820 X28.135 Y41.189
N14825 X7.644
N14830 X7.531 Y41.187
N14835 X7.464 Y41.178
N14840 X7.374 Y41.154
N14845 X7.284 Y41.113
N14850 X7.215 Y41.068
N14855 X7.145 Y41.008
N14860 X7.104 Y40.964
N14865 X7.053 Y40.896
N14870 X7.015 Y40.828
N14875 X6.982 Y40.738
N14880 X6.963 Y40.648
N14885 X6.958 Y40.469
N14890 Y7.237
N14895 X6.959 Y7.057
N14900 X6.968 Y6.967
N14905 X6.992 Y6.877
N14910 X7.032 Y6.788
N14915 X7.06 Y6.743
N14920 X7.093 Y6.698
N14925 X7.104 Y6.684
N14930 X7.194 Y6.595
N14935 X7.239 Y6.561
N14940 X7.284 Y6.534
N14945 X7.314 Y6.518
N14950 X7.389 Y6.488
N14955 X7.464 Y6.469
N14960 X7.554 Y6.459
N14965 X7.644 Y6.458
N14970 X44.896
N14975 X45.076 Y6.459
N14980 X45.166 Y6.47
N14985 X45.256 Y6.496
N14990 X45.309 Y6.518
N14995 X45.373 Y6.554
N15000 X45.436 Y6.601
N15005 X45.487 Y6.649
N15010 X45.529 Y6.698
N15015 X45.579 Y6.77
N15020 X45.616 Y6.843
N15025 X45.629 Y6.877
N15030 X45.653 Y6.967
N15035 X45.663 Y7.057
N15040 Y7.237
N15045 Y40.469
N15050 X45.658 Y40.648
N15055 X45.643 Y40.727
N15060 X45.616 Y40.805
N15065 X45.606 Y40.828
N15070 X45.554 Y40.918
N15075 X45.477 Y41.008
N15080 X45.436 Y41.046
N15085 X45.391 Y41.081
N15090 X45.346 Y41.11
N15095 X45.256 Y41.152
N15100 X45.174 Y41.176
N15105 X45.092 Y41.187
N15110 X45.076 Y41.188
N15115 X44.896 Y41.189
N15120 X28.135
N15125 G3 X27.662 Y40.248 I0.021 J-0.6
N15130 G1 X27.715 Y40.196 Z-0.795
N15135 X27.766 Y40.144 Z-0.782
N15140 X27.816 Y40.095 Z-0.759
N15145 X27.888 Y40.062 Z-0.721
N15150 X27.955 Y40.033 Z-0.671
N15155 X28.014 Y40.006 Z-0.612
N15160 X28.061 Y40.001 Z-0.555
N15165 X28.1 Y39.996 Z-0.493
N15170 X28.132 Y39.992 Z-0.427
N15175 X28.156 Y39.989 Z-0.357
N15180 X28.162 Z-0.333
N15185 X28.173 Y39.99 Z-0.267
N15190 X28.176 Z-0.2
N15195 G0 Z5.
N15200 X27.742 Y38.731
N15205 Z0.6
N15210 G1 Z0. F100.
N15215 X27.744 Y38.738 Z-0.094
N15220 X27.75 Y38.76 Z-0.185
N15225 X27.759 Y38.794 Z-0.272
N15230 X27.771 Y38.842 Z-0.353
N15235 X27.786 Y38.901 Z-0.424
N15240 X27.804 Y38.971 Z-0.485
N15245 X27.824 Y39.048 Z-0.535
N15250 X27.845 Y39.133 Z-0.571
N15255 X27.868 Y39.221 Z-0.593
N15260 X27.891 Y39.312 Z-0.6
N15265 G3 X28.16 Y41.178 I-8.476 J2.171
N15270 G1 Y41.194
N15275 X28.118 Y41.274
N15280 X28.048 Y41.328
N15285 X27.96 Y41.347
N15290 X7.464
N15295 X7.374 Y41.346
N15300 X7.284 Y41.333
N15305 X7.194 Y41.306
N15310 X7.104 Y41.261
N15315 X7.055 Y41.228
N15320 X7.005 Y41.187
N15325 X6.924 Y41.1
N15330 X6.892 Y41.054
N15335 X6.866 Y41.008
N15340 X6.829 Y40.918
N15345 X6.807 Y40.828
N15350 X6.8 Y40.648
N15355 Y7.057
N15360 X6.801 Y6.877
N15365 X6.815 Y6.788
N15370 X6.842 Y6.698
N15375 X6.877 Y6.625
N15380 X6.924 Y6.553
N15385 X6.95 Y6.518
N15390 X6.985 Y6.479
N15395 X7.027 Y6.441
N15400 X7.104 Y6.386
N15405 X7.153 Y6.359
N15410 X7.202 Y6.339
N15415 X7.284 Y6.314
N15420 X7.374 Y6.301
N15425 X7.464 Y6.3
N15430 X45.076
N15435 X45.256 Y6.302
N15440 X45.335 Y6.315
N15445 X45.413 Y6.339
N15450 X45.436 Y6.348
N15455 X45.526 Y6.395
N15460 X45.571 Y6.427
N15465 X45.616 Y6.466
N15470 X45.668 Y6.518
N15475 X45.704 Y6.563
N15480 X45.734 Y6.608
N15485 X45.779 Y6.698
N15490 X45.796 Y6.746
N15495 X45.812 Y6.812
N15500 X45.82 Y6.877
N15505 X45.821 Y7.057
N15510 Y40.648
N15515 X45.814 Y40.828
N15520 X45.796 Y40.908
N15525 X45.778 Y40.958
N15530 X45.756 Y41.008
N15535 X45.73 Y41.052
N15540 X45.7 Y41.097
N15545 X45.662 Y41.142
N15550 X45.615 Y41.187
N15555 X45.526 Y41.252
N15560 X45.436 Y41.3
N15565 X45.346 Y41.33
N15570 X45.256 Y41.345
N15575 X45.076 Y41.347
N15580 X27.96
N15585 G3 X27.488 Y40.406 I0.021 J-0.6
N15590 G1 X27.54 Y40.354 Z-0.595
N15595 X27.592 Y40.303 Z-0.582
N15600 X27.642 Y40.253 Z-0.559
N15605 X27.714 Y40.221 Z-0.521
N15610 X27.781 Y40.191 Z-0.471
N15615 X27.84 Y40.164 Z-0.412
N15620 X27.887 Y40.159 Z-0.355
N15625 X27.926 Y40.154 Z-0.293
N15630 X27.958 Y40.15 Z-0.227
N15635 X27.981 Y40.148 Z-0.157
N15640 X27.987 Z-0.133
N15645 X27.999 Z-0.067
N15650 X28.002 Z0.
N15655 G0 Z5.
N15660 X-2.129 Y-1.443
N15665 Z0.6
N15670 G1 Z0. F100.
N15675 X-2.123 Y-1.439 Z-0.094
N15680 X-2.104 Y-1.428 Z-0.185
N15685 X-2.073 Y-1.41 Z-0.272
N15690 X-2.03 Y-1.385 Z-0.353
N15695 X-1.978 Y-1.354 Z-0.424
N15700 X-1.916 Y-1.317 Z-0.485
N15705 X-1.847 Y-1.276 Z-0.535
N15710 X-1.772 Y-1.232 Z-0.571
N15715 X-1.694 Y-1.185 Z-0.593
N15720 X-1.613 Y-1.137 Z-0.6
N15725 G3 X-0.104 Y-0.008 I-4.458 J7.529
N15730 G1 X-0.09 Y0.006
N15735 X-0.074 Y0.032
N15740 X-0.043 Y0.162
N15745 X-0.066 Y0.294
N15750 X-0.139 Y0.406
N15755 X-0.275 Y0.542
N15760 X-0.322 Y0.59
N15765 X-0.455 Y0.737
N15770 X-0.482 Y0.77
N15775 X-0.634 Y0.975
N15780 X-0.74 Y1.129
N15785 X-0.843 Y1.309
N15790 X-0.935 Y1.488
N15795 X-1.118 Y1.848
N15800 X-1.354 Y2.311
N15805 X-1.391 Y2.387
N15810 X-1.478 Y2.566
N15815 X-1.546 Y2.746
N15820 X-1.608 Y2.926
N15825 X-1.659 Y3.105
N15830 X-1.714 Y3.398
N15835 X-1.725 Y3.464
N15840 X-1.867 Y4.363
N15845 X-1.894 Y4.551
N15850 X-1.914 Y4.722
N15855 X-1.925 Y4.901
N15860 X-1.928 Y5.081
N15865 X-1.929 Y5.261
N15870 Y42.265
N15875 X-1.928 Y42.445
N15880 X-1.925 Y42.624
N15885 X-1.914 Y42.804
N15890 X-1.894 Y42.975
N15895 X-1.867 Y43.163
N15900 X-1.725 Y44.061
N15905 X-1.714 Y44.128
N15910 X-1.659 Y44.421
N15915 X-1.608 Y44.6
N15920 X-1.546 Y44.78
N15925 X-1.478 Y44.96
N15930 X-1.391 Y45.139
N15935 X-1.354 Y45.215
N15940 X-0.994 Y45.921
N15945 X-0.935 Y46.037
N15950 X-0.843 Y46.217
N15955 X-0.74 Y46.397
N15960 X-0.634 Y46.551
N15965 X-0.482 Y46.756
N15970 X-0.455 Y46.789
N15975 X-0.322 Y46.936
N15980 X-0.275 Y46.983
N15985 X-0.144 Y47.115
N15990 X0.445 Y47.704
N15995 X0.576 Y47.834
N16000 X0.625 Y47.881
N16005 X0.779 Y48.013
N16010 X1.018 Y48.193
N16015 X1.165 Y48.286
N16020 X1.316 Y48.373
N16025 X1.667 Y48.552
N16030 X2.245 Y48.846
N16035 X2.376 Y48.912
N16040 X2.425 Y48.935
N16045 X2.605 Y49.018
N16050 X2.794 Y49.091
N16055 X2.965 Y49.146
N16060 X3.145 Y49.192
N16065 X3.325 Y49.226
N16070 X3.505 Y49.257
N16075 X4.225 Y49.371
N16080 X4.404 Y49.399
N16085 X4.584 Y49.425
N16090 X4.764 Y49.442
N16095 X4.885 Y49.45
N16100 X4.944 Y49.454
N16105 X5.124
N16110 X5.304 Y49.455
N16115 X46.696
N16120 X46.876 Y49.454
N16125 X47.056
N16130 X47.115 Y49.45
N16135 X47.236 Y49.442
N16140 X47.416 Y49.425
N16145 X47.596 Y49.399
N16150 X47.775 Y49.371
N16155 X48.495 Y49.257
N16160 X48.675 Y49.226
N16165 X48.855 Y49.192
N16170 X49.035 Y49.146
N16175 X49.206 Y49.091
N16180 X49.395 Y49.018
N16185 X49.575 Y48.935
N16190 X49.624 Y48.912
N16195 X49.755 Y48.846
N16200 X50.333 Y48.552
N16205 X50.684 Y48.373
N16210 X50.835 Y48.286
N16215 X50.982 Y48.193
N16220 X51.221 Y48.013
N16225 X51.375 Y47.881
N16230 X51.424 Y47.834
N16235 X51.555 Y47.704
N16240 X52.144 Y47.115
N16245 X52.275 Y46.983
N16250 X52.322 Y46.936
N16255 X52.455 Y46.789
N16260 X52.482 Y46.756
N16265 X52.634 Y46.551
N16270 X52.74 Y46.397
N16275 X52.843 Y46.217
N16280 X52.935 Y46.037
N16285 X53.118 Y45.678
N16290 X53.354 Y45.215
N16295 X53.391 Y45.139
N16300 X53.478 Y44.96
N16305 X53.546 Y44.78
N16310 X53.608 Y44.6
N16315 X53.659 Y44.421
N16320 X53.714 Y44.128
N16325 X53.725 Y44.061
N16330 X53.867 Y43.163
N16335 X53.894 Y42.975
N16340 X53.914 Y42.804
N16345 X53.925 Y42.624
N16350 X53.928 Y42.445
N16355 X53.929 Y42.265
N16360 Y5.261
N16365 X53.928 Y5.081
N16370 X53.925 Y4.901
N16375 X53.914 Y4.722
N16380 X53.894 Y4.551
N16385 X53.867 Y4.363
N16390 X53.725 Y3.464
N16395 X53.714 Y3.398
N16400 X53.659 Y3.105
N16405 X53.608 Y2.926
N16410 X53.546 Y2.746
N16415 X53.478 Y2.566
N16420 X53.391 Y2.387
N16425 X53.354 Y2.311
N16430 X52.994 Y1.605
N16435 X52.935 Y1.488
N16440 X52.843 Y1.309
N16445 X52.74 Y1.129
N16450 X52.634 Y0.975
N16455 X52.482 Y0.77
N16460 X52.455 Y0.737
N16465 X52.322 Y0.59
N16470 X52.275 Y0.542
N16475 X52.144 Y0.411
N16480 X51.555 Y-0.179
N16485 X51.424 Y-0.308
N16490 X51.375 Y-0.355
N16495 X51.221 Y-0.488
N16500 X50.982 Y-0.667
N16505 X50.835 Y-0.76
N16510 X50.684 Y-0.847
N16515 X50.333 Y-1.026
N16520 X49.755 Y-1.321
N16525 X49.624 Y-1.386
N16530 X49.575 Y-1.41
N16535 X49.395 Y-1.492
N16540 X49.206 Y-1.565
N16545 X49.035 Y-1.62
N16550 X48.855 Y-1.666
N16555 X48.675 Y-1.701
N16560 X48.495 Y-1.731
N16565 X47.775 Y-1.845
N16570 X47.596 Y-1.873
N16575 X47.416 Y-1.899
N16580 X47.236 Y-1.917
N16585 X47.115 Y-1.925
N16590 X47.056 Y-1.928
N16595 X46.876
N16600 X46.696 Y-1.929
N16605 X5.304
N16610 X5.124 Y-1.928
N16615 X4.944
N16620 X4.885 Y-1.925
N16625 X4.764 Y-1.917
N16630 X4.584 Y-1.899
N16635 X4.404 Y-1.873
N16640 X4.225 Y-1.845
N16645 X3.505 Y-1.731
N16650 X3.325 Y-1.701
N16655 X3.145 Y-1.666
N16660 X2.965 Y-1.62
N16665 X2.794 Y-1.565
N16670 X2.605 Y-1.492
N16675 X2.425 Y-1.41
N16680 X2.376 Y-1.386
N16685 X2.245 Y-1.321
N16690 X1.667 Y-1.026
N16695 X1.316 Y-0.847
N16700 X1.165 Y-0.76
N16705 X1.018 Y-0.667
N16710 X0.779 Y-0.488
N16715 X0.625 Y-0.355
N16720 X0.576 Y-0.308
N16725 X0.445 Y-0.179
N16730 X-0.139 Y0.406
N16735 G3 X-1.139 Y0.074 I-0.409 J-0.439
N16740 G1 X-1.144 Y0.02 Z-0.598
N16745 X-1.148 Y-0.033 Z-0.59
N16750 X-1.135 Y-0.108 Z-0.571
N16755 X-1.121 Y-0.179 Z-0.542
N16760 X-1.109 Y-0.246 Z-0.504
N16765 X-1.074 Y-0.304 Z-0.453
N16770 X-1.044 Y-0.354 Z-0.394
N16775 X-1.018 Y-0.397 Z-0.326
N16780 X-0.997 Y-0.432 Z-0.253
N16785 X-0.98 Y-0.449 Z-0.194
N16790 X-0.968 Y-0.462 Z-0.133
N16795 X-0.96 Y-0.469 Z-0.067
N16800 X-0.958 Y-0.472 Z0.
N16805 G0 Z5.
N16810 X-0.411 Y-2.208
N16815 Z0.8
N16820 G1 Z0.2 F100.
N16825 X-0.41 Y-2.201 Z0.106
N16830 X-0.404 Y-2.18 Z0.015
N16835 X-0.395 Y-2.145 Z-0.072
N16840 X-0.383 Y-2.097 Z-0.153
N16845 X-0.368 Y-2.038 Z-0.224
N16850 X-0.35 Y-1.969 Z-0.285
N16855 X-0.33 Y-1.891 Z-0.335
N16860 X-0.309 Y-1.807 Z-0.371
N16865 X-0.286 Y-1.718 Z-0.393
N16870 X-0.263 Y-1.627 Z-0.4
N16875 G3 X0.006 Y0.239 I-8.476 J2.171
N16880 G1 Y0.454
N16885 X0.071 Y0.878
N16890 X0.081 Y0.907
N16895 X0.09 Y0.935
N16900 X0.099 Y0.964
N16905 X0.107 Y0.993
N16910 X0.115 Y1.022
N16915 X0.125 Y1.058
N16920 X0.136 Y1.1
N16925 X0.147 Y1.144
N16930 X0.159 Y1.191
N16935 X0.171 Y1.24
N16940 X0.182 Y1.289
N16945 X0.194 Y1.34
N16950 X0.205 Y1.392
N16955 X0.216 Y1.446
N16960 X0.227 Y1.501
N16965 X0.238 Y1.557
N16970 X0.249 Y1.614
N16975 X0.26 Y1.674
N16980 X0.27 Y1.734
N16985 X0.28 Y1.797
N16990 X0.29 Y1.861
N16995 X0.3 Y1.927
N17000 X0.31 Y1.999
N17005 X0.321 Y2.077
N17010 X0.338 Y2.21
N17015 X0.359 Y2.387
N17020 X0.38 Y2.578
N17025 X0.402 Y2.783
N17030 X0.423 Y3.005
N17035 X0.445 Y3.245
N17040 X0.466 Y3.506
N17045 X0.488 Y3.795
N17050 X0.509 Y4.115
N17055 X0.531 Y4.474
N17060 X0.553 Y4.885
N17065 X0.572 Y5.314
N17070 X0.589 Y5.743
N17075 X0.603 Y6.173
N17080 X0.615 Y6.602
N17085 X0.626 Y7.031
N17090 X0.635 Y7.461
N17095 X0.642 Y7.89
N17100 X0.649 Y8.32
N17105 X0.654 Y8.749
N17110 X0.659 Y9.179
N17115 X0.663 Y9.608
N17120 X0.667 Y10.038
N17125 X0.67 Y10.467
N17130 X0.672 Y10.897
N17135 X0.674 Y11.326
N17140 X0.676 Y11.756
N17145 X0.678 Y12.185
N17150 X0.68 Y13.044
N17155 X0.682 Y13.903
N17160 X0.684 Y14.762
N17165 X0.685 Y16.051
N17170 X0.686 Y17.769
N17175 X0.687 Y20.346
N17180 Y25.501
N17185 Y39.675
N17190 X0.69 Y40.104
N17195 X0.702 Y40.534
N17200 X0.721 Y40.963
N17205 X0.756 Y41.391
N17210 X0.814 Y41.817
N17215 X0.893 Y42.239
N17220 X1. Y42.655
N17225 X1.139 Y43.061
N17230 X1.305 Y43.457
N17235 X1.509 Y43.835
N17240 X1.746 Y44.193
N17245 X1.88 Y44.361
N17250 X1.916 Y44.401
N17255 X2.207 Y44.718
N17260 X2.528 Y45.003
N17265 X2.874 Y45.257
N17270 X3.242 Y45.478
N17275 X3.627 Y45.668
N17280 X4.024 Y45.833
N17285 X4.429 Y45.975
N17290 X4.841 Y46.097
N17295 X5.257 Y46.203
N17300 X5.677 Y46.293
N17305 X6.1 Y46.371
N17310 X6.524 Y46.438
N17315 X6.95 Y46.495
N17320 X7.376 Y46.544
N17325 X7.804 Y46.587
N17330 X8.232 Y46.623
N17335 X8.66 Y46.654
N17340 X9.089 Y46.68
N17345 X9.518 Y46.703
N17350 X9.947 Y46.723
N17355 X10.376 Y46.739
N17360 X10.806 Y46.754
N17365 X11.235 Y46.766
N17370 X11.664 Y46.776
N17375 X12.094 Y46.785
N17380 X12.523 Y46.793
N17385 X12.953 Y46.8
N17390 X13.382 Y46.805
N17395 X13.812 Y46.81
N17400 X14.241 Y46.814
N17405 X14.671 Y46.818
N17410 X15.1 Y46.821
N17415 X15.53 Y46.823
N17420 X15.959 Y46.825
N17425 X16.389 Y46.827
N17430 X16.818 Y46.829
N17435 X17.677 Y46.831
N17440 X18.536 Y46.833
N17445 X19.395 Y46.835
N17450 X20.684 Y46.836
N17455 X22.402 Y46.837
N17460 X24.979 Y46.838
N17465 X30.134
N17470 X44.308
N17475 X44.737 Y46.832
N17480 X45.167 Y46.818
N17485 X45.596 Y46.795
N17490 X46.023 Y46.751
N17495 X46.447 Y46.685
N17500 X46.868 Y46.599
N17505 X47.281 Y46.479
N17510 X47.683 Y46.33
N17515 X48.074 Y46.151
N17520 X48.444 Y45.933
N17525 X48.795 Y45.686
N17530 X49.119 Y45.404
N17535 X49.411 Y45.089
N17540 X49.674 Y44.749
N17545 X49.902 Y44.385
N17550 X50.099 Y44.004
N17555 X50.27 Y43.61
N17560 X50.417 Y43.206
N17565 X50.544 Y42.796
N17570 X50.653 Y42.38
N17575 X50.747 Y41.961
N17580 X50.828 Y41.539
N17585 X50.897 Y41.115
N17590 X50.956 Y40.69
N17595 X51.007 Y40.263
N17600 X51.051 Y39.836
N17605 X51.089 Y39.408
N17610 X51.121 Y38.98
N17615 X51.149 Y38.551
N17620 X51.172 Y38.122
N17625 X51.192 Y37.693
N17630 X51.21 Y37.264
N17635 X51.225 Y36.835
N17640 X51.237 Y36.406
N17645 X51.248 Y35.976
N17650 X51.257 Y35.547
N17655 X51.265 Y35.117
N17660 X51.272 Y34.688
N17665 X51.278 Y34.258
N17670 X51.283 Y33.829
N17675 X51.287 Y33.399
N17680 X51.291 Y32.97
N17685 X51.294 Y32.54
N17690 X51.297 Y32.111
N17695 X51.299 Y31.681
N17700 X51.301 Y31.252
N17705 X51.303 Y30.822
N17710 X51.304 Y30.393
N17715 X51.306 Y29.534
N17720 X51.308 Y28.675
N17725 X51.31 Y27.386
N17730 X51.311 Y26.097
N17735 X51.312 Y23.95
N17740 Y20.514
N17745 X51.313 Y9.346
N17750 Y7.628
N17755 X51.305 Y7.198
N17760 X51.289 Y6.769
N17765 X51.265 Y6.34
N17770 X51.218 Y5.913
N17775 X51.148 Y5.489
N17780 X51.058 Y5.07
N17785 X50.933 Y4.659
N17790 X50.78 Y4.258
N17795 X50.594 Y3.87
N17800 X50.372 Y3.502
N17805 X50.121 Y3.154
N17810 X49.833 Y2.835
N17815 X49.514 Y2.548
N17820 X49.17 Y2.29
N17825 X48.803 Y2.067
N17830 X48.42 Y1.874
N17835 X48.024 Y1.707
N17840 X47.619 Y1.563
N17845 X47.208 Y1.439
N17850 X46.792 Y1.332
N17855 X46.372 Y1.24
N17860 X45.95 Y1.161
N17865 X45.526 Y1.094
N17870 X45.1 Y1.035
N17875 X44.674 Y0.986
N17880 X44.246 Y0.943
N17885 X43.818 Y0.906
N17890 X43.39 Y0.875
N17895 X42.961 Y0.848
N17900 X42.532 Y0.825
N17905 X42.103 Y0.805
N17910 X41.674 Y0.788
N17915 X41.245 Y0.773
N17920 X40.816 Y0.761
N17925 X40.386 Y0.75
N17930 X39.957 Y0.741
N17935 X39.527 Y0.734
N17940 X39.098 Y0.727
N17945 X38.668 Y0.721
N17950 X38.239 Y0.716
N17955 X37.809 Y0.712
N17960 X37.38 Y0.709
N17965 X36.95 Y0.705
N17970 X36.521 Y0.703
N17975 X36.091 Y0.701
N17980 X35.662 Y0.699
N17985 X35.232 Y0.697
N17990 X34.803 Y0.696
N17995 X33.944 Y0.693
N18000 X33.085 Y0.692
N18005 X31.796 Y0.69
N18010 X30.507 Y0.689
N18015 X28.36 Y0.688
N18020 X24.924
N18025 X13.326 Y0.687
N18030 X7.743
N18035 X7.313 Y0.692
N18040 X6.884 Y0.706
N18045 X6.455 Y0.728
N18050 X6.027 Y0.768
N18055 X5.622 Y0.911
N18060 X5.273 Y1.162
N18065 X4.974 Y1.47
N18070 X4.719 Y1.815
N18075 X4.501 Y2.186
N18080 X4.316 Y2.573
N18085 X4.158 Y2.973
N18090 X4.024 Y3.381
N18095 X3.911 Y3.795
N18100 X3.815 Y4.214
N18105 X3.734 Y4.636
N18110 X3.665 Y5.06
N18115 X3.607 Y5.485
N18120 X3.559 Y5.912
N18125 X3.518 Y6.339
N18130 X3.483 Y6.768
N18135 X3.454 Y7.196
N18140 X3.429 Y7.625
N18145 X3.409 Y8.054
N18150 X3.392 Y8.483
N18155 X3.377 Y8.912
N18160 X3.365 Y9.342
N18165 X3.355 Y9.771
N18170 X3.346 Y10.201
N18175 X3.339 Y10.63
N18180 X3.333 Y11.06
N18185 X3.328 Y11.489
N18190 X3.324 Y11.919
N18195 X3.32 Y12.348
N18200 X3.318 Y12.778
N18205 X3.315 Y13.207
N18210 X3.313 Y13.637
N18215 X3.311 Y14.066
N18220 X3.31 Y14.496
N18225 X3.308 Y15.355
N18230 X3.306 Y16.214
N18235 X3.305 Y17.502
N18240 X3.304 Y19.221
N18245 Y20.509
N18250 X3.303 Y24.804
N18255 Y36.831
N18260 Y37.261
N18265 X3.304 Y37.69
N18270 X3.308 Y38.12
N18275 X3.315 Y38.549
N18280 X3.331 Y38.978
N18285 X3.36 Y39.407
N18290 X3.386 Y39.62
N18295 X3.395 Y39.673
N18300 X3.399 Y39.699
N18305 G3 X2.552 Y40.325 I-0.594 J0.081
N18310 G1 X2.492 Y40.282 Z-0.395
N18315 X2.433 Y40.24 Z-0.382
N18320 X2.375 Y40.2 Z-0.359
N18325 X2.331 Y40.134 Z-0.321
N18330 X2.291 Y40.073 Z-0.271
N18335 X2.254 Y40.019 Z-0.212
N18340 X2.24 Y39.971 Z-0.15
N18345 X2.228 Y39.93 Z-0.082
N18350 X2.219 Y39.899 Z-0.01
N18355 X2.213 Y39.877 Z0.067
N18360 X2.211 Y39.866 Z0.133
N18365 Y39.862 Z0.2
N18370 G0 Z5.
N18375 X-4.153 Y-3.55
N18380 Z-2.798
N18385 G1 Z-3.398 F100.
N18390 X-4.146 Y-3.547 Z-3.492
N18395 X-4.127 Y-3.535 Z-3.583
N18400 X-4.096 Y-3.517 Z-3.67
N18405 X-4.054 Y-3.492 Z-3.751
N18410 X-4.001 Y-3.461 Z-3.822
N18415 X-3.94 Y-3.424 Z-3.883
N18420 X-3.871 Y-3.384 Z-3.933
N18425 X-3.796 Y-3.339 Z-3.969
N18430 X-3.717 Y-3.293 Z-3.991
N18435 X-3.636 Y-3.245 Z-3.998
N18440 G3 X-2.127 Y-2.115 I-4.458 J7.529
N18445 G1 X-2.11 Y-2.098
N18450 X-2.092 Y-2.074
N18455 X-2.074 Y-2.05
N18460 X-2.056 Y-2.026
N18465 X-2.039 Y-2.002
N18470 X-2.021 Y-1.978
N18475 X-2.004 Y-1.953
N18480 X-1.987 Y-1.929
N18485 X-1.97 Y-1.904
N18490 X-1.953 Y-1.879
N18495 X-1.936 Y-1.853
N18500 X-1.92 Y-1.828
N18505 X-1.903 Y-1.801
N18510 X-1.886 Y-1.774
N18515 X-1.868 Y-1.746
N18520 X-1.851 Y-1.718
N18525 X-1.834 Y-1.689
N18530 X-1.816 Y-1.659
N18535 X-1.799 Y-1.629
N18540 X-1.781 Y-1.598
N18545 X-1.764 Y-1.566
N18550 X-1.746 Y-1.534
N18555 X-1.728 Y-1.501
N18560 X-1.71 Y-1.467
N18565 X-1.692 Y-1.432
N18570 X-1.674 Y-1.396
N18575 X-1.655 Y-1.36
N18580 X-1.637 Y-1.323
N18585 X-1.618 Y-1.285
N18590 X-1.6 Y-1.246
N18595 X-1.581 Y-1.206
N18600 X-1.562 Y-1.165
N18605 X-1.544 Y-1.123
N18610 X-1.525 Y-1.08
N18615 X-1.506 Y-1.036
N18620 X-1.487 Y-0.991
N18625 X-1.468 Y-0.945
N18630 X-1.448 Y-0.897
N18635 X-1.429 Y-0.849
N18640 X-1.41 Y-0.799
N18645 X-1.39 Y-0.747
N18650 X-1.371 Y-0.695
N18655 X-1.351 Y-0.641
N18660 X-1.332 Y-0.586
N18665 X-1.312 Y-0.529
N18670 X-1.292 Y-0.47
N18675 X-1.272 Y-0.41
N18680 X-1.252 Y-0.348
N18685 X-1.232 Y-0.284
N18690 X-1.212 Y-0.219
N18695 X-1.192 Y-0.151
N18700 X-1.179 Y-0.108
N18705 X-1.129 Y0.164
N18710 X-1.133 Y0.44
N18715 X-1.191 Y0.71
N18720 X-1.3 Y0.963
N18725 X-1.354 Y1.06
N18730 X-1.39 Y1.129
N18735 X-1.756 Y1.848
N18740 X-1.847 Y2.027
N18745 X-1.938 Y2.207
N18750 X-2.02 Y2.387
N18755 X-2.074 Y2.519
N18760 X-2.091 Y2.566
N18765 X-2.15 Y2.746
N18770 X-2.199 Y2.926
N18775 X-2.241 Y3.105
N18780 X-2.271 Y3.285
N18785 X-2.3 Y3.464
N18790 X-2.443 Y4.363
N18795 X-2.467 Y4.542
N18800 X-2.487 Y4.722
N18805 X-2.497 Y4.901
N18810 X-2.5 Y5.081
N18815 Y5.261
N18820 Y42.265
N18825 Y42.445
N18830 X-2.497 Y42.624
N18835 X-2.487 Y42.804
N18840 X-2.467 Y42.984
N18845 X-2.443 Y43.163
N18850 X-2.3 Y44.061
N18855 X-2.271 Y44.241
N18860 X-2.241 Y44.421
N18865 X-2.199 Y44.6
N18870 X-2.15 Y44.78
N18875 X-2.091 Y44.96
N18880 X-2.074 Y45.007
N18885 X-2.02 Y45.139
N18890 X-1.938 Y45.319
N18895 X-1.847 Y45.499
N18900 X-1.756 Y45.678
N18905 X-1.39 Y46.397
N18910 X-1.354 Y46.466
N18915 X-1.293 Y46.576
N18920 X-1.174 Y46.774
N18925 X-1.065 Y46.936
N18930 X-0.994 Y47.028
N18935 X-0.925 Y47.115
N18940 X-0.814 Y47.243
N18945 X-0.765 Y47.295
N18950 X-0.634 Y47.428
N18955 X0.13 Y48.193
N18960 X0.265 Y48.325
N18965 X0.32 Y48.373
N18970 X0.445 Y48.48
N18975 X0.539 Y48.552
N18980 X0.625 Y48.617
N18985 X0.805 Y48.732
N18990 X0.985 Y48.841
N18995 X1.121 Y48.912
N19000 X1.885 Y49.301
N19005 X2.245 Y49.483
N19010 X2.425 Y49.562
N19015 X2.607 Y49.63
N19020 X2.785 Y49.689
N19025 X2.965 Y49.734
N19030 X3.145 Y49.774
N19035 X3.325 Y49.804
N19040 X4.225 Y49.947
N19045 X4.404 Y49.974
N19050 X4.584 Y49.999
N19055 X4.764 Y50.015
N19060 X4.944 Y50.025
N19065 X5.124 Y50.026
N19070 X5.304
N19075 X46.696
N19080 X46.876
N19085 X47.056 Y50.025
N19090 X47.236 Y50.015
N19095 X47.416 Y49.999
N19100 X47.596 Y49.974
N19105 X47.775 Y49.947
N19110 X48.675 Y49.804
N19115 X48.855 Y49.774
N19120 X49.035 Y49.734
N19125 X49.215 Y49.689
N19130 X49.395 Y49.629
N19135 X49.575 Y49.562
N19140 X49.755 Y49.483
N19145 X50.115 Y49.301
N19150 X50.879 Y48.912
N19155 X51.015 Y48.841
N19160 X51.195 Y48.732
N19165 X51.375 Y48.617
N19170 X51.461 Y48.552
N19175 X51.555 Y48.48
N19180 X51.68 Y48.373
N19185 X51.735 Y48.325
N19190 X51.87 Y48.193
N19195 X52.634 Y47.428
N19200 X52.765 Y47.295
N19205 X52.814 Y47.243
N19210 X52.925 Y47.115
N19215 X52.994 Y47.028
N19220 X53.065 Y46.936
N19225 X53.174 Y46.774
N19230 X53.293 Y46.576
N19235 X53.354 Y46.466
N19240 X53.39 Y46.397
N19245 X53.756 Y45.678
N19250 X53.847 Y45.499
N19255 X53.938 Y45.319
N19260 X54.02 Y45.139
N19265 X54.074 Y45.007
N19270 X54.091 Y44.96
N19275 X54.15 Y44.78
N19280 X54.199 Y44.6
N19285 X54.241 Y44.421
N19290 X54.271 Y44.241
N19295 X54.3 Y44.061
N19300 X54.443 Y43.163
N19305 X54.467 Y42.984
N19310 X54.487 Y42.804
N19315 X54.497 Y42.624
N19320 X54.5 Y42.445
N19325 Y42.265
N19330 Y5.261
N19335 Y5.081
N19340 X54.497 Y4.901
N19345 X54.487 Y4.722
N19350 X54.467 Y4.542
N19355 X54.443 Y4.363
N19360 X54.3 Y3.464
N19365 X54.271 Y3.285
N19370 X54.241 Y3.105
N19375 X54.199 Y2.926
N19380 X54.15 Y2.746
N19385 X54.091 Y2.566
N19390 X54.074 Y2.519
N19395 X54.02 Y2.387
N19400 X53.938 Y2.207
N19405 X53.847 Y2.027
N19410 X53.756 Y1.848
N19415 X53.39 Y1.129
N19420 X53.354 Y1.06
N19425 X53.293 Y0.95
N19430 X53.174 Y0.752
N19435 X53.065 Y0.59
N19440 X52.994 Y0.498
N19445 X52.925 Y0.411
N19450 X52.814 Y0.283
N19455 X52.765 Y0.231
N19460 X52.634 Y0.098
N19465 X51.87 Y-0.667
N19470 X51.735 Y-0.799
N19475 X51.68 Y-0.847
N19480 X51.555 Y-0.954
N19485 X51.461 Y-1.026
N19490 X51.375 Y-1.091
N19495 X51.195 Y-1.206
N19500 X51.015 Y-1.315
N19505 X50.879 Y-1.386
N19510 X50.115 Y-1.775
N19515 X49.755 Y-1.957
N19520 X49.575 Y-2.036
N19525 X49.393 Y-2.104
N19530 X49.215 Y-2.163
N19535 X49.035 Y-2.208
N19540 X48.855 Y-2.248
N19545 X48.675 Y-2.278
N19550 X47.775 Y-2.421
N19555 X47.596 Y-2.448
N19560 X47.416 Y-2.473
N19565 X47.236 Y-2.489
N19570 X47.056 Y-2.499
N19575 X46.876 Y-2.5
N19580 X46.696
N19585 X5.304
N19590 X5.124
N19595 X4.944 Y-2.499
N19600 X4.764 Y-2.489
N19605 X4.584 Y-2.473
N19610 X4.404 Y-2.448
N19615 X4.225 Y-2.421
N19620 X3.325 Y-2.278
N19625 X3.145 Y-2.248
N19630 X2.965 Y-2.208
N19635 X2.785 Y-2.163
N19640 X2.605 Y-2.104
N19645 X2.425 Y-2.036
N19650 X2.245 Y-1.957
N19655 X1.885 Y-1.775
N19660 X1.121 Y-1.386
N19665 X0.985 Y-1.315
N19670 X0.805 Y-1.206
N19675 X0.625 Y-1.091
N19680 X0.539 Y-1.026
N19685 X0.445 Y-0.954
N19690 X0.32 Y-0.847
N19695 X0.265 Y-0.799
N19700 X0.13 Y-0.667
N19705 X-0.634 Y0.098
N19710 X-0.765 Y0.231
N19715 G3 X-1.768 Y-0.09 I-0.414 J-0.434
N19720 G1 X-1.774 Y-0.147 Z-3.995
N19725 X-1.779 Y-0.203 Z-3.987
N19730 X-1.765 Y-0.278 Z-3.967
N19735 X-1.752 Y-0.35 Z-3.937
N19740 X-1.74 Y-0.417 Z-3.898
N19745 X-1.705 Y-0.475 Z-3.845
N19750 X-1.674 Y-0.526 Z-3.783
N19755 X-1.648 Y-0.568 Z-3.713
N19760 X-1.627 Y-0.602 Z-3.637
N19765 X-1.614 Y-0.617 Z-3.585
N19770 X-1.604 Y-0.627 Z-3.531
N19775 X-1.596 Y-0.635 Z-3.465
N19780 X-1.593 Y-0.638 Z-3.398
N19785 G0 Z5.
N19790 X22.249 Y22.351
N19795 Z1.1
N19800 G1 Z0.5 F100.
N19805 G3 X20.251 Y27.69 Z0.187 I-0.999 J2.669
N19810 X22.249 Y22.351 Z-0.125 I0.999 J-2.669
N19815 X20.251 Y27.69 Z-0.438 I-0.999 J2.669
N19820 X22.249 Y22.351 Z-0.751 I0.999 J-2.669
N19825 X20.251 Y27.69 Z-1.063 I-0.999 J2.669
N19830 X22.249 Y22.351 Z-1.376 I0.999 J-2.669
N19835 X20.251 Y27.69 Z-1.689 I-0.999 J2.669
N19840 X22.249 Y22.351 Z-2.001 I0.999 J-2.669
N19845 X20.251 Y27.69 Z-2.314 I-0.999 J2.669
N19850 X22.249 Y22.351 Z-2.627 I0.999 J-2.669
N19855 X20.251 Y27.69 Z-2.939 I-0.999 J2.669
N19860 X22.249 Y22.351 Z-3.252 I0.999 J-2.669
N19865 X20.251 Y27.69 Z-3.565 I-0.999 J2.669
N19870 X22.249 Y22.351 Z-3.877 I0.999 J-2.669
N19875 X24.1 Y25.02 Z-3.998 I-0.999 J2.669
N19880 X18.4 I-2.85 J0.
N19885 X24.081 Y24.693 I2.85 J0.
N19890 X24.1 Y25.02 I-2.831 J0.327
N19895 G1 X24.101 Y25.235
N19900 X24.134 Y25.447
N19905 X24.266 Y25.856
N19910 X24.276 Y25.875
N19915 X24.317 Y25.956
N19920 X24.356 Y26.049
N19925 X24.39 Y26.155
N19930 X24.418 Y26.274
N19935 X24.438 Y26.406
N19940 X24.448 Y26.55
N19945 X24.446 Y26.705
N19950 X24.431 Y26.87
N19955 X24.401 Y27.045
N19960 X24.354 Y27.227
N19965 X24.29 Y27.416
N19970 X24.206 Y27.608
N19975 X24.101 Y27.802
N19980 X23.976 Y27.996
N19985 X23.83 Y28.188
N19990 X23.662 Y28.374
N19995 X23.473 Y28.553
N20000 X23.263 Y28.722
N20005 X23.033 Y28.878
N20010 X22.785 Y29.019
N20015 X22.519 Y29.143
N20020 X22.237 Y29.248
N20025 X21.941 Y29.331
N20030 X21.634 Y29.392
N20035 X21.317 Y29.429
N20040 X20.993 Y29.44
N20045 X20.664 Y29.424
N20050 X20.334 Y29.383
N20055 X20.004 Y29.313
N20060 X19.678 Y29.217
N20065 X19.358 Y29.094
N20070 X19.046 Y28.944
N20075 X18.745 Y28.768
N20080 X18.457 Y28.568
N20085 X18.185 Y28.344
N20090 X17.93 Y28.097
N20095 X17.695 Y27.83
N20100 X17.482 Y27.544
N20105 X17.291 Y27.24
N20110 X17.125 Y26.922
N20115 X16.985 Y26.59
N20120 X16.872 Y26.247
N20125 X16.786 Y25.896
N20130 X16.728 Y25.538
N20135 X16.7 Y25.176
N20140 X16.701 Y24.813
N20145 X16.73 Y24.45
N20150 X16.789 Y24.091
N20155 X16.877 Y23.737
N20160 X16.993 Y23.392
N20165 X17.136 Y23.056
N20170 X17.306 Y22.733
N20175 X17.501 Y22.424
N20180 X17.721 Y22.132
N20185 X17.963 Y21.858
N20190 X18.227 Y21.605
N20195 X18.51 Y21.373
N20200 X18.811 Y21.165
N20205 X19.128 Y20.982
N20210 X19.459 Y20.824
N20215 X19.801 Y20.694
N20220 X20.152 Y20.592
N20225 X20.511 Y20.518
N20230 X20.875 Y20.473
N20235 X21.241 Y20.457
N20240 X21.607 Y20.471
N20245 X21.97 Y20.514
N20250 X22.33 Y20.587
N20255 X22.682 Y20.687
N20260 X23.025 Y20.816
N20265 X23.357 Y20.972
N20270 X23.675 Y21.154
N20275 X23.977 Y21.361
N20280 X24.262 Y21.592
N20285 X24.527 Y21.845
N20290 X24.772 Y22.118
N20295 X24.993 Y22.41
N20300 X25.225 Y22.772
N20305 X25.434 Y23.147
N20310 X25.631 Y23.528
N20315 X25.81 Y23.919
N20320 X25.968 Y24.318
N20325 X26.099 Y24.727
N20330 X26.2 Y25.145
N20335 X26.269 Y25.566
N20340 X26.303 Y25.976
N20345 Y26.376
N20350 X26.272 Y26.77
N20355 X26.21 Y27.158
N20360 X26.117 Y27.539
N20365 X25.993 Y27.912
N20370 X25.839 Y28.276
N20375 X25.654 Y28.63
N20380 X25.44 Y28.97
N20385 X25.197 Y29.296
N20390 X24.926 Y29.604
N20395 X24.627 Y29.893
N20400 X24.302 Y30.161
N20405 X23.951 Y30.404
N20410 X23.58 Y30.621
N20415 X23.193 Y30.807
N20420 X22.792 Y30.962
N20425 X22.381 Y31.086
N20430 X21.961 Y31.178
N20435 X21.536 Y31.238
N20440 X21.107 Y31.267
N20445 X20.678 Y31.264
N20450 X20.25 Y31.229
N20455 X19.825 Y31.163
N20460 X19.407 Y31.067
N20465 X18.996 Y30.941
N20470 X18.596 Y30.786
N20475 X18.207 Y30.604
N20480 X17.831 Y30.394
N20485 X17.472 Y30.16
N20490 X17.13 Y29.9
N20495 X16.806 Y29.617
N20500 X16.503 Y29.313
N20505 X16.221 Y28.989
N20510 X15.962 Y28.646
N20515 X15.727 Y28.287
N20520 X15.517 Y27.912
N20525 X15.333 Y27.524
N20530 X15.176 Y27.124
N20535 X15.046 Y26.715
N20540 X14.944 Y26.298
N20545 X14.87 Y25.875
N20550 X14.825 Y25.447
N20555 X14.809 Y25.018
N20560 X14.822 Y24.589
N20565 X14.864 Y24.161
N20570 X14.934 Y23.737
N20575 X15.031 Y23.319
N20580 X15.157 Y22.909
N20585 X15.311 Y22.507
N20590 X15.491 Y22.117
N20595 X15.696 Y21.74
N20600 X15.926 Y21.377
N20605 X16.179 Y21.03
N20610 X16.456 Y20.702
N20615 X16.753 Y20.392
N20620 X17.071 Y20.103
N20625 X17.407 Y19.836
N20630 X17.76 Y19.591
N20635 X18.129 Y19.37
N20640 X18.511 Y19.175
N20645 X18.906 Y19.006
N20650 X19.311 Y18.863
N20655 X19.725 Y18.748
N20660 X20.145 Y18.66
N20665 X20.571 Y18.6
N20670 X20.999 Y18.569
N20675 X21.429 Y18.567
N20680 X21.857 Y18.593
N20685 X22.283 Y18.647
N20690 X22.705 Y18.73
N20695 X23.12 Y18.84
N20700 X23.527 Y18.978
N20705 X23.923 Y19.143
N20710 X24.308 Y19.334
N20715 X24.68 Y19.55
N20720 X25.036 Y19.789
N20725 X25.375 Y20.053
N20730 X25.698 Y20.337
N20735 X26.003 Y20.639
N20740 X26.291 Y20.957
N20745 X26.563 Y21.29
N20750 X26.818 Y21.636
N20755 X27.054 Y21.994
N20760 X27.272 Y22.364
N20765 X27.471 Y22.745
N20770 X27.651 Y23.135
N20775 X27.808 Y23.535
N20780 X27.943 Y23.943
N20785 X28.056 Y24.357
N20790 X28.145 Y24.777
N20795 X28.209 Y25.202
N20800 X28.248 Y25.63
N20805 X28.262 Y26.059
N20810 X28.251 Y26.488
N20815 X28.213 Y26.916
N20820 X28.149 Y27.341
N20825 X28.059 Y27.761
N20830 X27.945 Y28.175
N20835 X27.805 Y28.581
N20840 X27.64 Y28.978
N20845 X27.451 Y29.364
N20850 X27.239 Y29.737
N20855 X27.006 Y30.098
N20860 X26.75 Y30.443
N20865 X26.474 Y30.772
N20870 X26.179 Y31.084
N20875 X25.865 Y31.378
N20880 X25.535 Y31.652
N20885 X25.189 Y31.906
N20890 X24.828 Y32.14
N20895 X24.455 Y32.352
N20900 X24.07 Y32.542
N20905 X23.674 Y32.71
N20910 X23.27 Y32.855
N20915 X22.858 Y32.977
N20920 X22.44 Y33.074
N20925 X22.017 Y33.148
N20930 X21.59 Y33.199
N20935 X21.161 Y33.226
N20940 X20.732 Y33.228
N20945 X20.303 Y33.207
N20950 X19.876 Y33.162
N20955 X19.451 Y33.095
N20960 X19.032 Y33.004
N20965 X18.617 Y32.891
N20970 X18.21 Y32.755
N20975 X17.81 Y32.599
N20980 X17.419 Y32.42
N20985 X17.038 Y32.221
N20990 X16.669 Y32.003
N20995 X16.311 Y31.765
N21000 X15.967 Y31.508
N21005 X15.636 Y31.234
N21010 X15.321 Y30.942
N21015 X15.02 Y30.635
N21020 X14.737 Y30.313
N21025 X14.471 Y29.975
N21030 X14.222 Y29.625
N21035 X13.992 Y29.262
N21040 X13.782 Y28.888
N21045 X13.591 Y28.503
N21050 X13.42 Y28.109
N21055 X13.269 Y27.707
N21060 X13.14 Y27.297
N21065 X13.032 Y26.882
N21070 X12.945 Y26.461
N21075 X12.881 Y26.036
N21080 X12.837 Y25.609
N21085 X12.816 Y25.18
N21090 X12.818 Y24.75
N21095 X12.841 Y24.321
N21100 X12.885 Y23.894
N21105 X12.952 Y23.47
N21110 X13.041 Y23.05
N21115 X13.151 Y22.634
N21120 X13.281 Y22.225
N21125 X13.432 Y21.823
N21130 X13.604 Y21.43
N21135 X13.796 Y21.045
N21140 X14.007 Y20.671
N21145 X14.237 Y20.308
N21150 X14.485 Y19.958
N21155 X14.751 Y19.62
N21160 X15.033 Y19.296
N21165 X15.331 Y18.987
N21170 X15.645 Y18.694
N21175 X15.974 Y18.417
N21180 X16.316 Y18.158
N21185 X16.67 Y17.915
N21190 X17.037 Y17.692
N21195 X17.415 Y17.487
N21200 X17.802 Y17.302
N21205 X18.198 Y17.136
N21210 X18.603 Y16.991
N21215 X19.014 Y16.867
N21220 X19.431 Y16.764
