%
(1)
(T1  D=6. CR=0. - ZMIN=-12.499 - FLAT END MILL)
N10 G90 G94 G17 G91.1
N15 G21
N20 G53 G0 Z0.
(ADAPTIVE1)
N25 M9
N30 T1 M6
N35 S2500 M3
N40 G54
N45 M8
N55 G0 X-4.183 Y-3.53
N60 G43 Z15. H1
N65 G0 Z5.
N70 Z0.201
N75 G1 Z-0.399 F100.
N80 X-4.176 Y-3.526 Z-0.493
N85 X-4.158 Y-3.515 Z-0.584
N90 X-4.127 Y-3.497 Z-0.671
N95 X-4.084 Y-3.472 Z-0.752
N100 X-4.032 Y-3.44 Z-0.823
N105 X-3.97 Y-3.404 Z-0.884
N110 X-3.901 Y-3.363 Z-0.934
N115 X-3.826 Y-3.319 Z-0.97
N120 X-3.747 Y-3.272 Z-0.992
N125 X-3.667 Y-3.224 Z-0.999
N130 G3 X-2.158 Y-2.095 I-4.458 J7.529
N135 G1 X-2.142 Y-2.079
N140 X-2.123 Y-2.056
N145 X-2.105 Y-2.032
N150 X-2.087 Y-2.008
N155 X-2.069 Y-1.984
N160 X-2.051 Y-1.96
N165 X-2.033 Y-1.936
N170 X-2.016 Y-1.911
N175 X-1.999 Y-1.887
N180 X-1.982 Y-1.862
N185 X-1.965 Y-1.837
N190 X-1.948 Y-1.812
N195 X-1.931 Y-1.787
N200 X-1.915 Y-1.76
N205 X-1.898 Y-1.734
N210 X-1.88 Y-1.706
N215 X-1.863 Y-1.679
N220 X-1.846 Y-1.65
N225 X-1.829 Y-1.621
N230 X-1.811 Y-1.591
N235 X-1.794 Y-1.561
N240 X-1.776 Y-1.529
N245 X-1.758 Y-1.497
N250 X-1.74 Y-1.465
N255 X-1.722 Y-1.431
N260 X-1.704 Y-1.397
N265 X-1.686 Y-1.362
N270 X-1.668 Y-1.326
N275 X-1.65 Y-1.29
N280 X-1.631 Y-1.252
N285 X-1.613 Y-1.214
N290 X-1.594 Y-1.175
N295 X-1.576 Y-1.134
N300 X-1.557 Y-1.093
N305 X-1.538 Y-1.051
N310 X-1.519 Y-1.008
N315 X-1.5 Y-0.963
N320 X-1.481 Y-0.918
N325 X-1.462 Y-0.871
N330 X-1.443 Y-0.824
N335 X-1.423 Y-0.775
N340 X-1.404 Y-0.724
N345 X-1.384 Y-0.673
N350 X-1.365 Y-0.62
N355 X-1.345 Y-0.565
N360 X-1.326 Y-0.509
N365 X-1.306 Y-0.452
N370 X-1.286 Y-0.393
N375 X-1.266 Y-0.332
N380 X-1.246 Y-0.27
N385 X-1.226 Y-0.206
N390 X-1.206 Y-0.139
N395 X-1.186 Y-0.071
N400 X-1.166 Y-0.001
N405 X-1.145 Y0.072
N410 X-1.121 Y0.16
N415 X-1.079 Y0.415
N420 X-1.084 Y0.674
N425 X-1.136 Y0.927
N430 X-1.234 Y1.166
N435 X-1.309 Y1.309
N440 X-1.714 Y2.105
N445 X-1.766 Y2.207
N450 X-1.849 Y2.387
N455 X-1.894 Y2.489
N460 X-1.928 Y2.566
N465 X-1.991 Y2.746
N470 X-2.04 Y2.926
N475 X-2.084 Y3.105
N480 X-2.118 Y3.285
N485 X-2.151 Y3.464
N490 X-2.183 Y3.644
N495 X-2.214 Y3.824
N500 X-2.254 Y4.053
N505 X-2.276 Y4.183
N510 X-2.307 Y4.363
N515 X-2.332 Y4.542
N520 X-2.352 Y4.722
N525 X-2.362 Y4.901
N530 X-2.365 Y5.081
N535 Y5.261
N540 Y42.265
N545 Y42.445
N550 X-2.362 Y42.624
N555 X-2.352 Y42.804
N560 X-2.332 Y42.984
N565 X-2.307 Y43.163
N570 X-2.276 Y43.343
N575 X-2.254 Y43.473
N580 X-2.214 Y43.702
N585 X-2.183 Y43.882
N590 X-2.151 Y44.061
N595 X-2.118 Y44.241
N600 X-2.084 Y44.421
N605 X-2.04 Y44.6
N610 X-1.991 Y44.78
N615 X-1.928 Y44.96
N620 X-1.894 Y45.037
N625 X-1.849 Y45.139
N630 X-1.766 Y45.319
N635 X-1.534 Y45.774
N640 X-1.309 Y46.217
N645 X-1.174 Y46.474
N650 X-1.117 Y46.576
N655 X-1.003 Y46.756
N660 X-0.994 Y46.769
N665 X-0.869 Y46.936
N670 X-0.814 Y47.006
N675 X-0.719 Y47.115
N680 X-0.548 Y47.295
N685 X-0.455 Y47.391
N690 X0.168 Y48.013
N695 X0.445 Y48.279
N700 X0.562 Y48.373
N705 X0.625 Y48.422
N710 X0.805 Y48.552
N715 X0.985 Y48.665
N720 X1.165 Y48.759
N725 X1.345 Y48.853
N730 X2.245 Y49.311
N735 X2.425 Y49.392
N740 X2.559 Y49.45
N745 X2.605 Y49.467
N750 X2.785 Y49.529
N755 X2.965 Y49.575
N760 X3.145 Y49.617
N765 X3.325 Y49.651
N770 X3.505 Y49.684
N775 X3.685 Y49.716
N780 X4.045 Y49.779
N785 X4.228 Y49.81
N790 X4.404 Y49.838
N795 X4.584 Y49.864
N800 X4.764 Y49.88
N805 X4.944 Y49.89
N810 X5.124 Y49.891
N815 X5.304
N820 X46.696
N825 X46.876
N830 X47.056 Y49.89
N835 X47.236 Y49.88
N840 X47.416 Y49.864
N845 X47.596 Y49.838
N850 X47.775 Y49.809
N855 X47.955 Y49.779
N860 X48.315 Y49.716
N865 X48.495 Y49.684
N870 X48.675 Y49.651
N875 X48.855 Y49.617
N880 X49.035 Y49.575
N885 X49.215 Y49.529
N890 X49.395 Y49.467
N895 X49.441 Y49.45
N900 X49.575 Y49.392
N905 X49.755 Y49.311
N910 X50.655 Y48.853
N915 X50.835 Y48.759
N920 X51.015 Y48.665
N925 X51.195 Y48.552
N930 X51.375 Y48.422
N935 X51.438 Y48.373
N940 X51.555 Y48.279
N945 X51.832 Y48.013
N950 X52.455 Y47.391
N955 X52.548 Y47.295
N960 X52.719 Y47.115
N965 X52.814 Y47.006
N970 X52.869 Y46.936
N975 X52.994 Y46.769
N980 X53.003 Y46.756
N985 X53.117 Y46.576
N990 X53.174 Y46.474
N995 X53.309 Y46.217
N1000 X53.714 Y45.421
N1005 X53.766 Y45.319
N1010 X53.849 Y45.139
N1015 X53.894 Y45.037
N1020 X53.928 Y44.96
N1025 X53.991 Y44.78
N1030 X54.04 Y44.6
N1035 X54.084 Y44.421
N1040 X54.118 Y44.241
N1045 X54.151 Y44.061
N1050 X54.183 Y43.882
N1055 X54.214 Y43.702
N1060 X54.254 Y43.473
N1065 X54.276 Y43.343
N1070 X54.307 Y43.163
N1075 X54.332 Y42.984
N1080 X54.352 Y42.804
N1085 X54.362 Y42.624
N1090 X54.365 Y42.445
N1095 Y42.265
N1100 Y5.261
N1105 Y5.081
N1110 X54.362 Y4.901
N1115 X54.352 Y4.722
N1120 X54.332 Y4.542
N1125 X54.307 Y4.363
N1130 X54.276 Y4.183
N1135 X54.254 Y4.053
N1140 X54.214 Y3.824
N1145 X54.183 Y3.644
N1150 X54.151 Y3.464
N1155 X54.118 Y3.285
N1160 X54.084 Y3.105
N1165 X54.04 Y2.926
N1170 X53.991 Y2.746
N1175 X53.928 Y2.566
N1180 X53.894 Y2.489
N1185 X53.849 Y2.387
N1190 X53.766 Y2.207
N1195 X53.534 Y1.752
N1200 X53.309 Y1.309
N1205 X53.174 Y1.052
N1210 X53.117 Y0.95
N1215 X53.003 Y0.77
N1220 X52.994 Y0.757
N1225 X52.869 Y0.59
N1230 X52.814 Y0.52
N1235 X52.719 Y0.411
N1240 X52.548 Y0.231
N1245 X52.455 Y0.135
N1250 X51.832 Y-0.488
N1255 X51.555 Y-0.753
N1260 X51.438 Y-0.847
N1265 X51.375 Y-0.896
N1270 X51.195 Y-1.027
N1275 X51.015 Y-1.139
N1280 X50.835 Y-1.233
N1285 X50.655 Y-1.327
N1290 X49.755 Y-1.786
N1295 X49.575 Y-1.866
N1300 X49.441 Y-1.925
N1305 X49.395 Y-1.942
N1310 X49.215 Y-2.003
N1315 X49.035 Y-2.05
N1320 X48.855 Y-2.092
N1325 X48.675 Y-2.125
N1330 X48.495 Y-2.158
N1335 X48.315 Y-2.19
N1340 X47.955 Y-2.253
N1345 X47.772 Y-2.284
N1350 X47.596 Y-2.312
N1355 X47.416 Y-2.338
N1360 X47.236 Y-2.354
N1365 X47.056 Y-2.365
N1370 X46.876
N1375 X46.696
N1380 X5.304
N1385 X5.124
N1390 X4.944
N1395 X4.764 Y-2.354
N1400 X4.584 Y-2.338
N1405 X4.404 Y-2.312
N1410 X4.225 Y-2.283
N1415 X4.045 Y-2.253
N1420 X3.685 Y-2.19
N1425 X3.505 Y-2.158
N1430 X3.325 Y-2.125
N1435 X3.145 Y-2.092
N1440 X2.965 Y-2.05
N1445 X2.785 Y-2.003
N1450 X2.605 Y-1.942
N1455 X2.559 Y-1.925
N1460 X2.425 Y-1.866
N1465 X2.245 Y-1.786
N1470 X1.345 Y-1.327
N1475 X1.165 Y-1.233
N1480 X0.985 Y-1.139
N1485 X0.805 Y-1.026
N1490 X0.625 Y-0.896
N1495 X0.562 Y-0.847
N1500 X0.445 Y-0.753
N1505 X0.168 Y-0.488
N1510 X-0.455 Y0.135
N1515 X-0.548 Y0.231
N1520 X-0.634 Y0.322
N1525 G3 X-1.642 Y0.014 I-0.42 J-0.429
N1530 G1 X-1.648 Y-0.047 Z-0.996
N1535 X-1.654 Y-0.107 Z-0.986
N1540 X-1.64 Y-0.182 Z-0.965
N1545 X-1.627 Y-0.254 Z-0.934
N1550 X-1.615 Y-0.321 Z-0.893
N1555 X-1.579 Y-0.38 Z-0.837
N1560 X-1.548 Y-0.431 Z-0.772
N1565 X-1.522 Y-0.473 Z-0.698
N1570 X-1.502 Y-0.506 Z-0.618
N1575 X-1.484 Y-0.526 Z-0.532
N1580 X-1.476 Y-0.534 Z-0.466
N1585 X-1.474 Y-0.536 Z-0.399
N1590 G0 Z5.
N1595 X-2.195 Y-1.62
N1600 Z0.3
N1605 G1 Z-0.3 F100.
N1610 X-2.189 Y-1.616 Z-0.394
N1615 X-2.17 Y-1.605 Z-0.485
N1620 X-2.139 Y-1.586 Z-0.572
N1625 X-2.097 Y-1.561 Z-0.653
N1630 X-2.044 Y-1.53 Z-0.724
N1635 X-1.983 Y-1.494 Z-0.785
N1640 X-1.914 Y-1.453 Z-0.835
N1645 X-1.839 Y-1.408 Z-0.871
N1650 X-1.76 Y-1.362 Z-0.893
N1655 X-1.679 Y-1.314 Z-0.9
N1660 G3 X-0.17 Y-0.184 I-4.458 J7.529
N1665 G1 X-0.154 Y-0.168
N1670 X-0.132 Y-0.13
N1675 Y-0.087
N1680 X-0.154 Y-0.05
N1685 X-0.455 Y0.251
N1690 X-0.609 Y0.411
N1695 X-0.634 Y0.437
N1700 X-0.766 Y0.59
N1705 X-0.814 Y0.651
N1710 X-0.9 Y0.77
N1715 X-1.018 Y0.95
N1720 X-1.121 Y1.129
N1725 X-1.217 Y1.309
N1730 X-1.674 Y2.207
N1735 X-1.714 Y2.288
N1740 X-1.759 Y2.387
N1745 X-1.838 Y2.566
N1750 X-1.901 Y2.746
N1755 X-1.956 Y2.926
N1760 X-2. Y3.105
N1765 X-2.034 Y3.285
N1770 X-2.074 Y3.503
N1775 X-2.166 Y4.003
N1780 X-2.198 Y4.183
N1785 X-2.23 Y4.363
N1790 X-2.256 Y4.542
N1795 X-2.278 Y4.722
N1800 X-2.287 Y4.901
N1805 X-2.29 Y5.081
N1810 Y5.261
N1815 Y42.265
N1820 Y42.445
N1825 X-2.287 Y42.624
N1830 X-2.278 Y42.804
N1835 X-2.256 Y42.984
N1840 X-2.23 Y43.163
N1845 X-2.198 Y43.343
N1850 X-2.166 Y43.523
N1855 X-2.067 Y44.061
N1860 X-2.034 Y44.241
N1865 X-2. Y44.421
N1870 X-1.956 Y44.6
N1875 X-1.901 Y44.78
N1880 X-1.838 Y44.96
N1885 X-1.759 Y45.139
N1890 X-1.714 Y45.238
N1895 X-1.674 Y45.319
N1900 X-1.217 Y46.217
N1905 X-1.121 Y46.397
N1910 X-1.018 Y46.576
N1915 X-0.9 Y46.756
N1920 X-0.814 Y46.875
N1925 X-0.766 Y46.936
N1930 X-0.634 Y47.088
N1935 X-0.609 Y47.115
N1940 X-0.455 Y47.275
N1945 X0.284 Y48.013
N1950 X0.445 Y48.168
N1955 X0.474 Y48.193
N1960 X0.625 Y48.32
N1965 X0.693 Y48.373
N1970 X0.805 Y48.449
N1975 X0.985 Y48.568
N1980 X1.165 Y48.666
N1985 X1.288 Y48.732
N1990 X1.345 Y48.761
N1995 X2.245 Y49.219
N2000 X2.357 Y49.271
N2005 X2.425 Y49.302
N2010 X2.605 Y49.377
N2015 X2.813 Y49.45
N2020 X2.965 Y49.493
N2025 X3.145 Y49.533
N2030 X3.325 Y49.567
N2035 X3.505 Y49.6
N2040 X4.045 Y49.699
N2045 X4.225 Y49.731
N2050 X4.404 Y49.762
N2055 X4.584 Y49.789
N2060 X4.764 Y49.804
N2065 X4.848 Y49.81
N2070 X4.944 Y49.815
N2075 X5.124 Y49.816
N2080 X5.304
N2085 X46.696
N2090 X46.876
N2095 X47.056 Y49.815
N2100 X47.152 Y49.81
N2105 X47.236 Y49.804
N2110 X47.416 Y49.789
N2115 X47.596 Y49.762
N2120 X47.775 Y49.731
N2125 X47.955 Y49.699
N2130 X48.495 Y49.6
N2135 X48.675 Y49.567
N2140 X48.855 Y49.533
N2145 X49.035 Y49.493
N2150 X49.187 Y49.45
N2155 X49.395 Y49.377
N2160 X49.575 Y49.302
N2165 X49.643 Y49.271
N2170 X49.755 Y49.219
N2175 X50.655 Y48.761
N2180 X50.712 Y48.732
N2185 X50.835 Y48.666
N2190 X51.015 Y48.568
N2195 X51.195 Y48.449
N2200 X51.307 Y48.373
N2205 X51.375 Y48.32
N2210 X51.526 Y48.193
N2215 X51.555 Y48.168
N2220 X51.716 Y48.013
N2225 X52.455 Y47.275
N2230 X52.609 Y47.115
N2235 X52.634 Y47.088
N2240 X52.766 Y46.936
N2245 X52.814 Y46.875
N2250 X52.9 Y46.756
N2255 X53.018 Y46.576
N2260 X53.121 Y46.397
N2265 X53.217 Y46.217
N2270 X53.674 Y45.319
N2275 X53.714 Y45.238
N2280 X53.759 Y45.139
N2285 X53.838 Y44.96
N2290 X53.901 Y44.78
N2295 X53.956 Y44.6
N2300 X54. Y44.421
N2305 X54.034 Y44.241
N2310 X54.074 Y44.023
N2315 X54.166 Y43.523
N2320 X54.198 Y43.343
N2325 X54.23 Y43.163
N2330 X54.256 Y42.984
N2335 X54.278 Y42.804
N2340 X54.287 Y42.624
N2345 X54.29 Y42.445
N2350 Y42.265
N2355 Y5.261
N2360 Y5.081
N2365 X54.287 Y4.901
N2370 X54.278 Y4.722
N2375 X54.256 Y4.542
N2380 X54.23 Y4.363
N2385 X54.198 Y4.183
N2390 X54.166 Y4.003
N2395 X54.067 Y3.464
N2400 X54.034 Y3.285
N2405 X54. Y3.105
N2410 X53.956 Y2.926
N2415 X53.901 Y2.746
N2420 X53.838 Y2.566
N2425 X53.759 Y2.387
N2430 X53.714 Y2.288
N2435 X53.674 Y2.207
N2440 X53.217 Y1.309
N2445 X53.121 Y1.129
N2450 X53.018 Y0.95
N2455 X52.9 Y0.77
N2460 X52.814 Y0.651
N2465 X52.766 Y0.59
N2470 X52.634 Y0.437
N2475 X52.609 Y0.411
N2480 X52.455 Y0.251
N2485 X51.716 Y-0.488
N2490 X51.555 Y-0.643
N2495 X51.526 Y-0.667
N2500 X51.375 Y-0.794
N2505 X51.307 Y-0.847
N2510 X51.195 Y-0.923
N2515 X51.015 Y-1.042
N2520 X50.835 Y-1.14
N2525 X50.712 Y-1.206
N2530 X50.655 Y-1.235
N2535 X49.755 Y-1.694
N2540 X49.643 Y-1.745
N2545 X49.575 Y-1.776
N2550 X49.395 Y-1.851
N2555 X49.187 Y-1.925
N2560 X49.035 Y-1.967
N2565 X48.855 Y-2.007
N2570 X48.675 Y-2.041
N2575 X48.495 Y-2.075
N2580 X47.955 Y-2.173
N2585 X47.775 Y-2.206
N2590 X47.596 Y-2.236
N2595 X47.416 Y-2.263
N2600 X47.236 Y-2.279
N2605 X47.152 Y-2.284
N2610 X47.056 Y-2.289
N2615 X46.876 Y-2.29
N2620 X46.696
N2625 X5.304
N2630 X5.124
N2635 X4.944 Y-2.289
N2640 X4.848 Y-2.284
N2645 X4.764 Y-2.279
N2650 X4.584 Y-2.263
N2655 X4.404 Y-2.236
N2660 X4.225 Y-2.206
N2665 X4.045 Y-2.173
N2670 X3.505 Y-2.075
N2675 X3.325 Y-2.041
N2680 X3.145 Y-2.007
N2685 X2.965 Y-1.967
N2690 X2.813 Y-1.925
N2695 X2.605 Y-1.851
N2700 X2.425 Y-1.776
N2705 X2.357 Y-1.745
N2710 X2.245 Y-1.694
N2715 X1.345 Y-1.235
N2720 X1.288 Y-1.206
N2725 X1.165 Y-1.14
N2730 X0.985 Y-1.042
N2735 X0.805 Y-0.923
N2740 X0.693 Y-0.847
N2745 X0.625 Y-0.794
N2750 X0.474 Y-0.667
N2755 X0.445 Y-0.643
N2760 X0.284 Y-0.488
N2765 X-0.154 Y-0.05
N2770 G3 X-1.153 Y-0.381 I-0.409 J-0.439
N2775 G1 X-1.158 Y-0.435 Z-0.898
N2780 X-1.163 Y-0.488 Z-0.89
N2785 X-1.149 Y-0.563 Z-0.871
N2790 X-1.136 Y-0.635 Z-0.842
N2795 X-1.124 Y-0.702 Z-0.804
N2800 X-1.089 Y-0.759 Z-0.753
N2805 X-1.058 Y-0.81 Z-0.694
N2810 X-1.032 Y-0.853 Z-0.626
N2815 X-1.011 Y-0.887 Z-0.553
N2820 X-0.995 Y-0.904 Z-0.494
N2825 X-0.983 Y-0.917 Z-0.433
N2830 X-0.975 Y-0.925 Z-0.367
N2835 X-0.972 Y-0.927 Z-0.3
N2840 G0 Z5.
N2845 X-2.195 Y-1.502
N2850 Z0.4
N2855 G1 Z-0.2 F100.
N2860 X-2.189 Y-1.499 Z-0.294
N2865 X-2.17 Y-1.487 Z-0.385
N2870 X-2.139 Y-1.469 Z-0.472
N2875 X-2.097 Y-1.444 Z-0.553
N2880 X-2.044 Y-1.413 Z-0.624
N2885 X-1.983 Y-1.376 Z-0.685
N2890 X-1.914 Y-1.335 Z-0.735
N2895 X-1.839 Y-1.291 Z-0.771
N2900 X-1.76 Y-1.244 Z-0.793
N2905 X-1.679 Y-1.197 Z-0.8
N2910 G3 X-0.17 Y-0.067 I-4.458 J7.529
N2915 G1 X-0.154 Y-0.051
N2920 X-0.132 Y-0.013
N2925 Y0.03
N2930 X-0.154 Y0.068
N2935 X-0.317 Y0.231
N2940 X-0.496 Y0.411
N2945 X-0.634 Y0.57
N2950 X-0.652 Y0.59
N2955 X-0.797 Y0.77
N2960 X-0.918 Y0.95
N2965 X-0.994 Y1.069
N2970 X-1.029 Y1.129
N2975 X-1.124 Y1.309
N2980 X-1.581 Y2.207
N2985 X-1.67 Y2.387
N2990 X-1.714 Y2.485
N2995 X-1.748 Y2.566
N3000 X-1.812 Y2.746
N3005 X-1.867 Y2.926
N3010 X-1.914 Y3.105
N3015 X-1.949 Y3.285
N3020 X-1.982 Y3.464
N3025 X-2.015 Y3.644
N3030 X-2.045 Y3.824
N3035 X-2.074 Y4.005
N3040 X-2.131 Y4.363
N3045 X-2.156 Y4.542
N3050 X-2.176 Y4.722
N3055 X-2.187 Y4.901
N3060 X-2.19 Y5.081
N3065 Y5.261
N3070 Y42.265
N3075 Y42.445
N3080 X-2.187 Y42.624
N3085 X-2.176 Y42.804
N3090 X-2.156 Y42.984
N3095 X-2.131 Y43.163
N3100 X-2.074 Y43.523
N3105 X-2.045 Y43.702
N3110 X-2.015 Y43.882
N3115 X-1.982 Y44.061
N3120 X-1.949 Y44.241
N3125 X-1.914 Y44.421
N3130 X-1.867 Y44.6
N3135 X-1.812 Y44.78
N3140 X-1.748 Y44.96
N3145 X-1.714 Y45.041
N3150 X-1.67 Y45.139
N3155 X-1.581 Y45.319
N3160 X-1.124 Y46.217
N3165 X-1.029 Y46.397
N3170 X-0.994 Y46.457
N3175 X-0.918 Y46.576
N3180 X-0.797 Y46.756
N3185 X-0.652 Y46.936
N3190 X-0.634 Y46.956
N3195 X-0.496 Y47.115
N3200 X-0.275 Y47.337
N3205 X0.265 Y47.877
N3210 X0.402 Y48.013
N3215 X0.445 Y48.055
N3220 X0.625 Y48.207
N3225 X0.805 Y48.346
N3230 X0.985 Y48.469
N3235 X1.124 Y48.552
N3240 X1.165 Y48.575
N3245 X1.345 Y48.668
N3250 X2.245 Y49.126
N3255 X2.425 Y49.213
N3260 X2.559 Y49.271
N3265 X2.785 Y49.352
N3270 X2.965 Y49.403
N3275 X3.145 Y49.448
N3280 X3.325 Y49.483
N3285 X3.685 Y49.548
N3290 X3.865 Y49.577
N3295 X4.045 Y49.606
N3300 X4.225 Y49.635
N3305 X4.404 Y49.663
N3310 X4.584 Y49.688
N3315 X4.764 Y49.704
N3320 X4.944 Y49.715
N3325 X5.124 Y49.716
N3330 X5.304
N3335 X46.696
N3340 X46.876
N3345 X47.056 Y49.715
N3350 X47.236 Y49.704
N3355 X47.416 Y49.688
N3360 X47.596 Y49.663
N3365 X47.775 Y49.635
N3370 X47.955 Y49.606
N3375 X48.135 Y49.577
N3380 X48.315 Y49.548
N3385 X48.675 Y49.483
N3390 X48.855 Y49.448
N3395 X49.035 Y49.403
N3400 X49.215 Y49.352
N3405 X49.441 Y49.271
N3410 X49.575 Y49.213
N3415 X49.755 Y49.126
N3420 X50.655 Y48.668
N3425 X50.835 Y48.575
N3430 X50.876 Y48.552
N3435 X51.015 Y48.469
N3440 X51.195 Y48.346
N3445 X51.375 Y48.207
N3450 X51.555 Y48.055
N3455 X51.598 Y48.013
N3460 X52.138 Y47.474
N3465 X52.317 Y47.295
N3470 X52.496 Y47.115
N3475 X52.634 Y46.956
N3480 X52.652 Y46.936
N3485 X52.797 Y46.756
N3490 X52.918 Y46.576
N3495 X52.994 Y46.457
N3500 X53.029 Y46.397
N3505 X53.124 Y46.217
N3510 X53.581 Y45.319
N3515 X53.67 Y45.139
N3520 X53.714 Y45.041
N3525 X53.748 Y44.96
N3530 X53.812 Y44.78
N3535 X53.867 Y44.6
N3540 X53.914 Y44.421
N3545 X53.949 Y44.241
N3550 X53.982 Y44.061
N3555 X54.015 Y43.882
N3560 X54.045 Y43.702
N3565 X54.074 Y43.521
N3570 X54.131 Y43.163
N3575 X54.156 Y42.984
N3580 X54.176 Y42.804
N3585 X54.187 Y42.624
N3590 X54.19 Y42.445
N3595 Y42.265
N3600 Y5.261
N3605 Y5.081
N3610 X54.187 Y4.901
N3615 X54.176 Y4.722
N3620 X54.156 Y4.542
N3625 X54.131 Y4.363
N3630 X54.074 Y4.003
N3635 X54.045 Y3.824
N3640 X54.015 Y3.644
N3645 X53.982 Y3.464
N3650 X53.949 Y3.285
N3655 X53.914 Y3.105
N3660 X53.867 Y2.926
N3665 X53.812 Y2.746
N3670 X53.748 Y2.566
N3675 X53.714 Y2.485
N3680 X53.67 Y2.387
N3685 X53.581 Y2.207
N3690 X53.124 Y1.309
N3695 X53.029 Y1.129
N3700 X52.994 Y1.069
N3705 X52.918 Y0.95
N3710 X52.797 Y0.77
N3715 X52.652 Y0.59
N3720 X52.634 Y0.57
N3725 X52.496 Y0.411
N3730 X52.275 Y0.189
N3735 X51.735 Y-0.351
N3740 X51.598 Y-0.488
N3745 X51.555 Y-0.529
N3750 X51.375 Y-0.681
N3755 X51.195 Y-0.821
N3760 X51.015 Y-0.943
N3765 X50.876 Y-1.026
N3770 X50.835 Y-1.049
N3775 X50.655 Y-1.142
N3780 X49.755 Y-1.601
N3785 X49.575 Y-1.688
N3790 X49.441 Y-1.745
N3795 X49.215 Y-1.826
N3800 X49.035 Y-1.878
N3805 X48.855 Y-1.922
N3810 X48.675 Y-1.957
N3815 X48.315 Y-2.022
N3820 X48.135 Y-2.052
N3825 X47.955 Y-2.081
N3830 X47.775 Y-2.109
N3835 X47.596 Y-2.137
N3840 X47.416 Y-2.162
N3845 X47.236 Y-2.179
N3850 X47.056 Y-2.189
N3855 X46.876 Y-2.19
N3860 X46.696
N3865 X5.304
N3870 X5.124
N3875 X4.944 Y-2.189
N3880 X4.764 Y-2.179
N3885 X4.584 Y-2.162
N3890 X4.404 Y-2.137
N3895 X4.225 Y-2.109
N3900 X4.045 Y-2.081
N3905 X3.865 Y-2.052
N3910 X3.685 Y-2.022
N3915 X3.325 Y-1.957
N3920 X3.145 Y-1.922
N3925 X2.965 Y-1.878
N3930 X2.785 Y-1.826
N3935 X2.559 Y-1.745
N3940 X2.425 Y-1.688
N3945 X2.245 Y-1.601
N3950 X1.345 Y-1.142
N3955 X1.165 Y-1.049
N3960 X1.124 Y-1.026
N3965 X0.985 Y-0.943
N3970 X0.805 Y-0.821
N3975 X0.625 Y-0.681
N3980 X0.445 Y-0.529
N3985 X0.402 Y-0.488
N3990 X-0.154 Y0.068
N3995 G3 X-1.154 Y-0.263 I-0.409 J-0.439
N4000 G1 X-1.158 Y-0.317 Z-0.798
N4005 X-1.163 Y-0.371 Z-0.79
N4010 X-1.15 Y-0.446 Z-0.771
N4015 X-1.136 Y-0.517 Z-0.742
N4020 X-1.124 Y-0.584 Z-0.704
N4025 X-1.089 Y-0.642 Z-0.653
N4030 X-1.059 Y-0.692 Z-0.593
N4035 X-1.032 Y-0.735 Z-0.526
N4040 X-1.011 Y-0.77 Z-0.452
N4045 X-0.995 Y-0.787 Z-0.394
N4050 X-0.983 Y-0.799 Z-0.333
N4055 X-0.975 Y-0.807 Z-0.267
N4060 X-0.973 Y-0.81 Z-0.2
N4065 G0 Z5.
N4070 X-2.113 Y-1.459
N4075 Z0.5
N4080 G1 Z-0.1 F100.
N4085 X-2.107 Y-1.456 Z-0.194
N4090 X-2.088 Y-1.445 Z-0.285
N4095 X-2.057 Y-1.426 Z-0.372
N4100 X-2.015 Y-1.401 Z-0.453
N4105 X-1.962 Y-1.37 Z-0.524
N4110 X-1.9 Y-1.333 Z-0.585
N4115 X-1.831 Y-1.293 Z-0.635
N4120 X-1.756 Y-1.248 Z-0.671
N4125 X-1.678 Y-1.202 Z-0.693
N4130 X-1.597 Y-1.154 Z-0.7
N4135 G3 X-0.088 Y-0.024 I-4.458 J7.529
N4140 G1 X-0.074 Y-0.01
N4145 X-0.058 Y0.037
N4150 X-0.063 Y0.087
N4155 X-0.09 Y0.129
N4160 X-0.275 Y0.314
N4165 X-0.371 Y0.411
N4170 X-0.455 Y0.496
N4175 X-0.538 Y0.59
N4180 X-0.634 Y0.705
N4185 X-0.688 Y0.77
N4190 X-0.815 Y0.95
N4195 X-0.923 Y1.129
N4200 X-1.024 Y1.309
N4205 X-1.116 Y1.488
N4210 X-1.482 Y2.207
N4215 X-1.534 Y2.313
N4220 X-1.653 Y2.566
N4225 X-1.714 Y2.733
N4230 X-1.719 Y2.746
N4235 X-1.775 Y2.926
N4240 X-1.823 Y3.105
N4245 X-1.857 Y3.285
N4250 X-1.888 Y3.464
N4255 X-2.03 Y4.363
N4260 X-2.055 Y4.542
N4265 X-2.074 Y4.698
N4270 X-2.086 Y4.901
N4275 X-2.089 Y5.081
N4280 X-2.09 Y5.261
N4285 Y42.265
N4290 X-2.089 Y42.445
N4295 X-2.086 Y42.624
N4300 X-2.074 Y42.828
N4305 X-2.055 Y42.984
N4310 X-2.03 Y43.163
N4315 X-1.888 Y44.061
N4320 X-1.857 Y44.241
N4325 X-1.823 Y44.421
N4330 X-1.775 Y44.6
N4335 X-1.719 Y44.78
N4340 X-1.714 Y44.792
N4345 X-1.653 Y44.96
N4350 X-1.534 Y45.213
N4355 X-1.482 Y45.319
N4360 X-1.116 Y46.037
N4365 X-1.024 Y46.217
N4370 X-0.923 Y46.397
N4375 X-0.814 Y46.577
N4380 X-0.688 Y46.756
N4385 X-0.634 Y46.821
N4390 X-0.538 Y46.936
N4395 X-0.455 Y47.03
N4400 X-0.371 Y47.115
N4405 X-0.192 Y47.295
N4410 X0.265 Y47.752
N4415 X0.445 Y47.932
N4420 X0.532 Y48.013
N4425 X0.742 Y48.193
N4430 X0.805 Y48.24
N4435 X0.985 Y48.365
N4440 X0.997 Y48.373
N4445 X1.165 Y48.469
N4450 X1.313 Y48.552
N4455 X2.245 Y49.027
N4460 X2.425 Y49.113
N4465 X2.605 Y49.193
N4470 X2.818 Y49.271
N4475 X2.965 Y49.311
N4480 X3.145 Y49.356
N4485 X3.325 Y49.39
N4490 X3.505 Y49.42
N4495 X4.225 Y49.534
N4500 X4.404 Y49.562
N4505 X4.584 Y49.587
N4510 X4.764 Y49.604
N4515 X4.944 Y49.615
N4520 X5.124
N4525 X5.304
N4530 X46.696
N4535 X46.876
N4540 X47.056
N4545 X47.236 Y49.604
N4550 X47.416 Y49.587
N4555 X47.596 Y49.562
N4560 X47.775 Y49.534
N4565 X48.495 Y49.42
N4570 X48.675 Y49.39
N4575 X48.855 Y49.356
N4580 X49.035 Y49.311
N4585 X49.182 Y49.271
N4590 X49.395 Y49.193
N4595 X49.575 Y49.113
N4600 X49.755 Y49.027
N4605 X50.687 Y48.552
N4610 X50.835 Y48.469
N4615 X51.003 Y48.373
N4620 X51.015 Y48.365
N4625 X51.195 Y48.24
N4630 X51.258 Y48.193
N4635 X51.468 Y48.013
N4640 X51.555 Y47.932
N4645 X52.012 Y47.474
N4650 X52.192 Y47.295
N4655 X52.371 Y47.115
N4660 X52.455 Y47.03
N4665 X52.538 Y46.936
N4670 X52.634 Y46.821
N4675 X52.688 Y46.756
N4680 X52.815 Y46.576
N4685 X52.923 Y46.397
N4690 X53.024 Y46.217
N4695 X53.116 Y46.037
N4700 X53.482 Y45.319
N4705 X53.534 Y45.213
N4710 X53.653 Y44.96
N4715 X53.714 Y44.792
N4720 X53.719 Y44.78
N4725 X53.775 Y44.6
N4730 X53.823 Y44.421
N4735 X53.857 Y44.241
N4740 X53.888 Y44.061
N4745 X54.03 Y43.163
N4750 X54.055 Y42.984
N4755 X54.074 Y42.828
N4760 X54.086 Y42.624
N4765 X54.089 Y42.445
N4770 X54.09 Y42.265
N4775 Y5.261
N4780 X54.089 Y5.081
N4785 X54.086 Y4.901
N4790 X54.074 Y4.698
N4795 X54.055 Y4.542
N4800 X54.03 Y4.363
N4805 X53.888 Y3.464
N4810 X53.857 Y3.285
N4815 X53.823 Y3.105
N4820 X53.775 Y2.926
N4825 X53.719 Y2.746
N4830 X53.714 Y2.733
N4835 X53.653 Y2.566
N4840 X53.534 Y2.313
N4845 X53.482 Y2.207
N4850 X53.116 Y1.488
N4855 X53.024 Y1.309
N4860 X52.923 Y1.129
N4865 X52.814 Y0.949
N4870 X52.688 Y0.77
N4875 X52.634 Y0.705
N4880 X52.538 Y0.59
N4885 X52.455 Y0.496
N4890 X52.371 Y0.411
N4895 X52.192 Y0.231
N4900 X51.735 Y-0.226
N4905 X51.555 Y-0.406
N4910 X51.468 Y-0.488
N4915 X51.258 Y-0.667
N4920 X51.195 Y-0.714
N4925 X51.015 Y-0.839
N4930 X51.003 Y-0.847
N4935 X50.835 Y-0.943
N4940 X50.687 Y-1.026
N4945 X49.755 Y-1.501
N4950 X49.575 Y-1.587
N4955 X49.395 Y-1.667
N4960 X49.182 Y-1.745
N4965 X49.035 Y-1.785
N4970 X48.855 Y-1.83
N4975 X48.675 Y-1.864
N4980 X48.495 Y-1.894
N4985 X47.775 Y-2.008
N4990 X47.596 Y-2.036
N4995 X47.416 Y-2.062
N5000 X47.236 Y-2.078
N5005 X47.056 Y-2.089
N5010 X46.876
N5015 X46.696 Y-2.09
N5020 X5.304
N5025 X5.124 Y-2.089
N5030 X4.944
N5035 X4.764 Y-2.078
N5040 X4.584 Y-2.062
N5045 X4.404 Y-2.036
N5050 X4.225 Y-2.008
N5055 X3.505 Y-1.894
N5060 X3.325 Y-1.864
N5065 X3.145 Y-1.83
N5070 X2.965 Y-1.785
N5075 X2.818 Y-1.745
N5080 X2.605 Y-1.667
N5085 X2.425 Y-1.587
N5090 X2.245 Y-1.501
N5095 X1.313 Y-1.026
N5100 X1.165 Y-0.943
N5105 X0.997 Y-0.847
N5110 X0.985 Y-0.839
N5115 X0.805 Y-0.714
N5120 X0.742 Y-0.667
N5125 X0.532 Y-0.488
N5130 X0.445 Y-0.406
N5135 X-0.012 Y0.051
N5140 X-0.09 Y0.129
N5145 G3 X-1.09 Y-0.202 I-0.409 J-0.439
N5150 G1 X-1.095 Y-0.256 Z-0.698
N5155 X-1.099 Y-0.31 Z-0.69
N5160 X-1.086 Y-0.384 Z-0.671
N5165 X-1.072 Y-0.456 Z-0.642
N5170 X-1.06 Y-0.523 Z-0.604
N5175 X-1.025 Y-0.58 Z-0.553
N5180 X-0.995 Y-0.631 Z-0.494
N5185 X-0.969 Y-0.674 Z-0.426
N5190 X-0.948 Y-0.708 Z-0.353
N5195 X-0.931 Y-0.726 Z-0.294
N5200 X-0.919 Y-0.738 Z-0.233
N5205 X-0.911 Y-0.746 Z-0.167
N5210 X-0.909 Y-0.748 Z-0.1
N5215 G0 Z5.
N5220 X-2.072 Y-1.387
N5225 Z0.6
N5230 G1 Z0. F100.
N5235 X-2.066 Y-1.383 Z-0.094
N5240 X-2.047 Y-1.372 Z-0.185
N5245 X-2.016 Y-1.353 Z-0.272
N5250 X-1.974 Y-1.328 Z-0.353
N5255 X-1.921 Y-1.297 Z-0.424
N5260 X-1.86 Y-1.26 Z-0.485
N5265 X-1.791 Y-1.22 Z-0.535
N5270 X-1.716 Y-1.175 Z-0.571
N5275 X-1.637 Y-1.129 Z-0.593
N5280 X-1.556 Y-1.081 Z-0.6
N5285 G3 X-0.047 Y0.049 I-4.458 J7.529
N5290 G1 X-0.009 Y0.087
N5295 X0.011 Y0.166
N5300 X-0.003 Y0.246
N5305 X-0.047 Y0.314
N5310 X-0.144 Y0.411
N5315 X-0.275 Y0.542
N5320 X-0.322 Y0.59
N5325 X-0.455 Y0.737
N5330 X-0.482 Y0.77
N5335 X-0.634 Y0.975
N5340 X-0.74 Y1.129
N5345 X-0.843 Y1.309
N5350 X-0.935 Y1.488
N5355 X-1.118 Y1.848
N5360 X-1.354 Y2.311
N5365 X-1.391 Y2.387
N5370 X-1.478 Y2.566
N5375 X-1.546 Y2.746
N5380 X-1.608 Y2.926
N5385 X-1.659 Y3.105
N5390 X-1.714 Y3.398
N5395 X-1.725 Y3.464
N5400 X-1.867 Y4.363
N5405 X-1.894 Y4.551
N5410 X-1.914 Y4.722
N5415 X-1.925 Y4.901
N5420 X-1.928 Y5.081
N5425 X-1.929 Y5.261
N5430 Y42.265
N5435 X-1.928 Y42.445
N5440 X-1.925 Y42.624
N5445 X-1.914 Y42.804
N5450 X-1.894 Y42.975
N5455 X-1.867 Y43.163
N5460 X-1.725 Y44.061
N5465 X-1.714 Y44.128
N5470 X-1.659 Y44.421
N5475 X-1.608 Y44.6
N5480 X-1.546 Y44.78
N5485 X-1.478 Y44.96
N5490 X-1.391 Y45.139
N5495 X-1.354 Y45.215
N5500 X-0.994 Y45.921
N5505 X-0.935 Y46.037
N5510 X-0.843 Y46.217
N5515 X-0.74 Y46.397
N5520 X-0.634 Y46.551
N5525 X-0.482 Y46.756
N5530 X-0.455 Y46.789
N5535 X-0.322 Y46.936
N5540 X-0.275 Y46.983
N5545 X-0.144 Y47.115
N5550 X0.445 Y47.704
N5555 X0.576 Y47.834
N5560 X0.625 Y47.881
N5565 X0.779 Y48.013
N5570 X1.018 Y48.193
N5575 X1.165 Y48.286
N5580 X1.316 Y48.373
N5585 X1.667 Y48.552
N5590 X2.245 Y48.846
N5595 X2.376 Y48.912
N5600 X2.425 Y48.935
N5605 X2.605 Y49.018
N5610 X2.794 Y49.091
N5615 X2.965 Y49.146
N5620 X3.145 Y49.192
N5625 X3.325 Y49.226
N5630 X3.505 Y49.257
N5635 X4.225 Y49.371
N5640 X4.404 Y49.399
N5645 X4.584 Y49.425
N5650 X4.764 Y49.442
N5655 X4.885 Y49.45
N5660 X4.944 Y49.454
N5665 X5.124
N5670 X5.304 Y49.455
N5675 X46.696
N5680 X46.876 Y49.454
N5685 X47.056
N5690 X47.115 Y49.45
N5695 X47.236 Y49.442
N5700 X47.416 Y49.425
N5705 X47.596 Y49.399
N5710 X47.775 Y49.371
N5715 X48.495 Y49.257
N5720 X48.675 Y49.226
N5725 X48.855 Y49.192
N5730 X49.035 Y49.146
N5735 X49.206 Y49.091
N5740 X49.395 Y49.018
N5745 X49.575 Y48.935
N5750 X49.624 Y48.912
N5755 X49.755 Y48.846
N5760 X50.333 Y48.552
N5765 X50.684 Y48.373
N5770 X50.835 Y48.286
N5775 X50.982 Y48.193
N5780 X51.221 Y48.013
N5785 X51.375 Y47.881
N5790 X51.424 Y47.834
N5795 X51.555 Y47.704
N5800 X52.144 Y47.115
N5805 X52.275 Y46.983
N5810 X52.322 Y46.936
N5815 X52.455 Y46.789
N5820 X52.482 Y46.756
N5825 X52.634 Y46.551
N5830 X52.74 Y46.397
N5835 X52.843 Y46.217
N5840 X52.935 Y46.037
N5845 X53.118 Y45.678
N5850 X53.354 Y45.215
N5855 X53.391 Y45.139
N5860 X53.478 Y44.96
N5865 X53.546 Y44.78
N5870 X53.608 Y44.6
N5875 X53.659 Y44.421
N5880 X53.714 Y44.128
N5885 X53.725 Y44.061
N5890 X53.867 Y43.163
N5895 X53.894 Y42.975
N5900 X53.914 Y42.804
N5905 X53.925 Y42.624
N5910 X53.928 Y42.445
N5915 X53.929 Y42.265
N5920 Y5.261
N5925 X53.928 Y5.081
N5930 X53.925 Y4.901
N5935 X53.914 Y4.722
N5940 X53.894 Y4.551
N5945 X53.867 Y4.363
N5950 X53.725 Y3.464
N5955 X53.714 Y3.398
N5960 X53.659 Y3.105
N5965 X53.608 Y2.926
N5970 X53.546 Y2.746
N5975 X53.478 Y2.566
N5980 X53.391 Y2.387
N5985 X53.354 Y2.311
N5990 X52.994 Y1.605
N5995 X52.935 Y1.488
N6000 X52.843 Y1.309
N6005 X52.74 Y1.129
N6010 X52.634 Y0.975
N6015 X52.482 Y0.77
N6020 X52.455 Y0.737
N6025 X52.322 Y0.59
N6030 X52.275 Y0.542
N6035 X52.144 Y0.411
N6040 X51.555 Y-0.179
N6045 X51.424 Y-0.308
N6050 X51.375 Y-0.355
N6055 X51.221 Y-0.488
N6060 X50.982 Y-0.667
N6065 X50.835 Y-0.76
N6070 X50.684 Y-0.847
N6075 X50.333 Y-1.026
N6080 X49.755 Y-1.321
N6085 X49.624 Y-1.386
N6090 X49.575 Y-1.41
N6095 X49.395 Y-1.492
N6100 X49.206 Y-1.565
N6105 X49.035 Y-1.62
N6110 X48.855 Y-1.666
N6115 X48.675 Y-1.701
N6120 X48.495 Y-1.731
N6125 X47.775 Y-1.845
N6130 X47.596 Y-1.873
N6135 X47.416 Y-1.899
N6140 X47.236 Y-1.917
N6145 X47.115 Y-1.925
N6150 X47.056 Y-1.928
N6155 X46.876
N6160 X46.696 Y-1.929
N6165 X5.304
N6170 X5.124 Y-1.928
N6175 X4.944
N6180 X4.885 Y-1.925
N6185 X4.764 Y-1.917
N6190 X4.584 Y-1.899
N6195 X4.404 Y-1.873
N6200 X4.225 Y-1.845
N6205 X3.505 Y-1.731
N6210 X3.325 Y-1.701
N6215 X3.145 Y-1.666
N6220 X2.965 Y-1.62
N6225 X2.794 Y-1.565
N6230 X2.605 Y-1.492
N6235 X2.425 Y-1.41
N6240 X2.376 Y-1.386
N6245 X2.245 Y-1.321
N6250 X1.667 Y-1.026
N6255 X1.316 Y-0.847
N6260 X1.165 Y-0.76
N6265 X1.018 Y-0.667
N6270 X0.779 Y-0.488
N6275 X0.625 Y-0.355
N6280 X0.576 Y-0.308
N6285 X0.445 Y-0.179
N6290 X-0.047 Y0.314
N6295 G3 X-1.047 Y-0.018 I-0.409 J-0.439
N6300 G1 X-1.052 Y-0.071 Z-0.598
N6305 X-1.057 Y-0.125 Z-0.59
N6310 X-1.043 Y-0.199 Z-0.571
N6315 X-1.03 Y-0.271 Z-0.542
N6320 X-1.017 Y-0.338 Z-0.504
N6325 X-0.983 Y-0.395 Z-0.453
N6330 X-0.952 Y-0.446 Z-0.394
N6335 X-0.926 Y-0.489 Z-0.326
N6340 X-0.905 Y-0.524 Z-0.253
N6345 X-0.888 Y-0.541 Z-0.194
N6350 X-0.877 Y-0.553 Z-0.133
N6355 X-0.868 Y-0.561 Z-0.067
N6360 X-0.866 Y-0.564 Z0.
N6365 G0 Z5.
N6370 X25.767 Y25.372
N6375 Z3.1
N6380 G1 Z2.5 F100.
N6385 G3 X30.553 Y22.276 Z1.401 I2.393 J-1.548
N6390 X25.767 Y25.372 Z0.301 I-2.393 J1.548
N6395 X30.553 Y22.276 Z-0.798 I2.393 J-1.548
N6400 X31.01 Y23.824 Z-0.999 I-2.393 J1.548
N6405 X25.31 I-2.85 J0.
N6410 X30.991 Y23.496 I2.85 J0.
N6415 X31.01 Y23.824 I-2.831 J0.327
N6420 G1 Y24.038
N6425 X31.044 Y24.25
N6430 X31.175 Y24.659
N6435 X31.186 Y24.679
N6440 X31.227 Y24.759
N6445 X31.265 Y24.852
N6450 X31.299 Y24.958
N6455 X31.327 Y25.077
N6460 X31.347 Y25.209
N6465 X31.357 Y25.353
N6470 X31.356 Y25.508
N6475 X31.341 Y25.673
N6480 X31.311 Y25.848
N6485 X31.264 Y26.03
N6490 X31.199 Y26.219
N6495 X31.115 Y26.411
N6500 X31.011 Y26.606
N6505 X30.886 Y26.8
N6510 X30.74 Y26.991
N6515 X30.572 Y27.178
N6520 X30.383 Y27.356
N6525 X30.173 Y27.525
N6530 X29.943 Y27.681
N6535 X29.694 Y27.822
N6540 X29.428 Y27.946
N6545 X29.146 Y28.051
N6550 X28.851 Y28.135
N6555 X28.543 Y28.195
N6560 X28.226 Y28.232
N6565 X27.902 Y28.243
N6570 X27.574 Y28.228
N6575 X27.244 Y28.186
N6580 X26.914 Y28.117
N6585 X26.588 Y28.02
N6590 X26.267 Y27.897
N6595 X25.955 Y27.747
N6600 X25.654 Y27.572
N6605 X25.367 Y27.371
N6610 X25.094 Y27.147
N6615 X24.84 Y26.901
N6620 X24.605 Y26.633
N6625 X24.391 Y26.347
N6630 X24.201 Y26.044
N6635 X24.035 Y25.725
N6640 X23.895 Y25.393
N6645 X23.781 Y25.05
N6650 X23.695 Y24.699
N6655 X23.638 Y24.341
N6660 X23.61 Y23.98
N6665 Y23.616
N6670 X23.64 Y23.254
N6675 X23.699 Y22.894
N6680 X23.787 Y22.541
N6685 X23.902 Y22.195
N6690 X24.046 Y21.859
N6695 X24.215 Y21.536
N6700 X24.411 Y21.227
N6705 X24.63 Y20.935
N6710 X24.873 Y20.661
N6715 X25.136 Y20.408
N6720 X25.42 Y20.176
N6725 X25.721 Y19.968
N6730 X26.038 Y19.785
N6735 X26.368 Y19.628
N6740 X26.71 Y19.497
N6745 X27.062 Y19.395
N6750 X27.421 Y19.321
N6755 X27.784 Y19.276
N6760 X28.15 Y19.261
N6765 X28.516 Y19.274
N6770 X28.88 Y19.318
N6775 X29.239 Y19.39
N6780 X29.591 Y19.491
N6785 X29.935 Y19.62
N6790 X30.266 Y19.775
N6795 X30.584 Y19.958
N6800 X30.887 Y20.165
N6805 X31.171 Y20.395
N6810 X31.437 Y20.648
N6815 X31.681 Y20.921
N6820 X31.903 Y21.213
N6825 X32.134 Y21.575
N6830 X32.344 Y21.95
N6835 X32.54 Y22.332
N6840 X32.72 Y22.722
N6845 X32.877 Y23.122
N6850 X33.008 Y23.531
N6855 X33.11 Y23.948
N6860 X33.179 Y24.369
N6865 X33.212 Y24.779
N6870 X33.213 Y25.18
N6875 X33.182 Y25.574
N6880 X33.119 Y25.961
N6885 X33.026 Y26.342
N6890 X32.902 Y26.716
N6895 X32.748 Y27.08
N6900 X32.564 Y27.433
N6905 X32.35 Y27.773
N6910 X32.107 Y28.099
N6915 X31.835 Y28.407
N6920 X31.536 Y28.696
N6925 X31.211 Y28.964
N6930 X30.861 Y29.208
N6935 X30.489 Y29.424
N6940 X30.102 Y29.61
N6945 X29.702 Y29.765
N6950 X29.29 Y29.889
N6955 X28.871 Y29.981
N6960 X28.446 Y30.041
N6965 X28.017 Y30.07
N6970 X27.588 Y30.067
N6975 X27.159 Y30.032
N6980 X26.735 Y29.966
N6985 X26.316 Y29.87
N6990 X25.906 Y29.744
N6995 X25.505 Y29.589
N7000 X25.116 Y29.407
N7005 X24.741 Y29.198
N7010 X24.381 Y28.963
N7015 X24.039 Y28.703
N7020 X23.716 Y28.421
N7025 X23.413 Y28.116
N7030 X23.131 Y27.792
N7035 X22.872 Y27.45
N7040 X22.636 Y27.09
N7045 X22.427 Y26.716
N7050 X22.243 Y26.327
N7055 X22.086 Y25.927
N7060 X21.956 Y25.518
N7065 X21.854 Y25.101
N7070 X21.78 Y24.678
N7075 X21.735 Y24.251
N7080 X21.719 Y23.821
N7085 X21.732 Y23.392
N7090 X21.773 Y22.965
N7095 X21.843 Y22.541
N7100 X21.941 Y22.122
N7105 X22.067 Y21.712
N7110 X22.22 Y21.311
N7115 X22.4 Y20.921
N7120 X22.606 Y20.543
N7125 X22.835 Y20.18
N7130 X23.089 Y19.834
N7135 X23.365 Y19.505
N7140 X23.663 Y19.195
N7145 X23.981 Y18.906
N7150 X24.317 Y18.639
N7155 X24.67 Y18.394
N7160 X25.038 Y18.173
N7165 X25.421 Y17.978
N7170 X25.816 Y17.809
N7175 X26.221 Y17.666
N7180 X26.635 Y17.551
N7185 X27.055 Y17.463
N7190 X27.48 Y17.403
N7195 X27.909 Y17.372
N7200 X28.338 Y17.37
N7205 X28.767 Y17.396
N7210 X29.193 Y17.45
N7215 X29.615 Y17.533
N7220 X30.03 Y17.643
N7225 X30.436 Y17.781
N7230 X30.833 Y17.946
N7235 X31.218 Y18.137
N7240 X31.589 Y18.353
N7245 X31.946 Y18.593
N7250 X32.285 Y18.856
N7255 X32.607 Y19.14
N7260 X32.912 Y19.442
N7265 X33.201 Y19.761
N7270 X33.472 Y20.093
N7275 X33.727 Y20.439
N7280 X33.964 Y20.797
N7285 X34.182 Y21.168
N7290 X34.381 Y21.548
N7295 X34.56 Y21.939
N7300 X34.718 Y22.338
N7305 X34.853 Y22.746
N7310 X34.965 Y23.16
N7315 X35.055 Y23.581
N7320 X35.119 Y24.005
N7325 X35.158 Y24.433
N7330 X35.172 Y24.862
N7335 X35.16 Y25.292
N7340 X35.123 Y25.719
N7345 X35.059 Y26.144
N7350 X34.969 Y26.564
N7355 X34.854 Y26.978
N7360 X34.715 Y27.384
N7365 X34.55 Y27.781
N7370 X34.361 Y28.167
N7375 X34.149 Y28.54
N7380 X33.915 Y28.901
N7385 X33.659 Y29.246
N7390 X33.383 Y29.575
N7395 X33.088 Y29.887
N7400 X32.775 Y30.181
N7405 X32.444 Y30.455
N7410 X32.098 Y30.709
N7415 X31.738 Y30.943
N7420 X31.365 Y31.156
N7425 X30.979 Y31.346
N7430 X30.584 Y31.513
N7435 X30.179 Y31.658
N7440 X29.768 Y31.78
N7445 X29.349 Y31.877
N7450 X28.926 Y31.951
N7455 X28.5 Y32.002
N7460 X28.071 Y32.029
N7465 X27.641 Y32.031
N7470 X27.212 Y32.01
N7475 X26.785 Y31.966
N7480 X26.361 Y31.898
N7485 X25.941 Y31.807
N7490 X25.527 Y31.694
N7495 X25.119 Y31.559
N7500 X24.719 Y31.402
N7505 X24.329 Y31.224
N7510 X23.948 Y31.025
N7515 X23.578 Y30.806
N7520 X23.221 Y30.568
N7525 X22.876 Y30.311
N7530 X22.546 Y30.037
N7535 X22.23 Y29.746
N7540 X21.93 Y29.439
N7545 X21.646 Y29.116
N7550 X21.38 Y28.779
N7555 X21.132 Y28.428
N7560 X20.902 Y28.065
N7565 X20.691 Y27.691
N7570 X20.5 Y27.306
N7575 X20.329 Y26.912
N7580 X20.179 Y26.51
N7585 X20.049 Y26.101
N7590 X19.941 Y25.685
N7595 X19.855 Y25.264
N7600 X19.79 Y24.839
N7605 X19.747 Y24.412
N7610 X19.726 Y23.983
N7615 X19.727 Y23.554
N7620 X19.75 Y23.125
N7625 X19.795 Y22.697
N7630 X19.862 Y22.273
N7635 X19.95 Y21.853
N7640 X20.06 Y21.438
N7645 X20.191 Y21.028
N7650 X20.342 Y20.626
N7655 X20.514 Y20.233
N7660 X20.706 Y19.849
N7665 X20.917 Y19.474
N7670 X21.146 Y19.111
N7675 X21.394 Y18.761
N7680 X21.66 Y18.423
N7685 X21.942 Y18.1
N7690 X22.241 Y17.79
N7695 X22.555 Y17.497
N7700 X22.883 Y17.221
N7705 X23.225 Y16.961
N7710 X23.58 Y16.718
N7715 X23.946 Y16.495
N7720 X24.324 Y16.29
N7725 X24.712 Y16.105
N7730 X25.108 Y15.939
N7735 X25.512 Y15.794
N7740 X25.923 Y15.67
N7745 X26.34 Y15.567
N7750 X26.762 Y15.485
N7755 X27.187 Y15.424
N7760 X27.615 Y15.386
N7765 X28.044 Y15.369
N7770 X28.474 Y15.374
N7775 X28.902 Y15.4
N7780 X29.329 Y15.449
N7785 X29.753 Y15.519
N7790 X30.173 Y15.611
N7795 X30.587 Y15.723
N7800 X30.995 Y15.857
N7805 X31.396 Y16.011
N7810 X31.789 Y16.186
N7815 X32.172 Y16.379
N7820 X32.545 Y16.592
N7825 X32.908 Y16.822
N7830 X33.259 Y17.069
N7835 X33.598 Y17.333
N7840 X33.926 Y17.611
N7845 X34.24 Y17.904
N7850 X34.541 Y18.21
N7855 X34.829 Y18.529
N7860 X35.102 Y18.861
N7865 X35.361 Y19.203
N7870 X35.605 Y19.557
N7875 X35.833 Y19.92
N7880 X36.046 Y20.294
N7885 X36.242 Y20.676
N7890 X36.421 Y21.066
N7895 X36.583 Y21.464
N7900 X36.727 Y21.869
N7905 X36.853 Y22.279
N7910 X36.961 Y22.695
N7915 X37.049 Y23.115
N7920 X37.119 Y23.539
N7925 X37.169 Y23.966
N7930 X37.199 Y24.394
N7935 X37.21 Y24.824
N7940 X37.201 Y25.253
N7945 X37.171 Y25.682
N7950 X37.122 Y26.108
N7955 X37.053 Y26.532
N7960 X36.964 Y26.953
N7965 X36.855 Y27.368
N7970 X36.727 Y27.778
N7975 X36.579 Y28.181
N7980 X36.414 Y28.578
N7985 X36.229 Y28.966
N7990 X36.026 Y29.344
N7995 X35.806 Y29.713
N8000 X35.569 Y30.071
N8005 X35.315 Y30.418
N8010 X35.046 Y30.752
N8015 X34.76 Y31.073
N8020 X34.461 Y31.381
N8025 X34.147 Y31.675
N8030 X33.821 Y31.953
N8035 X33.481 Y32.217
N8040 X33.13 Y32.464
N8045 X32.768 Y32.695
N8050 X32.396 Y32.91
N8055 X32.014 Y33.107
N8060 X31.624 Y33.286
N8065 X31.226 Y33.448
N8070 X30.821 Y33.592
N8075 X30.411 Y33.718
N8080 X29.995 Y33.825
N8085 X29.574 Y33.913
N8090 X29.15 Y33.982
N8095 X28.724 Y34.033
N8100 X28.296 Y34.065
N8105 X27.866 Y34.079
N8110 X27.437 Y34.073
N8115 X27.008 Y34.048
N8120 X26.581 Y34.005
N8125 X26.155 Y33.944
N8130 X25.733 Y33.864
N8135 X25.315 Y33.766
N8140 X24.902 Y33.649
N8145 X24.493 Y33.516
N8150 X24.091 Y33.365
N8155 X23.696 Y33.197
N8160 X23.308 Y33.012
N8165 X22.929 Y32.811
N8170 X22.558 Y32.595
N8175 X22.196 Y32.362
N8180 X21.845 Y32.115
N8185 X21.505 Y31.853
N8190 X21.176 Y31.577
N8195 X20.859 Y31.287
N8200 X20.554 Y30.985
N8205 X20.262 Y30.669
N8210 X19.984 Y30.342
N8215 X19.72 Y30.003
N8220 X19.47 Y29.654
N8225 X19.234 Y29.295
N8230 X19.014 Y28.926
N8235 X18.809 Y28.549
N8240 X18.621 Y28.163
N8245 X18.448 Y27.77
N8250 X18.291 Y27.37
N8255 X18.152 Y26.963
N8260 X18.029 Y26.552
N8265 X17.924 Y26.135
N8270 X17.836 Y25.715
N8275 X17.765 Y25.291
N8280 X17.711 Y24.865
N8285 X17.676 Y24.437
N8290 X17.658 Y24.008
N8295 X17.657 Y23.578
N8300 X17.674 Y23.149
N8305 X17.709 Y22.721
N8310 X17.762 Y22.295
N8315 X17.832 Y21.871
N8320 X17.919 Y21.45
N8325 X18.023 Y21.034
N8330 X18.145 Y20.622
N8335 X18.283 Y20.215
N8340 X18.438 Y19.814
N8345 X18.609 Y19.42
N8350 X18.796 Y19.034
N8355 X18.998 Y18.655
N8360 X19.217 Y18.285
N8365 X19.45 Y17.924
N8370 X19.697 Y17.573
N8375 X19.959 Y17.233
N8380 X20.234 Y16.903
N8385 X20.523 Y16.585
N8390 X20.825 Y16.279
N8395 X21.138 Y15.986
N8400 X21.464 Y15.705
N8405 X21.8 Y15.438
N8410 X22.148 Y15.186
N8415 X22.505 Y14.948
N8420 X22.872 Y14.724
N8425 X23.247 Y14.515
N8430 X23.631 Y14.322
N8435 X24.022 Y14.145
N8440 X24.421 Y13.985
N8445 X24.825 Y13.84
N8450 X25.235 Y13.712
N8455 X25.65 Y13.601
N8460 X26.069 Y13.507
N8465 X26.492 Y13.43
N8470 X26.917 Y13.371
N8475 X27.345 Y13.328
N8480 X27.773 Y13.303
N8485 X28.203 Y13.296
N8490 X28.632 Y13.307
N8495 X29.061 Y13.335
N8500 X29.488 Y13.38
N8505 X29.913 Y13.443
N8510 X30.335 Y13.523
N8515 X30.753 Y13.62
N8520 X31.167 Y13.735
N8525 X31.576 Y13.865
N8530 X31.98 Y14.012
N8535 X32.377 Y14.175
N8540 X32.768 Y14.354
N8545 X33.151 Y14.549
N8550 X33.526 Y14.758
N8555 X33.893 Y14.981
N8560 X34.252 Y15.218
N8565 X34.6 Y15.468
N8570 X34.94 Y15.732
N8575 X35.269 Y16.008
N8580 X35.587 Y16.295
N8585 X35.896 Y16.595
N8590 X36.193 Y16.905
N8595 X36.478 Y17.226
N8600 X36.751 Y17.558
N8605 X37.012 Y17.899
N8610 X37.261 Y18.249
N8615 X37.497 Y18.607
N8620 X37.72 Y18.975
N8625 X37.929 Y19.35
N8630 X38.125 Y19.732
N8635 X38.306 Y20.122
N8640 X38.473 Y20.517
N8645 X38.626 Y20.919
N8650 X38.764 Y21.326
N8655 X38.886 Y21.737
N8660 X38.993 Y22.153
N8665 X39.085 Y22.573
N8670 X39.162 Y22.996
N8675 X39.222 Y23.421
N8680 X39.266 Y23.848
N8685 X39.294 Y24.277
N8690 X39.307 Y24.706
N8695 X39.303 Y25.135
N8700 X39.283 Y25.565
N8705 X39.246 Y25.993
N8710 X39.193 Y26.419
N8715 X39.125 Y26.843
N8720 X39.04 Y27.264
N8725 X38.939 Y27.681
N8730 X38.823 Y28.095
N8735 X38.69 Y28.503
N8740 X38.542 Y28.907
N8745 X38.379 Y29.304
N8750 X38.201 Y29.695
N8755 X38.008 Y30.079
N8760 X37.801 Y30.455
N8765 X37.579 Y30.823
N8770 X37.343 Y31.182
N8775 X37.095 Y31.532
N8780 X36.833 Y31.872
N8785 X36.558 Y32.202
N8790 X36.271 Y32.522
N8795 X35.972 Y32.83
N8800 X35.661 Y33.127
N8805 X35.34 Y33.412
N8810 X35.008 Y33.685
N8815 X34.666 Y33.945
N8820 X34.315 Y34.192
N8825 X33.954 Y34.425
N8830 X33.586 Y34.646
N8835 X33.209 Y34.852
N8840 X32.825 Y35.044
N8845 X32.434 Y35.222
N8850 X32.036 Y35.385
N8855 X31.633 Y35.533
N8860 X31.225 Y35.667
N8865 X30.812 Y35.785
N8870 X30.395 Y35.888
N8875 X29.975 Y35.976
N8880 X29.551 Y36.048
N8885 X29.126 Y36.105
N8890 X28.698 Y36.147
N8895 X28.269 Y36.173
N8900 X27.84 Y36.183
N8905 X27.41 Y36.178
N8910 X26.981 Y36.158
N8915 X26.553 Y36.122
N8920 X26.127 Y36.071
N8925 X25.702 Y36.005
N8930 X25.281 Y35.923
N8935 X24.862 Y35.826
N8940 X24.447 Y35.715
N8945 X24.037 Y35.589
N8950 X23.631 Y35.449
N8955 X23.23 Y35.294
N8960 X22.835 Y35.125
N8965 X22.446 Y34.943
N8970 X22.064 Y34.746
N8975 X21.689 Y34.537
N8980 X21.322 Y34.315
N8985 X20.962 Y34.079
N8990 X20.612 Y33.832
N8995 X20.27 Y33.572
N9000 X19.937 Y33.3
N9005 X19.613 Y33.018
N9010 X19.3 Y32.723
N9015 X18.998 Y32.419
N9020 X18.706 Y32.103
N9025 X18.425 Y31.778
N9030 X18.156 Y31.444
N9035 X17.898 Y31.1
N9040 X17.652 Y30.748
N9045 X17.419 Y30.387
N9050 X17.199 Y30.019
N9055 X16.991 Y29.643
N9060 X16.796 Y29.26
N9065 X16.615 Y28.87
N9070 X16.447 Y28.475
N9075 X16.293 Y28.074
N9080 X16.153 Y27.668
N9085 X16.026 Y27.258
N9090 X15.914 Y26.843
N9095 X15.816 Y26.425
N9100 X15.733 Y26.003
N9105 X15.664 Y25.579
N9110 X15.61 Y25.153
N9115 X15.57 Y24.726
N9120 X15.545 Y24.297
N9125 X15.534 Y23.867
N9130 X15.539 Y23.438
N9135 X15.558 Y23.009
N9140 X15.592 Y22.581
N9145 X15.64 Y22.154
N9150 X15.703 Y21.729
N9155 X15.78 Y21.306
N9160 X15.872 Y20.887
N9165 X15.978 Y20.471
N9170 X16.098 Y20.058
N9175 X16.232 Y19.65
N9180 X16.38 Y19.247
N9185 X16.541 Y18.849
N9190 X16.716 Y18.457
N9195 X16.905 Y18.071
N9200 X17.106 Y17.691
N9205 X17.32 Y17.319
N9210 X17.547 Y16.954
N9215 X17.786 Y16.597
N9220 X18.037 Y16.249
N9225 X18.3 Y15.909
N9230 X18.574 Y15.578
N9235 X18.859 Y15.257
N9240 X19.155 Y14.946
N9245 X19.462 Y14.645
N9250 X19.778 Y14.354
N9255 X20.104 Y14.075
N9260 X20.44 Y13.807
N9265 X20.784 Y13.55
N9270 X21.137 Y13.305
N9275 X21.498 Y13.073
N9280 X21.867 Y12.852
N9285 X22.243 Y12.645
N9290 X22.626 Y12.45
N9295 X23.015 Y12.269
N9300 X23.41 Y12.1
N9305 X23.811 Y11.946
N9310 X24.217 Y11.805
N9315 X24.627 Y11.678
N9320 X25.042 Y11.565
N9325 X25.46 Y11.466
N9330 X25.881 Y11.381
N9335 X26.304 Y11.31
N9340 X26.73 Y11.255
N9345 X27.158 Y11.213
N9350 X27.586 Y11.187
N9355 X28.016 Y11.174
N9360 X28.445 Y11.176
N9365 X28.875 Y11.193
N9370 X29.303 Y11.225
N9375 X29.73 Y11.271
N9380 X30.155 Y11.331
N9385 X30.578 Y11.406
N9390 X30.998 Y11.495
N9395 X31.415 Y11.598
N9400 X31.829 Y11.715
N9405 X32.238 Y11.846
N9410 X32.642 Y11.99
N9415 X33.042 Y12.148
N9420 X33.436 Y12.318
N9425 X33.824 Y12.502
N9430 X34.207 Y12.698
N9435 X34.582 Y12.907
N9440 X34.951 Y13.127
N9445 X35.312 Y13.359
N9450 X35.666 Y13.603
N9455 X36.012 Y13.857
N9460 X36.349 Y14.123
N9465 X36.678 Y14.399
N9470 X36.998 Y14.685
N9475 X37.31 Y14.982
N9480 X37.611 Y15.287
N9485 X37.904 Y15.602
N9490 X38.186 Y15.926
N9495 X38.458 Y16.258
N9500 X38.719 Y16.599
N9505 X38.97 Y16.948
N9510 X39.21 Y17.304
N9515 X39.439 Y17.667
N9520 X39.657 Y18.038
N9525 X39.863 Y18.414
N9530 X40.057 Y18.798
N9535 X40.239 Y19.187
N9540 X40.409 Y19.581
N9545 X40.567 Y19.98
N9550 X40.713 Y20.385
N9555 X40.845 Y20.793
N9560 X40.965 Y21.206
N9565 X41.072 Y21.622
N9570 X41.165 Y22.041
N9575 X41.246 Y22.463
N9580 X41.313 Y22.887
N9585 X41.367 Y23.313
N9590 X41.408 Y23.741
N9595 X41.434 Y24.169
N9600 X41.448 Y24.599
N9605 X41.447 Y25.028
N9610 X41.433 Y25.458
N9615 X41.406 Y25.886
N9620 X41.365 Y26.314
N9625 X41.31 Y26.74
N9630 X41.241 Y27.164
N9635 X41.159 Y27.585
N9640 X41.064 Y28.004
N9645 X40.956 Y28.42
N9650 X40.834 Y28.832
N9655 X40.699 Y29.239
N9660 X40.551 Y29.643
N9665 X40.39 Y30.041
N9670 X40.216 Y30.434
N9675 X40.03 Y30.821
N9680 X39.832 Y31.202
N9685 X39.622 Y31.577
N9690 X39.4 Y31.944
N9695 X39.166 Y32.304
N9700 X38.921 Y32.657
N9705 X38.664 Y33.002
N9710 X38.397 Y33.338
N9715 X38.12 Y33.666
N9720 X37.831 Y33.985
N9725 X37.533 Y34.294
N9730 X37.226 Y34.593
N9735 X36.909 Y34.883
N9740 X36.583 Y35.163
N9745 X36.248 Y35.432
N9750 X35.905 Y35.691
N9755 X35.554 Y35.938
N9760 X35.195 Y36.174
N9765 X34.829 Y36.399
N9770 X34.457 Y36.613
N9775 X34.077 Y36.815
N9780 X33.692 Y37.004
N9785 X33.301 Y37.181
N9790 X32.904 Y37.346
N9795 X32.503 Y37.499
N9800 X32.097 Y37.639
N9805 X31.687 Y37.767
N9810 X31.273 Y37.882
N9815 X30.855 Y37.983
N9820 X30.435 Y38.072
N9825 X30.012 Y38.148
N9830 X29.587 Y38.211
N9835 X29.161 Y38.261
N9840 X28.733 Y38.297
N9845 X28.304 Y38.321
N9850 X27.874 Y38.331
N9855 X27.445 Y38.328
N9860 X27.016 Y38.312
N9865 X26.587 Y38.283
N9870 X26.16 Y38.241
N9875 X25.734 Y38.186
N9880 X25.31 Y38.118
N9885 X24.888 Y38.038
N9890 X24.469 Y37.944
N9895 X24.052 Y37.838
N9900 X23.639 Y37.719
N9905 X23.23 Y37.589
N9910 X22.825 Y37.446
N9915 X22.425 Y37.29
N9920 X22.029 Y37.123
N9925 X21.639 Y36.944
N9930 X21.254 Y36.753
N9935 X20.875 Y36.551
N9940 X20.502 Y36.338
N9945 X20.136 Y36.113
N9950 X19.776 Y35.878
N9955 X19.424 Y35.632
N9960 X19.08 Y35.376
N9965 X18.743 Y35.11
N9970 X18.413 Y34.834
N9975 X18.093 Y34.548
N9980 X17.781 Y34.253
N9985 X17.478 Y33.948
N9990 X17.184 Y33.635
N9995 X16.899 Y33.313
N10000 X16.624 Y32.983
N10005 X16.359 Y32.646
N10010 X16.104 Y32.3
N10015 X15.859 Y31.947
N10020 X15.625 Y31.587
N10025 X15.402 Y31.22
N10030 X15.189 Y30.847
N10035 X14.988 Y30.467
N10040 X14.797 Y30.082
N10045 X14.618 Y29.692
N10050 X14.451 Y29.296
N10055 X14.295 Y28.896
N10060 X14.152 Y28.491
N10065 X14.02 Y28.082
N10070 X13.9 Y27.67
N10075 X13.792 Y27.254
N10080 X13.696 Y26.836
N10085 X13.613 Y26.414
N10090 X13.542 Y25.991
N10095 X13.484 Y25.565
N10100 X13.438 Y25.138
N10105 X13.404 Y24.71
N10110 X13.383 Y24.281
N10115 X13.375 Y23.851
N10120 X13.379 Y23.422
N10125 X13.396 Y22.993
N10130 X13.425 Y22.564
N10135 X13.466 Y22.137
N10140 X13.52 Y21.71
N10145 X13.587 Y21.286
N10150 X13.666 Y20.864
N10155 X13.757 Y20.444
N10160 X13.86 Y20.027
N10165 X13.976 Y19.613
N10170 X14.103 Y19.203
N10175 X14.242 Y18.797
N10180 X14.393 Y18.395
N10185 X14.556 Y17.997
N10190 X14.73 Y17.605
N10195 X14.916 Y17.217
N10200 X15.112 Y16.835
N10205 X15.32 Y16.46
N10210 X15.539 Y16.09
N10215 X15.768 Y15.726
N10220 X16.008 Y15.37
N10225 X16.258 Y15.021
N10230 X16.518 Y14.679
N10235 X16.788 Y14.345
N10240 X17.067 Y14.019
N10245 X17.356 Y13.701
N10250 X17.654 Y13.391
N10255 X17.96 Y13.091
N10260 X18.276 Y12.799
N10265 X18.6 Y12.517
N10270 X18.931 Y12.244
N10275 X19.271 Y11.981
N10280 X19.618 Y11.728
N10285 X19.972 Y11.485
N10290 X20.333 Y11.252
N10295 X20.701 Y11.03
N10300 X21.075 Y10.819
N10305 X21.455 Y10.619
N10310 X21.841 Y10.43
N10315 X22.232 Y10.252
N10320 X22.628 Y10.086
N10325 X23.028 Y9.931
N10330 X23.433 Y9.788
N10335 X23.842 Y9.657
N10340 X24.255 Y9.537
N10345 X24.671 Y9.43
N10350 X25.09 Y9.334
N10355 X25.511 Y9.251
N10360 X25.935 Y9.181
N10365 X26.36 Y9.122
N10370 X26.787 Y9.076
N10375 X27.216 Y9.042
N10380 X27.645 Y9.021
N10385 X28.074 Y9.012
N10390 X28.503 Y9.016
N10395 X28.933 Y9.032
N10400 X29.361 Y9.06
N10405 X29.789 Y9.101
N10410 X30.215 Y9.154
N10415 X30.64 Y9.22
N10420 X31.062 Y9.297
N10425 X31.482 Y9.387
N10430 X31.899 Y9.489
N10435 X32.314 Y9.603
N10440 X32.724 Y9.728
N10445 X33.131 Y9.865
N10450 X33.535 Y10.013
N10455 X33.933 Y10.173
N10460 X34.327 Y10.344
N10465 X34.716 Y10.526
N10470 X35.1 Y10.719
N10475 X35.478 Y10.923
N10480 X35.851 Y11.137
N10485 X36.217 Y11.361
N10490 X36.578 Y11.595
N10495 X36.931 Y11.838
N10500 X37.278 Y12.092
N10505 X37.617 Y12.355
N10510 X37.95 Y12.627
N10515 X38.274 Y12.908
N10520 X38.592 Y13.198
N10525 X38.901 Y13.496
N10530 X39.202 Y13.802
N10535 X39.494 Y14.117
N10540 X39.778 Y14.439
N10545 X40.054 Y14.769
N10550 X40.32 Y15.106
N10555 X40.577 Y15.45
N10560 X40.825 Y15.801
N10565 X41.063 Y16.158
N10570 X41.292 Y16.522
N10575 X41.511 Y16.891
N10580 X41.719 Y17.267
N10585 X41.918 Y17.648
N10590 X42.106 Y18.034
N10595 X42.284 Y18.425
N10600 X42.452 Y18.82
N10605 X42.609 Y19.22
N10610 X42.754 Y19.624
N10615 X42.889 Y20.032
N10620 X43.013 Y20.443
N10625 X43.125 Y20.858
N10630 X43.227 Y21.275
N10635 X43.317 Y21.695
N10640 X43.396 Y22.117
N10645 X43.463 Y22.542
N10650 X43.518 Y22.967
N10655 X43.562 Y23.395
N10660 X43.595 Y23.823
N10665 X43.615 Y24.252
N10670 X43.624 Y24.681
N10675 X43.622 Y25.111
N10680 X43.607 Y25.54
N10685 X43.581 Y25.969
N10690 X43.543 Y26.397
N10695 X43.493 Y26.823
N10700 X43.432 Y27.249
N10705 X43.359 Y27.672
N10710 X43.274 Y28.093
N10715 X43.178 Y28.512
N10720 X43.07 Y28.927
N10725 X42.951 Y29.34
N10730 X42.821 Y29.749
N10735 X42.679 Y30.155
N10740 X42.527 Y30.557
N10745 X42.363 Y30.954
N10750 X42.189 Y31.346
N10755 X42.004 Y31.734
N10760 X41.808 Y32.116
N10765 X41.601 Y32.493
N10770 X41.385 Y32.864
N10775 X41.159 Y33.229
N10780 X40.922 Y33.587
N10785 X40.676 Y33.939
N10790 X40.42 Y34.284
N10795 X40.155 Y34.622
N10800 X39.88 Y34.952
N10805 X39.597 Y35.275
N10810 X39.305 Y35.59
N10815 X39.005 Y35.897
N10820 X38.696 Y36.196
N10825 X38.379 Y36.486
N10830 X38.054 Y36.767
N10835 X37.722 Y37.039
N10840 X37.382 Y37.302
N10845 X37.036 Y37.556
N10850 X36.683 Y37.801
N10855 X36.323 Y38.035
N10860 X35.957 Y38.26
N10865 X35.585 Y38.475
N10870 X35.207 Y38.679
N10875 X34.824 Y38.874
N10880 X34.436 Y39.058
N10885 X34.043 Y39.231
N10890 X33.646 Y39.394
N10895 X33.244 Y39.546
N10900 X32.838 Y39.688
N10905 X32.429 Y39.818
N10910 X32.016 Y39.937
N10915 X31.601 Y40.045
N10920 X31.182 Y40.142
N10925 X30.762 Y40.228
N10930 X30.339 Y40.303
N10935 X29.914 Y40.366
N10940 X29.487 Y40.418
N10945 X29.06 Y40.458
N10950 X28.631 Y40.487
N10955 X28.202 Y40.505
N10960 X27.773 Y40.512
N10965 X27.343 Y40.507
N10970 X26.914 Y40.491
N10975 X26.485 Y40.463
N10980 X26.057 Y40.424
N10985 X25.631 Y40.374
N10990 X25.206 Y40.313
N10995 X24.782 Y40.24
N11000 X24.361 Y40.157
N11005 X23.942 Y40.062
N11010 X23.526 Y39.957
N11015 X23.112 Y39.84
N11020 X22.702 Y39.713
N11025 X22.295 Y39.575
N11030 X21.892 Y39.427
N11035 X21.493 Y39.268
N11040 X21.098 Y39.099
N11045 X20.708 Y38.92
N11050 X20.322 Y38.73
N11055 X19.942 Y38.531
N11060 X19.567 Y38.321
N11065 X19.197 Y38.102
N11070 X18.834 Y37.874
N11075 X18.476 Y37.636
N11080 X18.124 Y37.39
N11085 X17.779 Y37.134
N11090 X17.441 Y36.869
N11095 X17.11 Y36.595
N11100 X16.786 Y36.313
N11105 X16.469 Y36.023
N11110 X16.16 Y35.725
N11115 X15.858 Y35.419
N11120 X15.565 Y35.106
N11125 X15.28 Y34.784
N11130 X15.003 Y34.456
N11135 X14.735 Y34.121
N11140 X14.475 Y33.778
N11145 X14.224 Y33.43
N11150 X13.982 Y33.075
N11155 X13.75 Y32.714
N11160 X13.526 Y32.347
N11165 X13.313 Y31.974
N11170 X13.108 Y31.596
N11175 X12.914 Y31.213
N11180 X12.729 Y30.825
N11185 X12.555 Y30.433
N11190 X12.39 Y30.036
N11195 X12.236 Y29.636
N11200 X12.091 Y29.231
N11205 X11.958 Y28.823
N11210 X11.835 Y28.411
N11215 X11.722 Y27.997
N11220 X11.62 Y27.58
N11225 X11.528 Y27.16
N11230 X11.447 Y26.738
N11235 X11.377 Y26.314
N11240 X11.318 Y25.889
N11245 X11.27 Y25.462
N11250 X11.232 Y25.034
N11255 X11.206 Y24.606
N11260 X11.19 Y24.176
N11265 X11.185 Y23.747
N11270 X11.191 Y23.317
N11275 X11.208 Y22.888
N11280 X11.236 Y22.46
N11285 X11.275 Y22.032
N11290 X11.325 Y21.605
N11295 X11.386 Y21.18
N11300 X11.457 Y20.756
N11305 X11.539 Y20.335
N11310 X11.632 Y19.915
N11315 X11.735 Y19.498
N11320 X11.849 Y19.084
N11325 X11.973 Y18.673
N11330 X12.108 Y18.265
N11335 X12.253 Y17.861
N11340 X12.408 Y17.46
N11345 X12.573 Y17.064
N11350 X12.748 Y16.672
N11355 X12.934 Y16.284
N11360 X13.129 Y15.901
N11365 X13.333 Y15.524
N11370 X13.547 Y15.152
N11375 X13.771 Y14.785
N11380 X14.003 Y14.424
N11385 X14.245 Y14.068
N11390 X14.496 Y13.72
N11395 X14.755 Y13.377
N11400 X15.023 Y13.042
N11405 X15.3 Y12.713
N11410 X15.584 Y12.391
N11415 X15.877 Y12.077
N11420 X16.177 Y11.77
N11425 X16.485 Y11.47
N11430 X16.801 Y11.179
N11435 X17.124 Y10.896
N11440 X17.454 Y10.621
N11445 X17.791 Y10.355
N11450 X18.134 Y10.097
N11455 X18.484 Y9.848
N11460 X18.84 Y9.607
N11465 X19.202 Y9.376
N11470 X19.57 Y9.154
N11475 X19.943 Y8.942
N11480 X20.322 Y8.739
N11485 X20.705 Y8.545
N11490 X21.094 Y8.362
N11495 X21.486 Y8.188
N11500 X21.884 Y8.024
N11505 X22.285 Y7.87
N11510 X22.689 Y7.727
N11515 X23.098 Y7.594
N11520 X23.509 Y7.471
N11525 X23.924 Y7.359
N11530 X24.341 Y7.257
N11535 X24.761 Y7.165
N11540 X25.183 Y7.085
N11545 X25.607 Y7.015
N11550 X26.032 Y6.955
N11555 X26.459 Y6.907
N11560 X26.887 Y6.869
N11565 X27.315 Y6.843
N11570 X27.745 Y6.826
N11575 X28.174 Y6.821
N11580 X28.604 Y6.827
N11585 X29.033 Y6.843
N11590 X29.461 Y6.87
N11595 X29.889 Y6.908
N11600 X30.316 Y6.957
N11605 X30.741 Y7.017
N11610 X31.165 Y7.087
N11615 X31.587 Y7.167
N11620 X32.007 Y7.258
N11625 X32.424 Y7.36
N11630 X32.839 Y7.472
N11635 X33.251 Y7.594
N11640 X33.659 Y7.727
N11645 X34.064 Y7.869
N11650 X34.466 Y8.022
N11655 X34.864 Y8.184
N11660 X35.257 Y8.356
N11665 X35.647 Y8.537
N11670 X36.031 Y8.729
N11675 X36.411 Y8.929
N11680 X36.786 Y9.139
N11685 X37.156 Y9.357
N11690 X37.52 Y9.585
N11695 X37.879 Y9.821
N11700 X38.232 Y10.066
N11705 X38.579 Y10.319
N11710 X38.919 Y10.58
N11715 X39.254 Y10.85
N11720 X39.582 Y11.128
N11725 X39.903 Y11.413
N11730 X40.217 Y11.706
N11735 X40.524 Y12.006
N11740 X40.824 Y12.313
N11745 X41.117 Y12.628
N11750 X41.402 Y12.949
N11755 X41.679 Y13.277
N11760 X41.948 Y13.612
N11765 X42.21 Y13.953
N11770 X42.463 Y14.299
N11775 X42.708 Y14.652
N11780 X42.945 Y15.011
N11785 X43.173 Y15.374
N11790 X43.393 Y15.744
N11795 X43.603 Y16.118
N11800 X43.805 Y16.497
N11805 X43.998 Y16.881
N11810 X44.181 Y17.269
N11815 X44.356 Y17.662
N11820 X44.521 Y18.058
N11825 X44.676 Y18.459
N11830 X44.823 Y18.863
N11835 X44.959 Y19.27
N11840 X45.086 Y19.68
N11845 X45.202 Y20.094
N11850 X45.309 Y20.51
N11855 X45.407 Y20.928
N11860 X45.494 Y21.349
N11865 X45.571 Y21.771
N11870 X45.604 Y21.98
N11875 X45.614 Y22.052
N11880 X45.619 Y22.125
N11885 X45.621 Y22.198
N11890 Y25.739
N11895 X45.6 Y26.168
N11900 X45.588 Y26.597
N11905 X45.561 Y27.026
N11910 X45.52 Y27.454
N11915 X45.466 Y27.88
N11920 X45.4 Y28.304
N11925 X45.322 Y28.726
N11930 X45.231 Y29.146
N11935 X45.129 Y29.563
N11940 X45.016 Y29.978
N11945 X44.892 Y30.389
N11950 X44.757 Y30.797
N11955 X44.611 Y31.201
N11960 X44.455 Y31.601
N11965 X44.289 Y31.997
N11970 X44.114 Y32.389
N11975 X43.928 Y32.777
N11980 X43.733 Y33.159
N11985 X43.528 Y33.537
N11990 X43.314 Y33.909
N11995 X43.091 Y34.276
N12000 X42.86 Y34.638
N12005 X42.619 Y34.994
N12010 X42.37 Y35.344
N12015 X42.112 Y35.687
N12020 X41.846 Y36.025
N12025 X41.573 Y36.356
N12030 X41.291 Y36.68
N12035 X41.001 Y36.997
N12040 X40.704 Y37.307
N12045 X40.399 Y37.61
N12050 X40.087 Y37.905
N12055 X39.769 Y38.193
N12060 X39.443 Y38.474
N12065 X39.111 Y38.746
N12070 X38.773 Y39.01
N12075 X38.428 Y39.267
N12080 X38.077 Y39.514
N12085 X37.72 Y39.754
N12090 X37.358 Y39.984
N12095 X36.991 Y40.207
N12100 X36.618 Y40.42
N12105 X36.24 Y40.625
N12110 X35.858 Y40.82
N12115 X35.471 Y41.006
N12120 X35.434 Y41.023
N12125 X35.248 Y41.091
N12130 X35.055 Y41.133
N12135 X34.857 Y41.147
N12140 X22.581
N12145 X22.152 Y41.126
N12150 X21.723 Y41.094
N12155 X21.298 Y41.035
N12160 X20.877 Y40.951
N12165 X20.46 Y40.845
N12170 X20.05 Y40.72
N12175 X19.644 Y40.577
N12180 X19.245 Y40.419
N12185 X18.852 Y40.245
N12190 X18.465 Y40.059
N12195 X18.085 Y39.859
N12200 X17.711 Y39.648
N12205 X17.344 Y39.425
N12210 X16.983 Y39.192
N12215 X16.629 Y38.949
N12220 X16.282 Y38.696
N12225 X15.941 Y38.434
N12230 X15.607 Y38.164
N12235 X15.281 Y37.885
N12240 X14.961 Y37.598
N12245 X14.648 Y37.304
N12250 X14.343 Y37.001
N12255 X14.046 Y36.692
N12260 X13.755 Y36.375
N12265 X13.473 Y36.052
N12270 X13.197 Y35.722
N12275 X12.93 Y35.386
N12280 X12.671 Y35.043
N12285 X12.419 Y34.695
N12290 X12.176 Y34.341
N12295 X11.941 Y33.982
N12300 X11.714 Y33.617
N12305 X11.496 Y33.247
N12310 X11.286 Y32.872
N12315 X11.085 Y32.493
N12320 X10.892 Y32.109
N12325 X10.708 Y31.721
N12330 X10.533 Y31.328
N12335 X10.368 Y30.932
N12340 X10.211 Y30.532
N12345 X10.063 Y30.129
N12350 X9.924 Y29.722
N12355 X9.795 Y29.313
N12360 X9.675 Y28.9
N12365 X9.564 Y28.485
N12370 X9.462 Y28.068
N12375 X9.37 Y27.649
N12380 X9.288 Y27.227
N12385 X9.215 Y26.804
N12390 X9.152 Y26.379
N12395 X9.098 Y25.953
N12400 X9.053 Y25.526
N12405 X9.019 Y25.097
N12410 X8.994 Y24.669
N12415 X8.978 Y24.239
N12420 X8.973 Y23.81
N12425 X8.977 Y23.38
N12430 X8.99 Y22.951
N12435 X9.014 Y22.522
N12440 X9.047 Y22.094
N12445 X9.089 Y21.666
N12450 X9.141 Y21.24
N12455 X9.203 Y20.815
N12460 X9.274 Y20.391
N12465 X9.355 Y19.97
N12470 X9.445 Y19.55
N12475 X9.544 Y19.132
N12480 X9.653 Y18.716
N12485 X9.772 Y18.303
N12490 X9.899 Y17.893
N12495 X10.035 Y17.486
N12500 X10.181 Y17.082
N12505 X10.336 Y16.681
N12510 X10.499 Y16.284
N12515 X10.672 Y15.891
N12520 X10.853 Y15.501
N12525 X11.043 Y15.116
N12530 X11.242 Y14.735
N12535 X11.449 Y14.359
N12540 X11.664 Y13.987
N12545 X11.888 Y13.62
N12550 X12.12 Y13.259
N12555 X12.36 Y12.903
N12560 X12.608 Y12.552
N12565 X12.863 Y12.207
N12570 X13.127 Y11.867
N12575 X13.397 Y11.534
N12580 X13.676 Y11.207
N12585 X13.961 Y10.886
N12590 X14.253 Y10.571
N12595 X14.553 Y10.263
N12600 X14.859 Y9.962
N12605 X15.173 Y9.668
N12610 X15.492 Y9.381
N12615 X15.818 Y9.102
N12620 X16.15 Y8.829
N12625 X16.488 Y8.564
N12630 X16.832 Y8.307
N12635 X17.181 Y8.057
N12640 X17.537 Y7.815
N12645 X17.897 Y7.582
N12650 X18.263 Y7.356
N12655 X18.633 Y7.139
N12660 X19.008 Y6.93
N12665 X19.388 Y6.729
N12670 X19.551 Y6.648
N12675 X19.752 Y6.566
N12680 X19.962 Y6.517
N12685 X20.178 Y6.5
N12690 X34.278
N12695 X34.707 Y6.521
N12700 X35.135 Y6.564
N12705 X35.558 Y6.634
N12710 X35.977 Y6.729
N12715 X36.391 Y6.846
N12720 X36.798 Y6.983
N12725 X37.199 Y7.136
N12730 X37.594 Y7.305
N12735 X37.982 Y7.489
N12740 X38.364 Y7.685
N12745 X38.74 Y7.894
N12750 X39.109 Y8.114
N12755 X39.471 Y8.344
N12760 X39.827 Y8.585
N12765 X40.176 Y8.835
N12770 X40.519 Y9.094
N12775 X40.855 Y9.361
N12780 X41.184 Y9.637
N12785 X41.507 Y9.92
N12790 X41.823 Y10.211
N12795 X42.132 Y10.509
N12800 X42.434 Y10.815
N12805 X42.73 Y11.127
N12810 X43.018 Y11.445
N12815 X43.299 Y11.77
N12820 X43.573 Y12.101
N12825 X43.839 Y12.438
N12830 X44.098 Y12.78
N12835 X44.35 Y13.129
N12840 X44.594 Y13.482
N12845 X44.83 Y13.841
N12850 X45.059 Y14.204
N12855 X45.28 Y14.573
N12860 X45.437 Y14.848
N12865 X45.538 Y15.068
N12870 X45.6 Y15.301
N12875 X45.621 Y15.542
N12880 Y22.198
N12885 Y23.854
N12890 Y25.739
N12895 Y32.026
N12900 X45.6 Y32.455
N12905 X45.556 Y32.882
N12910 X45.48 Y33.305
N12915 X45.376 Y33.722
N12920 X45.25 Y34.132
N12925 X45.102 Y34.536
N12930 X44.936 Y34.932
N12935 X44.753 Y35.321
N12940 X44.556 Y35.702
N12945 X44.345 Y36.076
N12950 X44.121 Y36.443
N12955 X43.886 Y36.802
N12960 X43.64 Y37.155
N12965 X43.385 Y37.5
N12970 X43.119 Y37.838
N12975 X42.845 Y38.168
N12980 X42.563 Y38.492
N12985 X42.273 Y38.808
N12990 X41.974 Y39.118
N12995 X41.669 Y39.419
N13000 X41.356 Y39.714
N13005 X41.036 Y40.001
N13010 X40.71 Y40.281
N13015 X40.378 Y40.553
N13020 X40.04 Y40.818
N13025 X39.972 Y40.868
N13030 X39.715 Y41.021
N13035 X39.431 Y41.115
N13040 X39.134 Y41.147
N13045 X34.857
N13050 G3 X34.493 Y40.088 I0.021 J-0.6
N13055 G1 X34.83 Y39.805
N13060 X44.219 Y31.937
N13065 X44.636 Y31.587
N13070 G3 X45.621 Y32.026 I0.385 J0.46
N13075 G1 Y35.798
N13080 X45.6 Y36.227
N13085 X45.574 Y36.441
N13090 X45.509 Y36.826
N13095 X45.404 Y37.243
N13100 X45.267 Y37.65
N13105 X45.104 Y38.047
N13110 X44.917 Y38.434
N13115 X44.711 Y38.811
N13120 X44.488 Y39.178
N13125 X44.249 Y39.535
N13130 X43.996 Y39.882
N13135 X43.731 Y40.22
N13140 X43.455 Y40.549
N13145 X43.337 Y40.681
N13150 X43.119 Y40.878
N13155 X42.865 Y41.025
N13160 X42.586 Y41.116
N13165 X42.294 Y41.147
N13170 G3 X41.794 Y40.249 I0.021 J-0.6
N13175 G1 X42.117 Y39.684
N13180 X44.336 Y35.81
N13185 X44.501 Y35.521
N13190 G3 X45.621 Y35.798 I0.521 J0.298
N13195 G1 Y39.032
N13200 X45.602 Y39.411
N13205 X45.561 Y39.724
N13210 X45.496 Y40.028
N13215 X45.46 Y40.149
N13220 X45.345 Y40.424
N13225 X45.174 Y40.668
N13230 X44.955 Y40.87
N13235 X44.698 Y41.022
N13240 X44.415 Y41.115
N13245 X44.119 Y41.147
N13250 G3 X43.623 Y40.243 I0.021 J-0.6
N13255 G1 X43.95 Y39.688
N13260 X44.332 Y39.041
N13265 X44.505 Y38.748
N13270 G3 X45.621 Y39.032 I0.517 J0.305
N13275 G1 Y40.469
N13280 X45.616 Y40.613
N13285 X45.61 Y40.648
N13290 X45.585 Y40.738
N13295 X45.544 Y40.828
N13300 X45.498 Y40.898
N13305 X45.436 Y40.968
N13310 X45.393 Y41.008
N13315 X45.325 Y41.057
N13320 X45.256 Y41.094
N13325 X45.166 Y41.126
N13330 X45.076 Y41.143
N13335 X44.896 Y41.147
N13340 X39.134
N13345 G3 X38.662 Y40.206 I0.021 J-0.6
N13350 G1 X38.714 Y40.154 Z-0.994
N13355 X38.765 Y40.103 Z-0.981
N13360 X38.815 Y40.053 Z-0.958
N13365 X38.888 Y40.021 Z-0.92
N13370 X38.954 Y39.991 Z-0.87
N13375 X39.013 Y39.964 Z-0.811
N13380 X39.06 Y39.959 Z-0.754
N13385 X39.1 Y39.954 Z-0.692
N13390 X39.131 Y39.95 Z-0.626
N13395 X39.155 Y39.948 Z-0.556
N13400 X39.161 Z-0.532
N13405 X39.172 Z-0.466
N13410 X39.176 Z-0.399
N13415 G0 Z5.
N13420 X24.905 Y40.309
N13425 Z0.201
N13430 G1 Z-0.399 F100.
N13435 X24.899 Y40.313 Z-0.493
N13440 X24.88 Y40.324 Z-0.584
N13445 X24.849 Y40.343 Z-0.671
N13450 X24.807 Y40.368 Z-0.752
N13455 X24.754 Y40.399 Z-0.823
N13460 X24.692 Y40.436 Z-0.884
N13465 X24.623 Y40.477 Z-0.934
N13470 X24.549 Y40.521 Z-0.97
N13475 X24.47 Y40.568 Z-0.992
N13480 X24.389 Y40.616 Z-0.999
N13485 G3 X22.581 Y41.147 I-1.941 J-3.265
N13490 G1 X18.262
N13495 X17.833 Y41.126
N13500 X17.619 Y41.099
N13505 X17.205 Y41.029
N13510 X16.789 Y40.923
N13515 X16.381 Y40.788
N13520 X15.983 Y40.628
N13525 X15.593 Y40.446
N13530 X15.214 Y40.245
N13535 X14.843 Y40.028
N13540 X14.482 Y39.795
N13545 X14.13 Y39.549
N13550 X13.787 Y39.291
N13555 X13.452 Y39.022
N13560 X13.126 Y38.742
N13565 X12.808 Y38.453
N13570 X12.499 Y38.156
N13575 X12.197 Y37.85
N13580 X11.904 Y37.536
N13585 X11.619 Y37.215
N13590 X11.342 Y36.886
N13595 X11.072 Y36.552
N13600 X10.811 Y36.211
N13605 X10.557 Y35.864
N13610 X10.311 Y35.512
N13615 X10.073 Y35.155
N13620 X9.843 Y34.792
N13625 X9.621 Y34.424
N13630 X9.407 Y34.052
N13635 X9.201 Y33.675
N13640 X9.003 Y33.294
N13645 X8.813 Y32.909
N13650 X8.631 Y32.52
N13655 X8.457 Y32.127
N13660 X8.291 Y31.731
N13665 X8.134 Y31.331
N13670 X7.984 Y30.928
N13675 X7.843 Y30.523
N13680 X7.711 Y30.114
N13685 X7.586 Y29.703
N13690 X7.471 Y29.289
N13695 X7.363 Y28.874
N13700 X7.264 Y28.456
N13705 X7.174 Y28.036
N13710 X7.092 Y27.614
N13715 X7.018 Y27.191
N13720 X7.016 Y27.177
N13725 X7.007 Y27.107
N13730 X7.002 Y27.036
N13735 X7. Y26.966
N13740 Y22.326
N13745 X7.021 Y21.897
N13750 X7.034 Y21.468
N13755 X7.06 Y21.039
N13760 X7.098 Y20.611
N13765 X7.148 Y20.184
N13770 X7.21 Y19.759
N13775 X7.282 Y19.336
N13780 X7.365 Y18.914
N13785 X7.458 Y18.495
N13790 X7.561 Y18.078
N13795 X7.673 Y17.663
N13800 X7.795 Y17.252
N13805 X7.926 Y16.842
N13810 X8.065 Y16.436
N13815 X8.214 Y16.033
N13820 X8.371 Y15.633
N13825 X8.536 Y15.237
N13830 X8.71 Y14.844
N13835 X8.892 Y14.455
N13840 X9.081 Y14.07
N13845 X9.279 Y13.688
N13850 X9.484 Y13.311
N13855 X9.698 Y12.938
N13860 X9.918 Y12.57
N13865 X10.147 Y12.206
N13870 X10.382 Y11.847
N13875 X10.625 Y11.493
N13880 X10.875 Y11.143
N13885 X11.132 Y10.799
N13890 X11.396 Y10.46
N13895 X11.666 Y10.126
N13900 X11.944 Y9.798
N13905 X12.227 Y9.476
N13910 X12.518 Y9.159
N13915 X12.814 Y8.849
N13920 X13.117 Y8.544
N13925 X13.426 Y8.246
N13930 X13.741 Y7.953
N13935 X14.061 Y7.667
N13940 X14.387 Y7.388
N13945 X14.719 Y7.115
N13950 X15.056 Y6.849
N13955 X15.143 Y6.784
N13960 X15.401 Y6.629
N13965 X15.687 Y6.533
N13970 X15.987 Y6.5
N13975 X20.178
N13980 G3 X20.619 Y7.482 I-0.021 J0.6
N13985 G1 X20.269 Y7.905
N13990 X8.339 Y22.351
N13995 X8.062 Y22.687
N14000 G3 X7. Y22.326 I-0.463 J-0.382
N14005 G1 Y15.5
N14010 X7.021 Y15.071
N14015 X7.067 Y14.644
N14020 X7.141 Y14.221
N14025 X7.239 Y13.802
N14030 X7.358 Y13.39
N14035 X7.496 Y12.983
N14040 X7.651 Y12.582
N14045 X7.82 Y12.188
N14050 X8.003 Y11.799
N14055 X8.198 Y11.416
N14060 X8.404 Y11.039
N14065 X8.621 Y10.668
N14070 X8.847 Y10.303
N14075 X9.082 Y9.944
N14080 X9.326 Y9.591
N14085 X9.579 Y9.243
N14090 X9.839 Y8.901
N14095 X10.106 Y8.565
N14100 X10.38 Y8.234
N14105 X10.661 Y7.909
N14110 X10.949 Y7.591
N14115 X11.243 Y7.277
N14120 X11.543 Y6.97
N14125 X11.611 Y6.903
N14130 X11.823 Y6.732
N14135 X12.063 Y6.605
N14140 X12.323 Y6.526
N14145 X12.594 Y6.5
N14150 X15.987
N14155 G3 X16.391 Y7.524 I-0.021 J0.6
N14160 G1 X16.043 Y7.872
N14165 X8.372 Y15.555
N14170 X8.024 Y15.903
N14175 G3 X7. Y15.5 I-0.425 J-0.424
N14180 G1 Y11.368
N14185 X7.021 Y10.95
N14190 X7.074 Y10.548
N14195 X7.163 Y10.128
N14200 X7.284 Y9.716
N14205 X7.43 Y9.312
N14210 X7.598 Y8.916
N14215 X7.785 Y8.53
N14220 X7.989 Y8.152
N14225 X8.207 Y7.782
N14230 X8.439 Y7.421
N14235 X8.684 Y7.067
N14240 X8.694 Y7.054
N14245 X8.916 Y6.822
N14250 X9.186 Y6.646
N14255 X9.489 Y6.537
N14260 X9.809 Y6.5
N14265 G3 X10.322 Y7.374 I-0.021 J0.6
N14270 G1 X10.011 Y7.977
N14275 X8.273 Y11.35
N14280 X8.133 Y11.622
N14285 G3 X7. Y11.368 I-0.533 J-0.275
N14290 G1 Y7.955
N14295 X7.013 Y7.687
N14300 X7.078 Y7.414
N14305 X7.197 Y7.161
N14310 X7.366 Y6.937
N14315 X7.576 Y6.752
N14320 X7.821 Y6.614
N14325 X8.088 Y6.529
N14330 X8.366 Y6.5
N14335 G3 X8.793 Y7.499 I-0.021 J0.6
N14340 G1 X8.442 Y7.892
N14345 X8.353 Y7.992
N14350 X8.047 Y8.334
N14355 G3 X7. Y7.955 I-0.447 J-0.4
N14360 G1 Y7.237
N14365 X7.003 Y7.057
N14370 X7.018 Y6.967
N14375 X7.048 Y6.877
N14380 X7.073 Y6.826
N14385 X7.104 Y6.775
N14390 X7.167 Y6.698
N14395 X7.225 Y6.643
N14400 X7.284 Y6.599
N14405 X7.374 Y6.55
N14410 X7.464 Y6.519
N14415 X7.468 Y6.518
N14420 X7.556 Y6.503
N14425 X7.644 Y6.5
N14430 X12.594
N14435 G3 X13.066 Y7.441 I-0.021 J0.6
N14440 G1 X13.014 Y7.493 Z-0.994
N14445 X12.962 Y7.545 Z-0.981
N14450 X12.913 Y7.594 Z-0.958
N14455 X12.84 Y7.627 Z-0.92
N14460 X12.774 Y7.656 Z-0.87
N14465 X12.714 Y7.683 Z-0.811
N14470 X12.668 Y7.688 Z-0.754
N14475 X12.628 Y7.693 Z-0.692
N14480 X12.596 Y7.697 Z-0.626
N14485 X12.573 Y7.7 Z-0.556
N14490 X12.567 Z-0.532
N14495 X12.556 Y7.699 Z-0.466
N14500 X12.552 Z-0.399
N14505 G0 Z5.
N14510 X34.154 Y7.93
N14515 Z-0.399
N14520 G1 Z-0.999 F100.
N14525 X33.81 Y7.447
N14530 G3 X34.278 Y6.5 I0.489 J-0.348
N14535 G1 X38.417
N14540 X38.806 Y6.519
N14545 X39.193 Y6.57
N14550 X39.613 Y6.66
N14555 X40.025 Y6.782
N14560 X40.428 Y6.93
N14565 X40.822 Y7.102
N14570 X41.206 Y7.294
N14575 X41.581 Y7.504
N14580 X41.946 Y7.729
N14585 X42.303 Y7.968
N14590 X42.651 Y8.22
N14595 X42.991 Y8.483
N14600 X43.322 Y8.757
N14605 X43.645 Y9.04
N14610 X43.96 Y9.332
N14615 X44.267 Y9.632
N14620 X44.566 Y9.94
N14625 X44.858 Y10.255
N14630 X45.142 Y10.578
N14635 X45.293 Y10.756
N14640 X45.433 Y10.957
N14645 X45.537 Y11.178
N14650 X45.6 Y11.414
N14655 X45.621 Y11.658
N14660 Y15.542
N14665 G3 X44.549 Y15.891 I-0.6 J-0.021
N14670 G1 X44.291 Y15.561
N14675 X38.314 Y7.915
N14680 X37.966 Y7.469
N14685 G3 X38.417 Y6.5 I0.473 J-0.37
N14690 G1 X41.657
N14695 X42.076 Y6.521
N14700 X42.404 Y6.564
N14705 X42.775 Y6.643
N14710 X43.186 Y6.767
N14715 X43.586 Y6.922
N14720 X43.975 Y7.104
N14725 X44.352 Y7.31
N14730 X44.718 Y7.535
N14735 X45.012 Y7.736
N14740 X45.22 Y7.91
N14745 X45.39 Y8.122
N14750 X45.517 Y8.362
N14755 X45.595 Y8.622
N14760 X45.621 Y8.892
N14765 G3 X44.741 Y9.401 I-0.6 J-0.021
N14770 G1 X44.148 Y9.087
N14775 X41.674 Y7.776
N14780 X41.397 Y7.63
N14785 G3 X41.657 Y6.5 I0.281 J-0.53
N14790 G1 X44.536
N14795 X44.781 Y6.512
N14800 X45.005 Y6.57
N14805 X45.209 Y6.678
N14810 X45.382 Y6.833
N14815 X45.512 Y7.024
N14820 X45.594 Y7.24
N14825 X45.621 Y7.47
N14830 G3 X44.661 Y7.928 I-0.6 J-0.021
N14835 G1 X44.523 Y7.824
N14840 X44.197 Y7.579
N14845 G3 X44.536 Y6.5 I0.36 J-0.48
N14850 G1 X44.896
N14855 X45.076 Y6.504
N14860 X45.155 Y6.518
N14865 X45.206 Y6.533
N14870 X45.256 Y6.553
N14875 X45.346 Y6.604
N14880 X45.391 Y6.638
N14885 X45.436 Y6.679
N14890 X45.455 Y6.698
N14895 X45.494 Y6.743
N14900 X45.526 Y6.788
N14905 X45.573 Y6.877
N14910 X45.6 Y6.955
N14915 X45.616 Y7.033
N14920 X45.619 Y7.057
N14925 X45.621 Y7.237
N14930 Y11.658
N14935 G3 X44.68 Y12.13 I-0.6 J-0.021
N14940 G1 X44.628 Y12.078 Z-0.994
N14945 X44.577 Y12.026 Z-0.981
N14950 X44.527 Y11.976 Z-0.958
N14955 X44.495 Y11.904 Z-0.92
N14960 X44.465 Y11.837 Z-0.87
N14965 X44.439 Y11.778 Z-0.811
N14970 X44.433 Y11.731 Z-0.754
N14975 X44.428 Y11.692 Z-0.692
N14980 X44.424 Y11.66 Z-0.626
N14985 X44.422 Y11.637 Z-0.556
N14990 Y11.631 Z-0.532
N14995 Y11.62 Z-0.466
N15000 Y11.616 Z-0.399
N15005 G0 Z5.
N15010 X20.586 Y40.309
N15015 Z0.201
N15020 G1 Z-0.399 F100.
N15025 X20.58 Y40.313 Z-0.493
N15030 X20.561 Y40.324 Z-0.584
N15035 X20.53 Y40.343 Z-0.671
N15040 X20.487 Y40.368 Z-0.752
N15045 X20.435 Y40.399 Z-0.823
N15050 X20.373 Y40.436 Z-0.884
N15055 X20.304 Y40.477 Z-0.934
N15060 X20.23 Y40.521 Z-0.97
N15065 X20.151 Y40.568 Z-0.992
N15070 X20.07 Y40.616 Z-0.999
N15075 G3 X18.262 Y41.147 I-1.941 J-3.265
N15080 G1 X14.842
N15085 X14.546 Y41.132
N15090 X14.222 Y41.09
N15095 X13.854 Y41.011
N15100 X13.443 Y40.888
N15105 X13.042 Y40.732
N15110 X12.654 Y40.549
N15115 X12.277 Y40.343
N15120 X11.912 Y40.117
N15125 X11.558 Y39.873
N15130 X11.216 Y39.614
N15135 X10.884 Y39.341
N15140 X10.562 Y39.056
N15145 X10.251 Y38.76
N15150 X9.949 Y38.455
N15155 X9.657 Y38.14
N15160 X9.373 Y37.818
N15165 X9.099 Y37.487
N15170 X8.833 Y37.15
N15175 X8.575 Y36.806
N15180 X8.326 Y36.456
N15185 X8.086 Y36.1
N15190 X7.853 Y35.739
N15195 X7.629 Y35.373
N15200 X7.412 Y35.002
N15205 X7.203 Y34.627
N15210 X7.163 Y34.551
N15215 X7.073 Y34.342
N15220 X7.018 Y34.122
N15225 X7. Y33.895
N15230 Y26.966
N15235 G3 X8.129 Y26.704 I0.6 J0.021
N15240 G1 X8.277 Y26.982
N15245 X15.036 Y39.674
N15250 X15.351 Y40.266
N15255 G3 X14.842 Y41.147 I-0.53 J0.282
N15260 G1 X11.963
N15265 X11.611 Y41.13
N15270 X11.319 Y41.091
N15275 X10.989 Y41.021
N15280 X10.62 Y40.91
N15285 X10.22 Y40.754
N15290 X9.833 Y40.568
N15295 X9.46 Y40.355
N15300 X9.1 Y40.12
N15305 X8.753 Y39.867
N15310 X8.419 Y39.597
N15315 X8.097 Y39.313
N15320 X7.787 Y39.016
N15325 X7.487 Y38.708
N15330 X7.363 Y38.572
N15335 X7.209 Y38.366
N15340 X7.094 Y38.135
N15345 X7.024 Y37.887
N15350 X7. Y37.631
N15355 G3 X7.933 Y37.153 I0.6 J0.021
N15360 G1 X8.44 Y37.491
N15365 X11.964 Y39.841
N15370 X12.275 Y40.048
N15375 G3 X11.963 Y41.147 I-0.333 J0.499
N15380 G1 X9.084
N15385 X8.879 Y41.137
N15390 X8.602 Y41.101
N15395 X8.292 Y41.034
N15400 X7.964 Y40.936
N15405 X7.892 Y40.908
N15410 X7.643 Y40.781
N15415 X7.424 Y40.607
N15420 X7.244 Y40.394
N15425 X7.11 Y40.148
N15430 X7.028 Y39.882
N15435 X7. Y39.604
N15440 G3 X7.92 Y39.117 I0.6 J0.021
N15445 G1 X8.449 Y39.451
N15450 X9.079 Y39.849
N15455 X9.383 Y40.04
N15460 G3 X9.084 Y41.147 I-0.32 J0.507
N15465 G1 X7.644
N15470 X7.554 Y41.144
N15475 X7.464 Y41.128
N15480 X7.374 Y41.097
N15485 X7.284 Y41.048
N15490 X7.23 Y41.008
N15495 X7.158 Y40.939
N15500 X7.104 Y40.871
N15505 X7.077 Y40.828
N15510 X7.036 Y40.738
N15515 X7.011 Y40.648
N15520 X7.001 Y40.559
N15525 X7. Y40.469
N15530 Y33.895
N15535 G3 X7.941 Y33.423 I0.6 J0.021
N15540 G1 X7.993 Y33.475 Z-0.994
N15545 X8.045 Y33.527 Z-0.981
N15550 X8.094 Y33.577 Z-0.958
N15555 X8.127 Y33.649 Z-0.92
N15560 X8.156 Y33.716 Z-0.87
N15565 X8.183 Y33.775 Z-0.811
N15570 X8.188 Y33.822 Z-0.754
N15575 X8.193 Y33.861 Z-0.692
N15580 X8.197 Y33.893 Z-0.626
N15585 X8.2 Y33.916 Z-0.556
N15590 Y33.922 Z-0.532
N15595 X8.199 Y33.934 Z-0.466
N15600 Y33.937 Z-0.399
N15605 G0 Z5.
N15610 X28.39 Y38.67
N15615 Z0.3
N15620 G1 Z-0.3 F100.
N15625 Y38.677 Z-0.394
N15630 Y38.699 Z-0.485
N15635 X28.389 Y38.735 Z-0.572
N15640 Y38.784 Z-0.653
N15645 X28.388 Y38.845 Z-0.724
N15650 X28.387 Y38.917 Z-0.785
N15655 X28.386 Y38.997 Z-0.835
N15660 X28.385 Y39.084 Z-0.871
N15665 X28.384 Y39.176 Z-0.893
N15670 X28.383 Y39.27 Z-0.9
N15675 G3 X28.16 Y41.141 I-8.749 J-0.097
N15680 G1 X28.157 Y41.149
N15685 X28.152 Y41.155
N15690 X28.144 Y41.157
N15695 X7.644
N15700 X7.554 Y41.155
N15705 X7.464 Y41.14
N15710 X7.374 Y41.111
N15715 X7.284 Y41.064
N15720 X7.209 Y41.008
N15725 X7.15 Y40.951
N15730 X7.104 Y40.895
N15735 X7.062 Y40.828
N15740 X7.023 Y40.738
N15745 X6.999 Y40.648
N15750 X6.99 Y40.559
N15755 Y40.469
N15760 Y7.237
N15765 X6.992 Y7.057
N15770 X7.006 Y6.967
N15775 X7.034 Y6.877
N15780 X7.064 Y6.815
N15785 X7.104 Y6.752
N15790 X7.148 Y6.698
N15795 X7.216 Y6.633
N15800 X7.284 Y6.583
N15805 X7.353 Y6.545
N15810 X7.423 Y6.518
N15815 X7.464 Y6.507
N15820 X7.554 Y6.492
N15825 X7.644 Y6.49
N15830 X44.896
N15835 X45.076 Y6.493
N15840 X45.138 Y6.502
N15845 X45.2 Y6.518
N15850 X45.256 Y6.539
N15855 X45.346 Y6.587
N15860 X45.391 Y6.62
N15865 X45.436 Y6.659
N15870 X45.473 Y6.698
N15875 X45.511 Y6.743
N15880 X45.541 Y6.788
N15885 X45.587 Y6.877
N15890 X45.616 Y6.968
N15895 X45.63 Y7.057
N15900 X45.631 Y7.237
N15905 Y40.469
N15910 Y40.559
N15915 X45.622 Y40.648
N15920 X45.616 Y40.678
N15925 X45.593 Y40.753
N15930 X45.559 Y40.828
N15935 X45.507 Y40.908
N15940 X45.436 Y40.988
N15945 X45.415 Y41.008
N15950 X45.335 Y41.067
N15955 X45.256 Y41.108
N15960 X45.166 Y41.139
N15965 X45.076 Y41.154
N15970 X44.896 Y41.157
N15975 X28.144
N15980 G3 X27.671 Y40.216 I0.021 J-0.6
N15985 G1 X27.724 Y40.164 Z-0.895
N15990 X27.775 Y40.113 Z-0.882
N15995 X27.825 Y40.063 Z-0.859
N16000 X27.897 Y40.031 Z-0.821
N16005 X27.964 Y40.001 Z-0.771
N16010 X28.023 Y39.975 Z-0.712
N16015 X28.07 Y39.969 Z-0.655
N16020 X28.109 Y39.964 Z-0.593
N16025 X28.141 Y39.96 Z-0.527
N16030 X28.165 Y39.958 Z-0.457
N16035 X28.171 Z-0.433
N16040 X28.182 Z-0.367
N16045 X28.186 Z-0.3
N16050 G0 Z5.
N16055 X27.742 Y38.71
N16060 Z0.4
N16065 G1 Z-0.2 F100.
N16070 X27.744 Y38.717 Z-0.294
N16075 X27.75 Y38.738 Z-0.385
N16080 X27.759 Y38.773 Z-0.472
N16085 X27.771 Y38.821 Z-0.553
N16090 X27.786 Y38.88 Z-0.624
N16095 X27.804 Y38.95 Z-0.685
N16100 X27.824 Y39.027 Z-0.735
N16105 X27.845 Y39.112 Z-0.771
N16110 X27.868 Y39.2 Z-0.793
N16115 X27.891 Y39.291 Z-0.8
N16120 G3 X28.16 Y41.157 I-8.476 J2.171
N16125 G1 Y41.187
N16130 X28.159 Y41.189
N16135 X7.644
N16140 X7.531 Y41.187
N16145 X7.464 Y41.178
N16150 X7.374 Y41.154
N16155 X7.284 Y41.113
N16160 X7.215 Y41.068
N16165 X7.145 Y41.008
N16170 X7.104 Y40.964
N16175 X7.053 Y40.896
N16180 X7.015 Y40.828
N16185 X6.982 Y40.738
N16190 X6.963 Y40.648
N16195 X6.958 Y40.469
N16200 Y7.237
N16205 X6.959 Y7.057
N16210 X6.968 Y6.967
N16215 X6.992 Y6.877
N16220 X7.032 Y6.788
N16225 X7.06 Y6.743
N16230 X7.093 Y6.698
N16235 X7.104 Y6.684
N16240 X7.194 Y6.595
N16245 X7.239 Y6.561
N16250 X7.284 Y6.534
N16255 X7.314 Y6.518
N16260 X7.389 Y6.488
N16265 X7.464 Y6.469
N16270 X7.554 Y6.459
N16275 X7.644 Y6.458
N16280 X44.896
N16285 X45.076 Y6.459
N16290 X45.166 Y6.47
N16295 X45.256 Y6.496
N16300 X45.309 Y6.518
N16305 X45.373 Y6.554
N16310 X45.436 Y6.601
N16315 X45.487 Y6.649
N16320 X45.529 Y6.698
N16325 X45.579 Y6.77
N16330 X45.616 Y6.843
N16335 X45.629 Y6.877
N16340 X45.653 Y6.967
N16345 X45.663 Y7.057
N16350 Y7.237
N16355 Y40.469
N16360 X45.658 Y40.648
N16365 X45.643 Y40.727
N16370 X45.616 Y40.805
N16375 X45.606 Y40.828
N16380 X45.554 Y40.918
N16385 X45.477 Y41.008
N16390 X45.436 Y41.046
N16395 X45.391 Y41.081
N16400 X45.346 Y41.11
N16405 X45.256 Y41.152
N16410 X45.174 Y41.176
N16415 X45.092 Y41.187
N16420 X45.076 Y41.188
N16425 X44.896 Y41.189
N16430 X28.159
N16435 G3 X27.687 Y40.248 I0.021 J-0.6
N16440 G1 X27.739 Y40.196 Z-0.795
N16445 X27.79 Y40.144 Z-0.782
N16450 X27.84 Y40.095 Z-0.759
N16455 X27.913 Y40.062 Z-0.721
N16460 X27.979 Y40.033 Z-0.671
N16465 X28.038 Y40.006 Z-0.612
N16470 X28.085 Y40.001 Z-0.555
N16475 X28.125 Y39.996 Z-0.493
N16480 X28.156 Y39.992 Z-0.427
N16485 X28.18 Y39.989 Z-0.357
N16490 X28.186 Z-0.333
N16495 X28.197 Y39.99 Z-0.267
N16500 X28.201 Z-0.2
N16505 G0 Z5.
N16510 X27.742 Y38.736
N16515 Z0.5
N16520 G1 Z-0.1 F100.
N16525 X27.744 Y38.743 Z-0.194
N16530 X27.75 Y38.765 Z-0.285
N16535 X27.759 Y38.799 Z-0.372
N16540 X27.771 Y38.847 Z-0.453
N16545 X27.786 Y38.906 Z-0.524
N16550 X27.804 Y38.976 Z-0.585
N16555 X27.824 Y39.053 Z-0.635
N16560 X27.845 Y39.138 Z-0.671
N16565 X27.868 Y39.226 Z-0.693
N16570 X27.891 Y39.317 Z-0.7
N16575 G3 X28.16 Y41.183 I-8.476 J2.171
N16580 G1 Y41.213
N16585 X28.149 Y41.231
N16590 X28.132 Y41.243
N16595 X28.112 Y41.247
N16600 X7.644
N16605 X7.464 Y41.246
N16610 X7.374 Y41.232
N16615 X7.284 Y41.205
N16620 X7.245 Y41.187
N16625 X7.174 Y41.147
N16630 X7.104 Y41.093
N16635 X7.061 Y41.05
N16640 X7.026 Y41.008
N16645 X6.97 Y40.918
N16650 X6.931 Y40.828
N16655 X6.924 Y40.805
N16660 X6.907 Y40.727
N16665 X6.9 Y40.648
N16670 Y38.134
N16675 Y7.057
N16680 X6.902 Y6.967
N16685 X6.915 Y6.877
N16690 X6.924 Y6.845
N16695 X6.951 Y6.771
N16700 X6.988 Y6.698
N16705 X7.037 Y6.626
N16710 X7.104 Y6.555
N16715 X7.148 Y6.518
N16720 X7.216 Y6.475
N16725 X7.284 Y6.443
N16730 X7.374 Y6.415
N16735 X7.464 Y6.401
N16740 X7.644 Y6.4
N16745 X45.076
N16750 X45.166 Y6.403
N16755 X45.256 Y6.42
N16760 X45.346 Y6.452
N16765 X45.436 Y6.501
N16770 X45.461 Y6.518
N16775 X45.507 Y6.553
N16780 X45.553 Y6.596
N16785 X45.616 Y6.673
N16790 X45.632 Y6.698
N16795 X45.678 Y6.788
N16800 X45.706 Y6.877
N16805 X45.72 Y6.967
N16810 X45.721 Y7.057
N16815 Y40.469
N16820 Y40.648
N16825 X45.713 Y40.738
N16830 X45.69 Y40.828
N16835 X45.659 Y40.902
N16840 X45.616 Y40.977
N16845 X45.593 Y41.008
N16850 X45.558 Y41.049
N16855 X45.515 Y41.09
N16860 X45.436 Y41.148
N16865 X45.364 Y41.187
N16870 X45.31 Y41.21
N16875 X45.256 Y41.227
N16880 X45.166 Y41.244
N16885 X45.076 Y41.247
N16890 X28.112
N16895 G3 X27.64 Y40.306 I0.021 J-0.6
N16900 G1 X27.692 Y40.254 Z-0.695
N16905 X27.743 Y40.203 Z-0.682
N16910 X27.793 Y40.153 Z-0.659
N16915 X27.866 Y40.121 Z-0.621
N16920 X27.932 Y40.091 Z-0.571
N16925 X27.992 Y40.064 Z-0.512
N16930 X28.038 Y40.059 Z-0.455
N16935 X28.078 Y40.054 Z-0.393
N16940 X28.11 Y40.05 Z-0.327
N16945 X28.133 Y40.048 Z-0.257
N16950 X28.139 Z-0.233
N16955 X28.15 Z-0.167
N16960 X28.154 Z-0.1
N16965 G0 Z5.
N16970 X27.742 Y38.787
N16975 Z0.6
N16980 G1 Z0. F100.
N16985 X27.744 Y38.795 Z-0.094
N16990 X27.75 Y38.816 Z-0.185
N16995 X27.759 Y38.851 Z-0.272
N17000 X27.771 Y38.898 Z-0.353
N17005 X27.786 Y38.958 Z-0.424
N17010 X27.804 Y39.027 Z-0.485
N17015 X27.824 Y39.105 Z-0.535
N17020 X27.845 Y39.189 Z-0.571
N17025 X27.868 Y39.278 Z-0.593
N17030 X27.891 Y39.369 Z-0.6
N17035 G3 X28.16 Y41.234 I-8.476 J2.171
N17040 G1 Y41.252
N17045 X28.134 Y41.301
N17050 X28.09 Y41.335
N17055 X28.036 Y41.347
N17060 X7.464
N17065 X7.374 Y41.346
N17070 X7.284 Y41.333
N17075 X7.194 Y41.306
N17080 X7.104 Y41.261
N17085 X7.055 Y41.228
N17090 X7.005 Y41.187
N17095 X6.924 Y41.1
N17100 X6.892 Y41.054
N17105 X6.866 Y41.008
N17110 X6.829 Y40.918
N17115 X6.807 Y40.828
N17120 X6.8 Y40.648
N17125 Y7.057
N17130 X6.801 Y6.877
N17135 X6.815 Y6.788
N17140 X6.842 Y6.698
N17145 X6.877 Y6.625
N17150 X6.924 Y6.553
N17155 X6.95 Y6.518
N17160 X6.985 Y6.479
N17165 X7.027 Y6.441
N17170 X7.104 Y6.386
N17175 X7.153 Y6.359
N17180 X7.202 Y6.339
N17185 X7.284 Y6.314
N17190 X7.374 Y6.301
N17195 X7.464 Y6.3
N17200 X45.076
N17205 X45.256 Y6.302
N17210 X45.335 Y6.315
N17215 X45.413 Y6.339
N17220 X45.436 Y6.348
N17225 X45.526 Y6.395
N17230 X45.571 Y6.427
N17235 X45.616 Y6.466
N17240 X45.668 Y6.518
N17245 X45.704 Y6.563
N17250 X45.734 Y6.608
N17255 X45.779 Y6.698
N17260 X45.796 Y6.746
N17265 X45.812 Y6.812
N17270 X45.82 Y6.877
N17275 X45.821 Y7.057
N17280 Y40.648
N17285 X45.814 Y40.828
N17290 X45.796 Y40.908
N17295 X45.778 Y40.958
N17300 X45.756 Y41.008
N17305 X45.73 Y41.052
N17310 X45.7 Y41.097
N17315 X45.662 Y41.142
N17320 X45.615 Y41.187
N17325 X45.526 Y41.252
N17330 X45.436 Y41.3
N17335 X45.346 Y41.33
N17340 X45.256 Y41.345
N17345 X45.076 Y41.347
N17350 X28.036
N17355 G3 X27.564 Y40.406 I0.021 J-0.6
N17360 G1 X27.616 Y40.354 Z-0.595
N17365 X27.667 Y40.303 Z-0.582
N17370 X27.717 Y40.253 Z-0.559
N17375 X27.79 Y40.221 Z-0.521
N17380 X27.856 Y40.191 Z-0.471
N17385 X27.915 Y40.164 Z-0.412
N17390 X27.962 Y40.159 Z-0.355
N17395 X28.002 Y40.154 Z-0.293
N17400 X28.033 Y40.15 Z-0.227
N17405 X28.057 Y40.148 Z-0.157
N17410 X28.063 Z-0.133
N17415 X28.074 Z-0.067
N17420 X28.078 Z0.
N17425 G0 Z5.
N17430 X-0.411 Y-2.208
N17435 Z0.701
N17440 G1 Z0.101 F100.
N17445 X-0.41 Y-2.201 Z0.007
N17450 X-0.404 Y-2.18 Z-0.084
N17455 X-0.395 Y-2.145 Z-0.171
N17460 X-0.383 Y-2.097 Z-0.252
N17465 X-0.368 Y-2.038 Z-0.323
N17470 X-0.35 Y-1.969 Z-0.384
N17475 X-0.33 Y-1.891 Z-0.434
N17480 X-0.309 Y-1.807 Z-0.47
N17485 X-0.286 Y-1.718 Z-0.492
N17490 X-0.263 Y-1.627 Z-0.499
N17495 G3 X0.006 Y0.239 I-8.476 J2.171
N17500 G1 Y0.454
N17505 X0.071 Y0.878
N17510 X0.081 Y0.907
N17515 X0.09 Y0.935
N17520 X0.099 Y0.964
N17525 X0.107 Y0.993
N17530 X0.115 Y1.022
N17535 X0.125 Y1.058
N17540 X0.136 Y1.1
N17545 X0.147 Y1.144
N17550 X0.159 Y1.191
N17555 X0.171 Y1.24
N17560 X0.182 Y1.289
N17565 X0.194 Y1.34
N17570 X0.205 Y1.392
N17575 X0.216 Y1.446
N17580 X0.227 Y1.501
N17585 X0.238 Y1.557
N17590 X0.249 Y1.614
N17595 X0.26 Y1.674
N17600 X0.27 Y1.734
N17605 X0.28 Y1.797
N17610 X0.29 Y1.861
N17615 X0.3 Y1.927
N17620 X0.31 Y1.999
N17625 X0.321 Y2.077
N17630 X0.338 Y2.21
N17635 X0.359 Y2.387
N17640 X0.38 Y2.578
N17645 X0.402 Y2.783
N17650 X0.423 Y3.005
N17655 X0.445 Y3.245
N17660 X0.466 Y3.506
N17665 X0.488 Y3.795
N17670 X0.509 Y4.115
N17675 X0.531 Y4.474
N17680 X0.553 Y4.885
N17685 X0.572 Y5.314
N17690 X0.589 Y5.743
N17695 X0.603 Y6.173
N17700 X0.615 Y6.602
N17705 X0.626 Y7.031
N17710 X0.635 Y7.461
N17715 X0.642 Y7.89
N17720 X0.649 Y8.32
N17725 X0.654 Y8.749
N17730 X0.659 Y9.179
N17735 X0.663 Y9.608
N17740 X0.667 Y10.038
N17745 X0.67 Y10.467
N17750 X0.672 Y10.897
N17755 X0.674 Y11.326
N17760 X0.676 Y11.756
N17765 X0.678 Y12.185
N17770 X0.68 Y13.044
N17775 X0.682 Y13.903
N17780 X0.684 Y14.762
N17785 X0.685 Y16.051
N17790 X0.686 Y17.769
N17795 X0.687 Y20.346
N17800 Y25.501
N17805 Y39.675
N17810 X0.69 Y40.104
N17815 X0.702 Y40.534
N17820 X0.721 Y40.963
N17825 X0.756 Y41.391
N17830 X0.814 Y41.817
N17835 X0.893 Y42.239
N17840 X1. Y42.655
N17845 X1.139 Y43.061
N17850 X1.305 Y43.457
N17855 X1.509 Y43.835
N17860 X1.746 Y44.193
N17865 X1.88 Y44.361
N17870 X1.916 Y44.401
N17875 X2.207 Y44.718
N17880 X2.528 Y45.003
N17885 X2.874 Y45.257
N17890 X3.242 Y45.478
N17895 X3.627 Y45.668
N17900 X4.024 Y45.833
N17905 X4.429 Y45.975
N17910 X4.841 Y46.097
N17915 X5.257 Y46.203
N17920 X5.677 Y46.293
N17925 X6.1 Y46.371
N17930 X6.524 Y46.438
N17935 X6.95 Y46.495
N17940 X7.376 Y46.544
N17945 X7.804 Y46.587
N17950 X8.232 Y46.623
N17955 X8.66 Y46.654
N17960 X9.089 Y46.68
N17965 X9.518 Y46.703
N17970 X9.947 Y46.723
N17975 X10.376 Y46.739
N17980 X10.806 Y46.754
N17985 X11.235 Y46.766
N17990 X11.664 Y46.776
N17995 X12.094 Y46.785
N18000 X12.523 Y46.793
N18005 X12.953 Y46.8
N18010 X13.382 Y46.805
N18015 X13.812 Y46.81
N18020 X14.241 Y46.814
N18025 X14.671 Y46.818
N18030 X15.1 Y46.821
N18035 X15.53 Y46.823
N18040 X15.959 Y46.825
N18045 X16.389 Y46.827
N18050 X16.818 Y46.829
N18055 X17.677 Y46.831
N18060 X18.536 Y46.833
N18065 X19.395 Y46.835
N18070 X20.684 Y46.836
N18075 X22.402 Y46.837
N18080 X24.979 Y46.838
N18085 X30.134
N18090 X44.308
N18095 X44.737 Y46.832
N18100 X45.167 Y46.818
N18105 X45.596 Y46.795
N18110 X46.023 Y46.751
N18115 X46.447 Y46.685
N18120 X46.868 Y46.599
N18125 X47.281 Y46.479
N18130 X47.683 Y46.33
N18135 X48.074 Y46.151
N18140 X48.444 Y45.933
N18145 X48.795 Y45.686
N18150 X49.119 Y45.404
N18155 X49.411 Y45.089
N18160 X49.674 Y44.749
N18165 X49.902 Y44.385
N18170 X50.099 Y44.004
N18175 X50.27 Y43.61
N18180 X50.417 Y43.206
N18185 X50.544 Y42.796
N18190 X50.653 Y42.38
N18195 X50.747 Y41.961
N18200 X50.828 Y41.539
N18205 X50.897 Y41.115
N18210 X50.956 Y40.69
N18215 X51.007 Y40.263
N18220 X51.051 Y39.836
N18225 X51.089 Y39.408
N18230 X51.121 Y38.98
N18235 X51.149 Y38.551
N18240 X51.172 Y38.122
N18245 X51.192 Y37.693
N18250 X51.21 Y37.264
N18255 X51.225 Y36.835
N18260 X51.237 Y36.406
N18265 X51.248 Y35.976
N18270 X51.257 Y35.547
N18275 X51.265 Y35.117
N18280 X51.272 Y34.688
N18285 X51.278 Y34.258
N18290 X51.283 Y33.829
N18295 X51.287 Y33.399
N18300 X51.291 Y32.97
N18305 X51.294 Y32.54
N18310 X51.297 Y32.111
N18315 X51.299 Y31.681
N18320 X51.301 Y31.252
N18325 X51.303 Y30.822
N18330 X51.304 Y30.393
N18335 X51.306 Y29.534
N18340 X51.308 Y28.675
N18345 X51.31 Y27.386
N18350 X51.311 Y26.097
N18355 X51.312 Y23.95
N18360 Y20.514
N18365 X51.313 Y9.346
N18370 Y7.628
N18375 X51.305 Y7.198
N18380 X51.289 Y6.769
N18385 X51.265 Y6.34
N18390 X51.218 Y5.913
N18395 X51.148 Y5.489
N18400 X51.058 Y5.07
N18405 X50.933 Y4.659
N18410 X50.78 Y4.258
N18415 X50.594 Y3.87
N18420 X50.372 Y3.502
N18425 X50.121 Y3.154
N18430 X49.833 Y2.835
N18435 X49.514 Y2.548
N18440 X49.17 Y2.29
N18445 X48.803 Y2.067
N18450 X48.42 Y1.874
N18455 X48.024 Y1.707
N18460 X47.619 Y1.563
N18465 X47.208 Y1.439
N18470 X46.792 Y1.332
N18475 X46.372 Y1.24
N18480 X45.95 Y1.161
N18485 X45.526 Y1.094
N18490 X45.1 Y1.035
N18495 X44.674 Y0.986
N18500 X44.246 Y0.943
N18505 X43.818 Y0.906
N18510 X43.39 Y0.875
N18515 X42.961 Y0.848
N18520 X42.532 Y0.825
N18525 X42.103 Y0.805
N18530 X41.674 Y0.788
N18535 X41.245 Y0.773
N18540 X40.816 Y0.761
N18545 X40.386 Y0.75
N18550 X39.957 Y0.741
N18555 X39.527 Y0.734
N18560 X39.098 Y0.727
N18565 X38.668 Y0.721
N18570 X38.239 Y0.716
N18575 X37.809 Y0.712
N18580 X37.38 Y0.709
N18585 X36.95 Y0.705
N18590 X36.521 Y0.703
N18595 X36.091 Y0.701
N18600 X35.662 Y0.699
N18605 X35.232 Y0.697
N18610 X34.803 Y0.696
N18615 X33.944 Y0.693
N18620 X33.085 Y0.692
N18625 X31.796 Y0.69
N18630 X30.507 Y0.689
N18635 X28.36 Y0.688
N18640 X24.924
N18645 X13.326 Y0.687
N18650 X7.743
N18655 X7.313 Y0.692
N18660 X6.884 Y0.706
N18665 X6.455 Y0.728
N18670 X6.027 Y0.768
N18675 X5.622 Y0.911
N18680 X5.273 Y1.162
N18685 X4.974 Y1.47
N18690 X4.719 Y1.815
N18695 X4.501 Y2.186
N18700 X4.316 Y2.573
N18705 X4.158 Y2.973
N18710 X4.024 Y3.381
N18715 X3.911 Y3.795
N18720 X3.815 Y4.214
N18725 X3.734 Y4.636
N18730 X3.665 Y5.06
N18735 X3.607 Y5.485
N18740 X3.559 Y5.912
N18745 X3.518 Y6.339
N18750 X3.483 Y6.768
N18755 X3.454 Y7.196
N18760 X3.429 Y7.625
N18765 X3.409 Y8.054
N18770 X3.392 Y8.483
N18775 X3.377 Y8.912
N18780 X3.365 Y9.342
N18785 X3.355 Y9.771
N18790 X3.346 Y10.201
N18795 X3.339 Y10.63
N18800 X3.333 Y11.06
N18805 X3.328 Y11.489
N18810 X3.324 Y11.919
N18815 X3.32 Y12.348
N18820 X3.318 Y12.778
N18825 X3.315 Y13.207
N18830 X3.313 Y13.637
N18835 X3.311 Y14.066
N18840 X3.31 Y14.496
N18845 X3.308 Y15.355
N18850 X3.306 Y16.214
N18855 X3.305 Y17.502
N18860 X3.304 Y19.221
N18865 Y20.509
N18870 X3.303 Y24.804
N18875 Y36.831
N18880 Y37.261
N18885 X3.304 Y37.69
N18890 X3.308 Y38.12
N18895 X3.315 Y38.549
N18900 X3.331 Y38.978
N18905 X3.36 Y39.407
N18910 X3.386 Y39.62
N18915 X3.395 Y39.673
N18920 X3.399 Y39.699
N18925 G3 X2.552 Y40.325 I-0.594 J0.081
N18930 G1 X2.492 Y40.282 Z-0.494
N18935 X2.433 Y40.24 Z-0.481
N18940 X2.375 Y40.2 Z-0.458
N18945 X2.331 Y40.134 Z-0.42
N18950 X2.291 Y40.073 Z-0.37
N18955 X2.254 Y40.019 Z-0.311
N18960 X2.24 Y39.971 Z-0.249
N18965 X2.228 Y39.93 Z-0.181
N18970 X2.219 Y39.899 Z-0.109
N18975 X2.213 Y39.877 Z-0.032
N18980 X2.211 Y39.866 Z0.034
N18985 Y39.862 Z0.101
N18990 G0 Z5.
N18995 X25.775 Y25.385
N19000 Z2.101
N19005 G1 Z1.501 F100.
N19010 G3 X30.544 Y22.262 Z0.402 I2.384 J-1.562
N19015 X25.775 Y25.385 Z-0.698 I-2.384 J1.562
N19020 X30.544 Y22.262 Z-1.797 I2.384 J-1.562
N19025 X31.01 Y23.824 Z-2. I-2.384 J1.562
N19030 X25.31 I-2.85 J0.
N19035 X30.991 Y23.496 I2.85 J0.
N19040 X31.01 Y23.824 I-2.831 J0.327
N19045 G1 Y24.038
N19050 X31.044 Y24.25
N19055 X31.175 Y24.659
N19060 X31.186 Y24.679
N19065 X31.227 Y24.759
N19070 X31.265 Y24.852
N19075 X31.299 Y24.958
N19080 X31.327 Y25.077
N19085 X31.347 Y25.209
N19090 X31.357 Y25.353
N19095 X31.356 Y25.508
N19100 X31.341 Y25.673
N19105 X31.311 Y25.848
N19110 X31.264 Y26.03
N19115 X31.199 Y26.219
N19120 X31.115 Y26.411
N19125 X31.011 Y26.606
N19130 X30.886 Y26.8
N19135 X30.74 Y26.991
N19140 X30.572 Y27.178
N19145 X30.383 Y27.356
N19150 X30.173 Y27.525
N19155 X29.943 Y27.681
N19160 X29.694 Y27.822
N19165 X29.428 Y27.946
N19170 X29.146 Y28.051
N19175 X28.851 Y28.135
N19180 X28.543 Y28.195
N19185 X28.226 Y28.232
N19190 X27.902 Y28.243
N19195 X27.574 Y28.228
N19200 X27.244 Y28.186
N19205 X26.914 Y28.117
N19210 X26.588 Y28.02
N19215 X26.267 Y27.897
N19220 X25.955 Y27.747
N19225 X25.654 Y27.572
N19230 X25.367 Y27.371
N19235 X25.094 Y27.147
N19240 X24.84 Y26.901
N19245 X24.605 Y26.633
N19250 X24.391 Y26.347
N19255 X24.201 Y26.044
N19260 X24.035 Y25.725
N19265 X23.895 Y25.393
N19270 X23.781 Y25.05
N19275 X23.695 Y24.699
N19280 X23.638 Y24.341
N19285 X23.61 Y23.98
N19290 Y23.616
N19295 X23.64 Y23.254
N19300 X23.699 Y22.894
N19305 X23.787 Y22.541
N19310 X23.902 Y22.195
N19315 X24.046 Y21.859
N19320 X24.215 Y21.536
N19325 X24.411 Y21.227
N19330 X24.63 Y20.935
N19335 X24.873 Y20.661
N19340 X25.136 Y20.408
N19345 X25.42 Y20.176
N19350 X25.721 Y19.968
N19355 X26.038 Y19.785
N19360 X26.368 Y19.628
N19365 X26.71 Y19.497
N19370 X27.062 Y19.395
N19375 X27.421 Y19.321
N19380 X27.784 Y19.276
N19385 X28.15 Y19.261
N19390 X28.516 Y19.274
N19395 X28.88 Y19.318
N19400 X29.239 Y19.39
N19405 X29.591 Y19.491
N19410 X29.935 Y19.62
N19415 X30.266 Y19.775
N19420 X30.584 Y19.958
N19425 X30.887 Y20.165
N19430 X31.171 Y20.395
N19435 X31.437 Y20.648
N19440 X31.681 Y20.921
N19445 X31.903 Y21.213
N19450 X32.134 Y21.575
N19455 X32.344 Y21.95
N19460 X32.54 Y22.332
N19465 X32.72 Y22.722
N19470 X32.877 Y23.122
N19475 X33.008 Y23.531
N19480 X33.11 Y23.948
N19485 X33.179 Y24.369
N19490 X33.212 Y24.779
N19495 X33.213 Y25.18
N19500 X33.182 Y25.574
N19505 X33.119 Y25.961
N19510 X33.026 Y26.342
N19515 X32.902 Y26.716
N19520 X32.748 Y27.08
N19525 X32.564 Y27.433
N19530 X32.35 Y27.773
N19535 X32.107 Y28.099
N19540 X31.835 Y28.407
N19545 X31.536 Y28.696
N19550 X31.211 Y28.964
N19555 X30.861 Y29.208
N19560 X30.489 Y29.424
N19565 X30.102 Y29.61
N19570 X29.702 Y29.765
N19575 X29.29 Y29.889
N19580 X28.871 Y29.981
N19585 X28.446 Y30.041
N19590 X28.017 Y30.07
N19595 X27.588 Y30.067
N19600 X27.159 Y30.032
N19605 X26.735 Y29.966
N19610 X26.316 Y29.87
N19615 X25.906 Y29.744
N19620 X25.505 Y29.589
N19625 X25.116 Y29.407
N19630 X24.741 Y29.198
N19635 X24.381 Y28.963
N19640 X24.039 Y28.703
N19645 X23.716 Y28.421
N19650 X23.413 Y28.116
N19655 X23.131 Y27.792
N19660 X22.872 Y27.45
N19665 X22.636 Y27.09
N19670 X22.427 Y26.716
N19675 X22.243 Y26.327
N19680 X22.086 Y25.927
N19685 X21.956 Y25.518
N19690 X21.854 Y25.101
N19695 X21.78 Y24.678
N19700 X21.735 Y24.251
N19705 X21.719 Y23.821
N19710 X21.732 Y23.392
N19715 X21.773 Y22.965
N19720 X21.843 Y22.541
N19725 X21.941 Y22.122
N19730 X22.067 Y21.712
N19735 X22.22 Y21.311
N19740 X22.4 Y20.921
N19745 X22.606 Y20.543
N19750 X22.835 Y20.18
N19755 X23.089 Y19.834
N19760 X23.365 Y19.505
N19765 X23.663 Y19.195
N19770 X23.981 Y18.906
N19775 X24.317 Y18.639
N19780 X24.67 Y18.394
N19785 X25.038 Y18.173
N19790 X25.421 Y17.978
N19795 X25.816 Y17.809
N19800 X26.221 Y17.666
N19805 X26.635 Y17.551
N19810 X27.055 Y17.463
N19815 X27.48 Y17.403
N19820 X27.909 Y17.372
N19825 X28.338 Y17.37
N19830 X28.767 Y17.396
N19835 X29.193 Y17.45
N19840 X29.615 Y17.533
N19845 X30.03 Y17.643
N19850 X30.436 Y17.781
N19855 X30.833 Y17.946
N19860 X31.218 Y18.137
N19865 X31.589 Y18.353
N19870 X31.946 Y18.593
N19875 X32.285 Y18.856
N19880 X32.607 Y19.14
N19885 X32.912 Y19.442
N19890 X33.201 Y19.761
N19895 X33.472 Y20.093
N19900 X33.727 Y20.439
N19905 X33.964 Y20.797
N19910 X34.182 Y21.168
N19915 X34.381 Y21.548
N19920 X34.56 Y21.939
N19925 X34.718 Y22.338
N19930 X34.853 Y22.746
N19935 X34.965 Y23.16
N19940 X35.055 Y23.581
N19945 X35.119 Y24.005
N19950 X35.158 Y24.433
N19955 X35.172 Y24.862
N19960 X35.16 Y25.292
N19965 X35.123 Y25.719
N19970 X35.059 Y26.144
N19975 X34.969 Y26.564
N19980 X34.854 Y26.978
N19985 X34.715 Y27.384
N19990 X34.55 Y27.781
N19995 X34.361 Y28.167
N20000 X34.149 Y28.54
N20005 X33.915 Y28.901
N20010 X33.659 Y29.246
N20015 X33.383 Y29.575
N20020 X33.088 Y29.887
N20025 X32.775 Y30.181
N20030 X32.444 Y30.455
N20035 X32.098 Y30.709
N20040 X31.738 Y30.943
N20045 X31.365 Y31.156
N20050 X30.979 Y31.346
N20055 X30.584 Y31.513
N20060 X30.179 Y31.658
N20065 X29.768 Y31.78
N20070 X29.349 Y31.877
N20075 X28.926 Y31.951
N20080 X28.5 Y32.002
N20085 X28.071 Y32.029
N20090 X27.641 Y32.031
N20095 X27.212 Y32.01
N20100 X26.785 Y31.966
N20105 X26.361 Y31.898
N20110 X25.941 Y31.807
N20115 X25.527 Y31.694
N20120 X25.119 Y31.559
N20125 X24.719 Y31.402
N20130 X24.329 Y31.224
N20135 X23.948 Y31.025
N20140 X23.578 Y30.806
N20145 X23.221 Y30.568
N20150 X22.876 Y30.311
N20155 X22.546 Y30.037
N20160 X22.23 Y29.746
N20165 X21.93 Y29.439
N20170 X21.646 Y29.116
N20175 X21.38 Y28.779
N20180 X21.132 Y28.428
N20185 X20.902 Y28.065
N20190 X20.691 Y27.691
N20195 X20.5 Y27.306
N20200 X20.329 Y26.912
N20205 X20.179 Y26.51
N20210 X20.049 Y26.101
N20215 X19.941 Y25.685
N20220 X19.855 Y25.264
N20225 X19.79 Y24.839
N20230 X19.747 Y24.412
N20235 X19.726 Y23.983
N20240 X19.727 Y23.554
N20245 X19.75 Y23.125
N20250 X19.795 Y22.697
N20255 X19.862 Y22.273
N20260 X19.95 Y21.853
N20265 X20.06 Y21.438
N20270 X20.191 Y21.028
N20275 X20.342 Y20.626
N20280 X20.514 Y20.233
N20285 X20.706 Y19.849
N20290 X20.917 Y19.474
N20295 X21.146 Y19.111
N20300 X21.394 Y18.761
N20305 X21.66 Y18.423
N20310 X21.942 Y18.1
N20315 X22.241 Y17.79
N20320 X22.555 Y17.497
N20325 X22.883 Y17.221
N20330 X23.225 Y16.961
N20335 X23.58 Y16.718
N20340 X23.946 Y16.495
N20345 X24.324 Y16.29
N20350 X24.712 Y16.105
N20355 X25.108 Y15.939
N20360 X25.512 Y15.794
N20365 X25.923 Y15.67
N20370 X26.34 Y15.567
N20375 X26.762 Y15.485
N20380 X27.187 Y15.424
N20385 X27.615 Y15.386
N20390 X28.044 Y15.369
N20395 X28.474 Y15.374
N20400 X28.902 Y15.4
N20405 X29.329 Y15.449
N20410 X29.753 Y15.519
N20415 X30.173 Y15.611
N20420 X30.587 Y15.723
N20425 X30.995 Y15.857
N20430 X31.396 Y16.011
N20435 X31.789 Y16.186
N20440 X32.172 Y16.379
N20445 X32.545 Y16.592
N20450 X32.908 Y16.822
N20455 X33.259 Y17.069
N20460 X33.598 Y17.333
N20465 X33.926 Y17.611
N20470 X34.24 Y17.904
N20475 X34.541 Y18.21
N20480 X34.829 Y18.529
N20485 X35.102 Y18.861
N20490 X35.361 Y19.203
N20495 X35.605 Y19.557
N20500 X35.833 Y19.92
N20505 X36.046 Y20.294
N20510 X36.242 Y20.676
N20515 X36.421 Y21.066
N20520 X36.583 Y21.464
N20525 X36.727 Y21.869
N20530 X36.853 Y22.279
N20535 X36.961 Y22.695
N20540 X37.049 Y23.115
N20545 X37.119 Y23.539
N20550 X37.169 Y23.966
N20555 X37.199 Y24.394
N20560 X37.21 Y24.824
N20565 X37.201 Y25.253
N20570 X37.171 Y25.682
N20575 X37.122 Y26.108
N20580 X37.053 Y26.532
N20585 X36.964 Y26.953
N20590 X36.855 Y27.368
N20595 X36.727 Y27.778
N20600 X36.579 Y28.181
N20605 X36.414 Y28.578
N20610 X36.229 Y28.966
N20615 X36.026 Y29.344
N20620 X35.806 Y29.713
N20625 X35.569 Y30.071
N20630 X35.315 Y30.418
N20635 X35.046 Y30.752
N20640 X34.76 Y31.073
N20645 X34.461 Y31.381
N20650 X34.147 Y31.675
N20655 X33.821 Y31.953
N20660 X33.481 Y32.217
N20665 X33.13 Y32.464
N20670 X32.768 Y32.695
N20675 X32.396 Y32.91
N20680 X32.014 Y33.107
N20685 X31.624 Y33.286
N20690 X31.226 Y33.448
N20695 X30.821 Y33.592
N20700 X30.411 Y33.718
N20705 X29.995 Y33.825
N20710 X29.574 Y33.913
N20715 X29.15 Y33.982
N20720 X28.724 Y34.033
N20725 X28.296 Y34.065
N20730 X27.866 Y34.079
N20735 X27.437 Y34.073
N20740 X27.008 Y34.048
N20745 X26.581 Y34.005
N20750 X26.155 Y33.944
N20755 X25.733 Y33.864
N20760 X25.315 Y33.766
N20765 X24.902 Y33.649
N20770 X24.493 Y33.516
N20775 X24.091 Y33.365
N20780 X23.696 Y33.197
N20785 X23.308 Y33.012
N20790 X22.929 Y32.811
N20795 X22.558 Y32.595
N20800 X22.196 Y32.362
N20805 X21.845 Y32.115
N20810 X21.505 Y31.853
N20815 X21.176 Y31.577
N20820 X20.859 Y31.287
N20825 X20.554 Y30.985
N20830 X20.262 Y30.669
N20835 X19.984 Y30.342
N20840 X19.72 Y30.003
N20845 X19.47 Y29.654
N20850 X19.234 Y29.295
N20855 X19.014 Y28.926
N20860 X18.809 Y28.549
N20865 X18.621 Y28.163
N20870 X18.448 Y27.77
N20875 X18.291 Y27.37
N20880 X18.152 Y26.963
N20885 X18.029 Y26.552
N20890 X17.924 Y26.135
N20895 X17.836 Y25.715
N20900 X17.765 Y25.291
N20905 X17.711 Y24.865
N20910 X17.676 Y24.437
N20915 X17.658 Y24.008
N20920 X17.657 Y23.578
N20925 X17.674 Y23.149
N20930 X17.709 Y22.721
N20935 X17.762 Y22.295
N20940 X17.832 Y21.871
N20945 X17.919 Y21.45
N20950 X18.023 Y21.034
N20955 X18.145 Y20.622
N20960 X18.283 Y20.215
N20965 X18.438 Y19.814
N20970 X18.609 Y19.42
N20975 X18.796 Y19.034
N20980 X18.998 Y18.655
N20985 X19.217 Y18.285
N20990 X19.45 Y17.924
N20995 X19.697 Y17.573
N21000 X19.959 Y17.233
N21005 X20.234 Y16.903
N21010 X20.523 Y16.585
N21015 X20.825 Y16.279
N21020 X21.138 Y15.986
N21025 X21.464 Y15.705
N21030 X21.8 Y15.438
N21035 X22.148 Y15.186
N21040 X22.505 Y14.948
N21045 X22.872 Y14.724
N21050 X23.247 Y14.515
N21055 X23.631 Y14.322
N21060 X24.022 Y14.145
N21065 X24.421 Y13.985
N21070 X24.825 Y13.84
N21075 X25.235 Y13.712
N21080 X25.65 Y13.601
N21085 X26.069 Y13.507
N21090 X26.492 Y13.43
N21095 X26.917 Y13.371
N21100 X27.345 Y13.328
N21105 X27.773 Y13.303
N21110 X28.203 Y13.296
N21115 X28.632 Y13.307
N21120 X29.061 Y13.335
N21125 X29.488 Y13.38
N21130 X29.913 Y13.443
N21135 X30.335 Y13.523
N21140 X30.753 Y13.62
N21145 X31.167 Y13.735
N21150 X31.576 Y13.865
N21155 X31.98 Y14.012
N21160 X32.377 Y14.175
N21165 X32.768 Y14.354
N21170 X33.151 Y14.549
N21175 X33.526 Y14.758
N21180 X33.893 Y14.981
N21185 X34.252 Y15.218
N21190 X34.6 Y15.468
N21195 X34.94 Y15.732
N21200 X35.269 Y16.008
N21205 X35.587 Y16.295
N21210 X35.896 Y16.595
N21215 X36.193 Y16.905
N21220 X36.478 Y17.226
N21225 X36.751 Y17.558
N21230 X37.012 Y17.899
N21235 X37.261 Y18.249
N21240 X37.497 Y18.607
N21245 X37.72 Y18.975
N21250 X37.929 Y19.35
N21255 X38.125 Y19.732
N21260 X38.306 Y20.122
N21265 X38.473 Y20.517
N21270 X38.626 Y20.919
N21275 X38.764 Y21.326
N21280 X38.886 Y21.737
N21285 X38.993 Y22.153
N21290 X39.085 Y22.573
N21295 X39.162 Y22.996
N21300 X39.222 Y23.421
N21305 X39.266 Y23.848
N21310 X39.294 Y24.277
N21315 X39.307 Y24.706
N21320 X39.303 Y25.135
N21325 X39.283 Y25.565
N21330 X39.246 Y25.993
N21335 X39.193 Y26.419
N21340 X39.125 Y26.843
N21345 X39.04 Y27.264
N21350 X38.939 Y27.681
N21355 X38.823 Y28.095
N21360 X38.69 Y28.503
N21365 X38.542 Y28.907
N21370 X38.379 Y29.304
