%
(1)
(T5  D=4. CR=0. - ZMIN=-8.498 - FLAT END MILL)
N10 G90 G94 G17 G91.1
N15 G21
N20 G53 G0 Z0.
(ADAPTIVE2)
N25 M9
N30 T5 M6
N35 S2500 M3
N40 G54
N45 M8
N55 G0 X-31.001 Y-30.648
N60 G43 Z15. H5
N65 G0 Z5.
N70 Z-1.2
N75 G1 Z-1.6 F1257.88
N80 X-30.994 Y-30.644 Z-1.678
N85 X-30.974 Y-30.633 Z-1.753
N90 X-30.943 Y-30.614 Z-1.822
N95 X-30.9 Y-30.588 Z-1.883
N100 X-30.848 Y-30.557 Z-1.933
N105 X-30.788 Y-30.522 Z-1.97
N110 X-30.724 Y-30.484 Z-1.992
N115 X-30.656 Y-30.444 Z-2.
N120 G3 X-29.65 Y-29.691 I-2.972 J5.019
N125 G1 X-29.637 Y-29.678 F500.
N130 X-29.619 Y-29.654
N135 X-29.602 Y-29.63
N140 X-29.584 Y-29.605
N145 X-29.567 Y-29.58
N150 X-29.55 Y-29.556
N155 X-29.534 Y-29.531
N160 X-29.518 Y-29.505
N165 X-29.502 Y-29.48
N170 X-29.486 Y-29.454
N175 X-29.471 Y-29.429
N180 X-29.455 Y-29.403
N185 X-29.44 Y-29.377
N190 X-29.426 Y-29.351
N195 X-29.411 Y-29.324
N200 X-29.397 Y-29.298
N205 X-29.383 Y-29.271
N210 X-29.369 Y-29.245
N215 X-29.356 Y-29.218
N220 X-29.343 Y-29.191
N225 X-29.329 Y-29.164
N230 X-29.317 Y-29.137
N235 X-29.304 Y-29.11
N240 X-29.291 Y-29.082
N245 X-29.279 Y-29.054
N250 X-29.266 Y-29.026
N255 X-29.254 Y-28.996
N260 X-29.241 Y-28.966
N265 X-29.228 Y-28.936
N270 X-29.215 Y-28.904
N275 X-29.202 Y-28.872
N280 X-29.19 Y-28.838
N285 X-29.177 Y-28.804
N290 X-29.164 Y-28.769
N295 X-29.151 Y-28.733
N300 X-29.137 Y-28.696
N305 X-29.124 Y-28.658
N310 X-29.111 Y-28.619
N315 X-29.098 Y-28.579
N320 X-29.084 Y-28.538
N325 X-29.071 Y-28.495
N330 X-29.058 Y-28.451
N335 X-29.044 Y-28.406
N340 X-29.031 Y-28.36
N345 X-29.017 Y-28.312
N350 X-29.004 Y-28.262
N355 X-28.99 Y-28.211
N360 X-28.977 Y-28.159
N365 X-28.963 Y-28.104
N370 X-28.949 Y-28.047
N375 X-28.935 Y-27.989
N380 X-28.922 Y-27.928
N385 X-28.908 Y-27.865
N390 X-28.894 Y-27.8
N395 X-28.88 Y-27.732
N400 X-28.866 Y-27.661
N405 X-28.852 Y-27.587
N410 X-28.838 Y-27.51
N415 X-28.824 Y-27.429
N420 X-28.81 Y-27.345
N425 X-28.796 Y-27.256
N430 X-28.782 Y-27.163
N435 X-28.768 Y-27.064
N440 X-28.753 Y-26.96
N445 X-28.739 Y-26.85
N450 X-28.725 Y-26.733
N455 X-28.711 Y-26.607
N460 X-28.696 Y-26.473
N465 X-28.682 Y-26.329
N470 X-28.668 Y-26.173
N475 X-28.653 Y-26.002
N480 X-28.639 Y-25.815
N485 X-28.625 Y-25.608
N490 X-28.61 Y-25.377
N495 X-28.596 Y-25.113
N500 X-28.581 Y-24.809
N505 X-28.567 Y-24.448
N510 X-28.555 Y-24.085
N515 X-28.545 Y-23.722
N520 X-28.537 Y-23.359
N525 X-28.531 Y-22.997
N530 X-28.526 Y-22.634
N535 X-28.521 Y-22.271
N540 X-28.518 Y-21.908
N545 X-28.515 Y-21.545
N550 X-28.513 Y-21.182
N555 X-28.511 Y-20.819
N560 X-28.509 Y-20.456
N565 X-28.508 Y-20.093
N570 X-28.506 Y-19.368
N575 X-28.505 Y-18.642
N580 X-28.503 Y-17.553
N585 Y-16.101
N590 X-28.502 Y-13.198
N595 Y-8.508
N600 X-28.507 Y-8.414
N605 X-28.521 Y-8.321
N610 X-28.544 Y-8.23
N615 X-28.793 Y-7.433
N620 X-28.829 Y-7.313
N625 X-28.865 Y-7.193
N630 X-28.894 Y-7.072
N635 X-28.919 Y-6.954
N640 X-28.943 Y-6.834
N645 X-29.47 Y-3.956
N650 X-29.493 Y-3.826
N655 X-29.512 Y-3.717
N660 X-29.53 Y-3.597
N665 X-29.541 Y-3.477
N670 X-29.552 Y-3.357
N675 X-29.733 Y-0.358
N680 X-29.74 Y-0.24
N685 X-29.747 Y-0.12
N690 Y0.12
N695 X-29.74 Y0.24
N700 X-29.689 Y1.079
N705 X-29.552 Y3.357
N710 X-29.541 Y3.477
N715 X-29.53 Y3.597
N720 X-29.512 Y3.717
N725 X-29.491 Y3.837
N730 X-29.47 Y3.956
N735 X-28.986 Y6.594
N740 X-28.939 Y6.954
N745 X-28.925 Y7.014
N750 X-28.911 Y7.076
N755 X-28.898 Y7.141
N760 X-28.884 Y7.208
N765 X-28.87 Y7.278
N770 X-28.856 Y7.352
N775 X-28.842 Y7.428
N780 X-28.828 Y7.508
N785 X-28.814 Y7.591
N790 X-28.8 Y7.679
N795 X-28.785 Y7.771
N800 X-28.771 Y7.868
N805 X-28.757 Y7.97
N810 X-28.743 Y8.079
N815 X-28.729 Y8.194
N820 X-28.714 Y8.317
N825 X-28.7 Y8.449
N830 X-28.686 Y8.59
N835 X-28.672 Y8.743
N840 X-28.657 Y8.91
N845 X-28.643 Y9.092
N850 X-28.628 Y9.293
N855 X-28.614 Y9.518
N860 X-28.6 Y9.772
N865 X-28.585 Y10.065
N870 X-28.571 Y10.409
N875 X-28.558 Y10.772
N880 X-28.548 Y11.134
N885 X-28.539 Y11.497
N890 X-28.533 Y11.86
N895 X-28.527 Y12.223
N900 X-28.522 Y12.586
N905 X-28.519 Y12.949
N910 X-28.516 Y13.312
N915 X-28.513 Y13.675
N920 X-28.511 Y14.038
N925 X-28.509 Y14.4
N930 X-28.508 Y14.763
N935 X-28.507 Y15.126
N940 X-28.505 Y15.852
N945 X-28.504 Y16.578
N950 X-28.503 Y17.667
N955 Y19.481
N960 X-28.502 Y23.11
N965 Y26.376
N970 X-28.418 Y26.729
N975 X-28.218 Y27.033
N980 X-27.96 Y27.288
N985 X-27.667 Y27.501
N990 X-27.35 Y27.678
N995 X-27.018 Y27.825
N1000 X-26.676 Y27.946
N1005 X-26.327 Y28.046
N1010 X-25.974 Y28.128
N1015 X-25.617 Y28.196
N1020 X-25.258 Y28.251
N1025 X-24.898 Y28.297
N1030 X-24.537 Y28.334
N1035 X-24.176 Y28.365
N1040 X-23.814 Y28.39
N1045 X-23.451 Y28.41
N1050 X-23.089 Y28.427
N1055 X-22.726 Y28.441
N1060 X-22.363 Y28.452
N1065 X-22.001 Y28.461
N1070 X-21.638 Y28.469
N1075 X-21.275 Y28.475
N1080 X-20.912 Y28.48
N1085 X-20.549 Y28.484
N1090 X-20.186 Y28.487
N1095 X-19.823 Y28.49
N1100 X-19.46 Y28.492
N1105 X-19.097 Y28.494
N1110 X-18.735 Y28.495
N1115 X-18.372 Y28.497
N1120 X-17.646 Y28.498
N1125 X-16.92 Y28.5
N1130 X-15.831 Y28.501
N1135 X-14.38
N1140 X-11.476 Y28.502
N1145 X-8.508
N1150 X-8.414 Y28.507
N1155 X-8.321 Y28.521
N1160 X-8.23 Y28.544
N1165 X-7.433 Y28.793
N1170 X-7.313 Y28.829
N1175 X-7.193 Y28.865
N1180 X-7.072 Y28.894
N1185 X-6.954 Y28.919
N1190 X-6.834 Y28.943
N1195 X-3.956 Y29.47
N1200 X-3.826 Y29.493
N1205 X-3.717 Y29.512
N1210 X-3.597 Y29.53
N1215 X-3.477 Y29.541
N1220 X-3.357 Y29.552
N1225 X-0.358 Y29.733
N1230 X-0.24 Y29.74
N1235 X-0.12 Y29.747
N1240 X0.12
N1245 X0.24 Y29.74
N1250 X1.079 Y29.689
N1255 X3.357 Y29.552
N1260 X3.477 Y29.541
N1265 X3.597 Y29.53
N1270 X3.717 Y29.512
N1275 X3.837 Y29.491
N1280 X3.956 Y29.47
N1285 X6.594 Y28.986
N1290 X6.954 Y28.939
N1295 X7.014 Y28.925
N1300 X7.076 Y28.911
N1305 X7.141 Y28.898
N1310 X7.208 Y28.884
N1315 X7.278 Y28.87
N1320 X7.352 Y28.856
N1325 X7.428 Y28.842
N1330 X7.508 Y28.828
N1335 X7.591 Y28.814
N1340 X7.679 Y28.8
N1345 X7.771 Y28.785
N1350 X7.868 Y28.771
N1355 X7.97 Y28.757
N1360 X8.079 Y28.743
N1365 X8.194 Y28.729
N1370 X8.317 Y28.714
N1375 X8.449 Y28.7
N1380 X8.59 Y28.686
N1385 X8.743 Y28.672
N1390 X8.91 Y28.657
N1395 X9.092 Y28.643
N1400 X9.293 Y28.628
N1405 X9.518 Y28.614
N1410 X9.772 Y28.6
N1415 X10.065 Y28.585
N1420 X10.409 Y28.571
N1425 X10.772 Y28.558
N1430 X11.134 Y28.548
N1435 X11.497 Y28.539
N1440 X11.86 Y28.533
N1445 X12.223 Y28.527
N1450 X12.586 Y28.522
N1455 X12.949 Y28.519
N1460 X13.312 Y28.516
N1465 X13.675 Y28.513
N1470 X14.038 Y28.511
N1475 X14.4 Y28.509
N1480 X14.763 Y28.508
N1485 X15.126 Y28.507
N1490 X15.852 Y28.505
N1495 X16.578 Y28.504
N1500 X17.667 Y28.503
N1505 X19.481
N1510 X23.11 Y28.502
N1515 X26.376
N1520 X26.729 Y28.418
N1525 X27.033 Y28.218
N1530 X27.288 Y27.96
N1535 X27.501 Y27.667
N1540 X27.678 Y27.35
N1545 X27.825 Y27.018
N1550 X27.946 Y26.676
N1555 X28.046 Y26.327
N1560 X28.128 Y25.974
N1565 X28.196 Y25.617
N1570 X28.251 Y25.258
N1575 X28.297 Y24.898
N1580 X28.334 Y24.537
N1585 X28.365 Y24.176
N1590 X28.39 Y23.814
N1595 X28.41 Y23.451
N1600 X28.427 Y23.089
N1605 X28.441 Y22.726
N1610 X28.452 Y22.363
N1615 X28.461 Y22.001
N1620 X28.469 Y21.638
N1625 X28.475 Y21.275
N1630 X28.48 Y20.912
N1635 X28.484 Y20.549
N1640 X28.487 Y20.186
N1645 X28.49 Y19.823
N1650 X28.492 Y19.46
N1655 X28.494 Y19.097
N1660 X28.495 Y18.735
N1665 X28.497 Y18.372
N1670 X28.498 Y17.646
N1675 X28.5 Y16.92
N1680 X28.501 Y15.831
N1685 Y14.38
N1690 X28.502 Y11.476
N1695 Y8.508
N1700 X28.507 Y8.414
N1705 X28.521 Y8.321
N1710 X28.544 Y8.23
N1715 X28.83 Y7.313
N1720 X28.866 Y7.193
N1725 X28.894 Y7.082
N1730 X28.896 Y7.074
N1735 X28.921 Y6.954
N1740 X29.47 Y3.956
N1745 X29.493 Y3.826
N1750 X29.512 Y3.717
N1755 X29.53 Y3.597
N1760 X29.541 Y3.477
N1765 X29.552 Y3.357
N1770 X29.74 Y0.24
N1775 X29.747 Y0.12
N1780 Y-0.12
N1785 X29.74 Y-0.24
N1790 X29.552 Y-3.357
N1795 X29.544 Y-3.477
N1800 X29.531 Y-3.597
N1805 X29.514 Y-3.717
N1810 X29.426 Y-4.196
N1815 X28.986 Y-6.594
N1820 X28.939 Y-6.954
N1825 X28.925 Y-7.014
N1830 X28.911 Y-7.076
N1835 X28.898 Y-7.141
N1840 X28.884 Y-7.208
N1845 X28.87 Y-7.278
N1850 X28.856 Y-7.352
N1855 X28.842 Y-7.428
N1860 X28.828 Y-7.508
N1865 X28.814 Y-7.591
N1870 X28.8 Y-7.679
N1875 X28.785 Y-7.771
N1880 X28.771 Y-7.868
N1885 X28.757 Y-7.97
N1890 X28.743 Y-8.079
N1895 X28.729 Y-8.194
N1900 X28.714 Y-8.317
N1905 X28.7 Y-8.449
N1910 X28.686 Y-8.59
N1915 X28.672 Y-8.743
N1920 X28.657 Y-8.91
N1925 X28.643 Y-9.092
N1930 X28.628 Y-9.293
N1935 X28.614 Y-9.518
N1940 X28.6 Y-9.772
N1945 X28.585 Y-10.065
N1950 X28.571 Y-10.409
N1955 X28.558 Y-10.772
N1960 X28.548 Y-11.134
N1965 X28.539 Y-11.497
N1970 X28.533 Y-11.86
N1975 X28.527 Y-12.223
N1980 X28.522 Y-12.586
N1985 X28.519 Y-12.949
N1990 X28.516 Y-13.312
N1995 X28.513 Y-13.675
N2000 X28.511 Y-14.038
N2005 X28.509 Y-14.4
N2010 X28.508 Y-14.763
N2015 X28.507 Y-15.126
N2020 X28.505 Y-15.852
N2025 X28.504 Y-16.578
N2030 X28.503 Y-17.667
N2035 Y-19.481
N2040 X28.502 Y-23.11
N2045 Y-26.376
N2050 X28.418 Y-26.729
N2055 X28.218 Y-27.033
N2060 X27.96 Y-27.288
N2065 X27.667 Y-27.501
N2070 X27.35 Y-27.678
N2075 X27.018 Y-27.825
N2080 X26.676 Y-27.946
N2085 X26.327 Y-28.046
N2090 X25.974 Y-28.128
N2095 X25.617 Y-28.196
N2100 X25.258 Y-28.251
N2105 X24.898 Y-28.297
N2110 X24.537 Y-28.334
N2115 X24.176 Y-28.365
N2120 X23.814 Y-28.39
N2125 X23.451 Y-28.41
N2130 X23.089 Y-28.427
N2135 X22.726 Y-28.441
N2140 X22.363 Y-28.452
N2145 X22.001 Y-28.461
N2150 X21.638 Y-28.469
N2155 X21.275 Y-28.475
N2160 X20.912 Y-28.48
N2165 X20.549 Y-28.484
N2170 X20.186 Y-28.487
N2175 X19.823 Y-28.49
N2180 X19.46 Y-28.492
N2185 X19.097 Y-28.494
N2190 X18.735 Y-28.495
N2195 X18.372 Y-28.497
N2200 X17.646 Y-28.498
N2205 X16.92 Y-28.5
N2210 X15.831 Y-28.501
N2215 X14.38
N2220 X11.476 Y-28.502
N2225 X8.508
N2230 X8.414 Y-28.507
N2235 X8.321 Y-28.521
N2240 X8.23 Y-28.544
N2245 X7.313 Y-28.83
N2250 X7.193 Y-28.866
N2255 X7.082 Y-28.894
N2260 X7.074 Y-28.896
N2265 X6.954 Y-28.921
N2270 X3.956 Y-29.47
N2275 X3.826 Y-29.493
N2280 X3.717 Y-29.512
N2285 X3.597 Y-29.53
N2290 X3.477 Y-29.541
N2295 X3.357 Y-29.552
N2300 X0.358 Y-29.733
N2305 X0.24 Y-29.74
N2310 X0.12 Y-29.747
N2315 X-0.12
N2320 X-0.24 Y-29.74
N2325 X-1.079 Y-29.689
N2330 X-3.357 Y-29.552
N2335 X-3.477 Y-29.544
N2340 X-3.597 Y-29.531
N2345 X-3.717 Y-29.514
N2350 X-4.196 Y-29.426
N2355 X-6.594 Y-28.986
N2360 X-6.954 Y-28.939
N2365 X-7.014 Y-28.925
N2370 X-7.076 Y-28.911
N2375 X-7.141 Y-28.898
N2380 X-7.208 Y-28.884
N2385 X-7.278 Y-28.87
N2390 X-7.352 Y-28.856
N2395 X-7.428 Y-28.842
N2400 X-7.508 Y-28.828
N2405 X-7.591 Y-28.814
N2410 X-7.679 Y-28.8
N2415 X-7.771 Y-28.785
N2420 X-7.868 Y-28.771
N2425 X-7.97 Y-28.757
N2430 X-8.079 Y-28.743
N2435 X-8.194 Y-28.729
N2440 X-8.317 Y-28.714
N2445 X-8.449 Y-28.7
N2450 X-8.59 Y-28.686
N2455 X-8.743 Y-28.672
N2460 X-8.91 Y-28.657
N2465 X-9.092 Y-28.643
N2470 X-9.293 Y-28.628
N2475 X-9.518 Y-28.614
N2480 X-9.772 Y-28.6
N2485 X-10.065 Y-28.585
N2490 X-10.409 Y-28.571
N2495 X-10.772 Y-28.558
N2500 X-11.134 Y-28.548
N2505 X-11.497 Y-28.539
N2510 X-11.86 Y-28.533
N2515 X-12.223 Y-28.527
N2520 X-12.586 Y-28.522
N2525 X-12.949 Y-28.519
N2530 X-13.312 Y-28.516
N2535 X-13.675 Y-28.513
N2540 X-14.038 Y-28.511
N2545 X-14.4 Y-28.509
N2550 X-14.763 Y-28.508
N2555 X-15.126 Y-28.507
N2560 X-15.852 Y-28.505
N2565 X-16.578 Y-28.504
N2570 X-17.667 Y-28.503
N2575 X-19.481
N2580 X-23.11 Y-28.502
N2585 X-25.106
N2590 X-25.284 Y-28.467
N2595 X-25.452 Y-28.398
N2600 X-25.604 Y-28.298
N2605 X-25.862 Y-28.043
N2610 X-26.049 Y-27.732
N2615 X-26.199 Y-27.401
N2620 X-26.318 Y-27.059
N2625 X-26.414 Y-26.709
N2630 X-26.489 Y-26.354
N2635 X-26.549 Y-25.996
N2640 X-26.596 Y-25.636
N2645 X-26.633 Y-25.275
N2650 X-26.662 Y-24.913
N2655 X-26.684 Y-24.551
N2660 X-26.702 Y-24.188
N2665 X-26.715 Y-23.826
N2670 X-26.726 Y-23.463
N2675 X-26.734 Y-23.1
N2680 X-26.74 Y-22.737
N2685 X-26.745 Y-22.374
N2690 X-26.749 Y-22.012
N2695 X-26.751 Y-21.649
N2700 X-26.753 Y-21.286
N2705 X-26.755 Y-20.923
N2710 X-26.756 Y-20.56
N2715 X-26.757 Y-20.197
N2720 X-26.758 Y-19.471
N2725 Y-18.382
N2730 Y-15.842
N2735 Y-13.113
N2740 X-26.767 Y-12.982
N2745 X-26.795 Y-12.853
N2750 X-26.84 Y-12.73
N2755 X-27.713 Y-10.79
N2760 X-27.767 Y-10.67
N2765 X-27.858 Y-10.43
N2770 X-27.896 Y-10.311
N2775 X-28.544 Y-8.23
N2780 X-28.793 Y-7.433 F1257.88
N2785 X-28.829 Y-7.313
N2790 X-28.865 Y-7.193
N2795 X-28.893 Y-7.074
N2800 X-28.904 Y-7.026
N2805 X-28.919 Y-6.954
N2810 X-28.943 Y-6.834
N2815 X-29.47 Y-3.956
N2820 X-29.491 Y-3.837
N2825 X-29.512 Y-3.717
N2830 X-29.53 Y-3.597
N2835 X-29.541 Y-3.477
N2840 X-29.552 Y-3.357
N2845 X-29.74 Y-0.24
N2850 X-29.747 Y-0.12
N2855 Y0.12
N2860 X-29.552 Y3.357
N2865 X-29.541 Y3.477
N2870 X-29.53 Y3.597
N2875 X-29.512 Y3.717
N2880 X-29.491 Y3.837
N2885 X-29.47 Y3.956
N2890 X-29.213 Y5.358
N2895 X-28.986 Y6.594
N2900 X-28.943 Y6.834 F500.
N2905 X-28.919 Y6.954
N2910 X-28.893 Y7.074
N2915 X-28.865 Y7.193
N2920 X-28.829 Y7.313
N2925 X-28.793 Y7.433
N2930 X-27.896 Y10.311
N2935 X-27.858 Y10.43
N2940 X-27.767 Y10.67
N2945 X-27.713 Y10.79
N2950 X-27.659 Y10.91
N2955 X-27.527 Y11.248
N2960 X-27.411 Y11.592
N2965 X-27.316 Y11.942
N2970 X-27.24 Y12.297
N2975 X-27.178 Y12.654
N2980 X-27.127 Y13.014
N2985 X-27.086 Y13.374
N2990 X-27.053 Y13.736
N2995 X-27.025 Y14.098
N3000 X-27.003 Y14.46
N3005 X-26.984 Y14.822
N3010 X-26.97 Y15.185
N3015 X-26.957 Y15.548
N3020 X-26.947 Y15.91
N3025 X-26.939 Y16.273
N3030 X-26.932 Y16.636
N3035 X-26.927 Y16.999
N3040 X-26.922 Y17.362
N3045 X-26.919 Y17.725
N3050 X-26.916 Y18.088
N3055 X-26.913 Y18.451
N3060 X-26.911 Y18.813
N3065 X-26.91 Y19.176
N3070 X-26.908 Y19.539
N3075 X-26.907 Y19.902
N3080 X-26.905 Y20.628
N3085 X-26.904 Y21.354
N3090 X-26.903 Y22.443
N3095 Y24.257
N3100 X-26.811 Y24.608
N3105 X-26.646 Y24.931
N3110 X-26.426 Y25.22
N3115 X-26.166 Y25.473
N3120 X-25.877 Y25.693
N3125 X-25.567 Y25.882
N3130 X-25.242 Y26.044
N3135 X-24.906 Y26.181
N3140 X-24.563 Y26.298
N3145 X-24.213 Y26.396
N3150 X-23.86 Y26.479
N3155 X-23.504 Y26.549
N3160 X-23.146 Y26.608
N3165 X-22.786 Y26.657
N3170 X-22.426 Y26.698
N3175 X-22.064 Y26.732
N3180 X-21.703 Y26.761
N3185 X-21.34 Y26.785
N3190 X-20.978 Y26.804
N3195 X-20.616 Y26.821
N3200 X-20.253 Y26.835
N3205 X-19.89 Y26.846
N3210 X-19.527 Y26.856
N3215 X-19.165 Y26.864
N3220 X-18.802 Y26.87
N3225 X-18.439 Y26.876
N3230 X-18.076 Y26.88
N3235 X-17.713 Y26.884
N3240 X-17.35 Y26.887
N3245 X-16.987 Y26.89
N3250 X-16.624 Y26.892
N3255 X-16.261 Y26.894
N3260 X-15.899 Y26.895
N3265 X-15.536 Y26.896
N3270 X-14.81 Y26.898
N3275 X-14.084 Y26.899
N3280 X-12.995 Y26.901
N3285 X-12.796
N3290 X-12.665 Y26.91
N3295 X-12.536 Y26.938
N3300 X-12.413 Y26.983
N3305 X-10.79 Y27.713
N3310 X-10.67 Y27.767
N3315 X-10.43 Y27.858
N3320 X-10.311 Y27.896
N3325 X-8.23 Y28.544
N3330 X-7.433 Y28.793 F1257.88
N3335 X-7.313 Y28.829
N3340 X-7.193 Y28.865
N3345 X-7.074 Y28.893
N3350 X-7.026 Y28.904
N3355 X-6.954 Y28.919
N3360 X-6.834 Y28.943
N3365 X-3.956 Y29.47
N3370 X-3.837 Y29.491
N3375 X-3.717 Y29.512
N3380 X-3.597 Y29.53
N3385 X-3.477 Y29.541
N3390 X-3.357 Y29.552
N3395 X-0.24 Y29.74
N3400 X-0.12 Y29.747
N3405 X0.12
N3410 X3.357 Y29.552
N3415 X3.477 Y29.541
N3420 X3.597 Y29.53
N3425 X3.717 Y29.512
N3430 X3.837 Y29.491
N3435 X3.956 Y29.47
N3440 X5.358 Y29.213
N3445 X6.594 Y28.986
N3450 X6.834 Y28.943 F500.
N3455 X6.954 Y28.919
N3460 X7.074 Y28.893
N3465 X7.193 Y28.865
N3470 X7.313 Y28.829
N3475 X7.433 Y28.793
N3480 X10.311 Y27.896
N3485 X10.43 Y27.858
N3490 X10.67 Y27.767
N3495 X10.79 Y27.713
N3500 X10.91 Y27.659
N3505 X11.248 Y27.527
N3510 X11.592 Y27.411
N3515 X11.942 Y27.316
N3520 X12.297 Y27.24
N3525 X12.654 Y27.178
N3530 X13.014 Y27.127
N3535 X13.374 Y27.086
N3540 X13.736 Y27.053
N3545 X14.098 Y27.025
N3550 X14.46 Y27.003
N3555 X14.822 Y26.984
N3560 X15.185 Y26.97
N3565 X15.548 Y26.957
N3570 X15.91 Y26.947
N3575 X16.273 Y26.939
N3580 X16.636 Y26.932
N3585 X16.999 Y26.927
N3590 X17.362 Y26.922
N3595 X17.725 Y26.919
N3600 X18.088 Y26.916
N3605 X18.451 Y26.913
N3610 X18.813 Y26.911
N3615 X19.176 Y26.91
N3620 X19.539 Y26.908
N3625 X19.902 Y26.907
N3630 X20.628 Y26.905
N3635 X21.354 Y26.904
N3640 X22.443 Y26.903
N3645 X24.257
N3650 X24.608 Y26.811
N3655 X24.931 Y26.646
N3660 X25.22 Y26.426
N3665 X25.473 Y26.166
N3670 X25.693 Y25.877
N3675 X25.882 Y25.567
N3680 X26.044 Y25.242
N3685 X26.181 Y24.906
N3690 X26.298 Y24.563
N3695 X26.396 Y24.213
N3700 X26.479 Y23.86
N3705 X26.549 Y23.504
N3710 X26.608 Y23.146
N3715 X26.657 Y22.786
N3720 X26.698 Y22.426
N3725 X26.732 Y22.064
N3730 X26.761 Y21.703
N3735 X26.785 Y21.34
N3740 X26.804 Y20.978
N3745 X26.821 Y20.616
N3750 X26.835 Y20.253
N3755 X26.846 Y19.89
N3760 X26.856 Y19.527
N3765 X26.864 Y19.165
N3770 X26.87 Y18.802
N3775 X26.876 Y18.439
N3780 X26.88 Y18.076
N3785 X26.884 Y17.713
N3790 X26.887 Y17.35
N3795 X26.89 Y16.987
N3800 X26.892 Y16.624
N3805 X26.894 Y16.261
N3810 X26.895 Y15.899
N3815 X26.896 Y15.536
N3820 X26.898 Y14.81
N3825 X26.899 Y14.084
N3830 X26.901 Y12.995
N3835 Y12.796
N3840 X26.91 Y12.665
N3845 X26.938 Y12.536
N3850 X26.983 Y12.413
N3855 X27.713 Y10.79
N3860 X27.767 Y10.67
N3865 X27.858 Y10.43
N3870 X27.896 Y10.311
N3875 X28.544 Y8.23
N3880 X28.83 Y7.313 F1257.88
N3885 X28.866 Y7.193
N3890 X28.894 Y7.082
N3895 X28.896 Y7.074
N3900 X28.905 Y7.027
N3905 X28.921 Y6.954
N3910 X29.47 Y3.956
N3915 X29.491 Y3.837
N3920 X29.512 Y3.717
N3925 X29.53 Y3.597
N3930 X29.541 Y3.477
N3935 X29.552 Y3.357
N3940 X29.74 Y0.24
N3945 X29.747 Y0.12
N3950 Y-0.12
N3955 X29.74 Y-0.24
N3960 X29.552 Y-3.357
N3965 X29.544 Y-3.477
N3970 X29.531 Y-3.597
N3975 X29.514 Y-3.717
N3980 X29.213 Y-5.358
N3985 X28.986 Y-6.594
N3990 X28.943 Y-6.834 F500.
N3995 X28.919 Y-6.954
N4000 X28.893 Y-7.074
N4005 X28.865 Y-7.193
N4010 X28.829 Y-7.313
N4015 X28.793 Y-7.433
N4020 X27.896 Y-10.311
N4025 X27.858 Y-10.43
N4030 X27.767 Y-10.67
N4035 X27.713 Y-10.79
N4040 X27.659 Y-10.91
N4045 X27.527 Y-11.248
N4050 X27.411 Y-11.592
N4055 X27.316 Y-11.942
N4060 X27.24 Y-12.297
N4065 X27.178 Y-12.654
N4070 X27.127 Y-13.014
N4075 X27.086 Y-13.374
N4080 X27.053 Y-13.736
N4085 X27.025 Y-14.098
N4090 X27.003 Y-14.46
N4095 X26.984 Y-14.822
N4100 X26.97 Y-15.185
N4105 X26.957 Y-15.548
N4110 X26.947 Y-15.91
N4115 X26.939 Y-16.273
N4120 X26.932 Y-16.636
N4125 X26.927 Y-16.999
N4130 X26.922 Y-17.362
N4135 X26.919 Y-17.725
N4140 X26.916 Y-18.088
N4145 X26.913 Y-18.451
N4150 X26.911 Y-18.813
N4155 X26.91 Y-19.176
N4160 X26.908 Y-19.539
N4165 X26.907 Y-19.902
N4170 X26.905 Y-20.628
N4175 X26.904 Y-21.354
N4180 X26.903 Y-22.443
N4185 Y-24.257
N4190 X26.811 Y-24.608
N4195 X26.646 Y-24.931
N4200 X26.426 Y-25.22
N4205 X26.166 Y-25.473
N4210 X25.877 Y-25.693
N4215 X25.567 Y-25.882
N4220 X25.242 Y-26.044
N4225 X24.906 Y-26.181
N4230 X24.563 Y-26.298
N4235 X24.213 Y-26.396
N4240 X23.86 Y-26.479
N4245 X23.504 Y-26.549
N4250 X23.146 Y-26.608
N4255 X22.786 Y-26.657
N4260 X22.426 Y-26.698
N4265 X22.064 Y-26.732
N4270 X21.703 Y-26.761
N4275 X21.34 Y-26.785
N4280 X20.978 Y-26.804
N4285 X20.616 Y-26.821
N4290 X20.253 Y-26.835
N4295 X19.89 Y-26.846
N4300 X19.527 Y-26.856
N4305 X19.165 Y-26.864
N4310 X18.802 Y-26.87
N4315 X18.439 Y-26.876
N4320 X18.076 Y-26.88
N4325 X17.713 Y-26.884
N4330 X17.35 Y-26.887
N4335 X16.987 Y-26.89
N4340 X16.624 Y-26.892
N4345 X16.261 Y-26.894
N4350 X15.899 Y-26.895
N4355 X15.536 Y-26.896
N4360 X14.81 Y-26.898
N4365 X14.084 Y-26.899
N4370 X12.995 Y-26.901
N4375 X12.796
N4380 X12.665 Y-26.91
N4385 X12.536 Y-26.938
N4390 X12.413 Y-26.983
N4395 X10.79 Y-27.713
N4400 X10.67 Y-27.767
N4405 X10.43 Y-27.858
N4410 X10.311 Y-27.896
N4415 X8.23 Y-28.544
N4420 X7.313 Y-28.83 F1257.88
N4425 X7.193 Y-28.866
N4430 X7.082 Y-28.894
N4435 X7.074 Y-28.896
N4440 X7.027 Y-28.905
N4445 X6.954 Y-28.921
N4450 X3.956 Y-29.47
N4455 X3.837 Y-29.491
N4460 X3.717 Y-29.512
N4465 X3.597 Y-29.53
N4470 X3.477 Y-29.541
N4475 X3.357 Y-29.552
N4480 X0.24 Y-29.74
N4485 X0.12 Y-29.747
N4490 X-0.12
N4495 X-3.357 Y-29.552
N4500 X-3.477 Y-29.544
N4505 X-3.597 Y-29.531
N4510 X-3.717 Y-29.514
N4515 X-5.358 Y-29.213
N4520 X-6.594 Y-28.986
N4525 X-6.834 Y-28.943 F500.
N4530 X-6.954 Y-28.919
N4535 X-7.074 Y-28.893
N4540 X-7.193 Y-28.865
N4545 X-7.313 Y-28.829
N4550 X-7.433 Y-28.793
N4555 X-10.311 Y-27.896
N4560 X-10.43 Y-27.858
N4565 X-10.67 Y-27.767
N4570 X-10.79 Y-27.713
N4575 X-10.91 Y-27.659
N4580 X-11.248 Y-27.527
N4585 X-11.592 Y-27.411
N4590 X-11.942 Y-27.316
N4595 X-12.297 Y-27.24
N4600 X-12.654 Y-27.178
N4605 X-13.014 Y-27.127
N4610 X-13.374 Y-27.086
N4615 X-13.736 Y-27.053
N4620 X-14.098 Y-27.025
N4625 X-14.46 Y-27.003
N4630 X-14.822 Y-26.984
N4635 X-15.185 Y-26.97
N4640 X-15.548 Y-26.957
N4645 X-15.91 Y-26.947
N4650 X-16.273 Y-26.939
N4655 X-16.636 Y-26.932
N4660 X-16.999 Y-26.927
N4665 X-17.362 Y-26.922
N4670 X-17.725 Y-26.919
N4675 X-18.088 Y-26.916
N4680 X-18.451 Y-26.913
N4685 X-18.813 Y-26.911
N4690 X-19.176 Y-26.91
N4695 X-19.539 Y-26.908
N4700 X-19.902 Y-26.907
N4705 X-20.628 Y-26.905
N4710 X-21.354 Y-26.904
N4715 X-22.443 Y-26.903
N4720 X-22.805 Y-26.901
N4725 X-23.15 Y-26.785
N4730 X-23.458 Y-26.595
N4735 X-23.729 Y-26.353
N4740 X-23.961 Y-26.074
N4745 X-24.16 Y-25.77
N4750 X-24.328 Y-25.449
N4755 X-24.469 Y-25.114
N4760 X-24.588 Y-24.772
N4765 X-24.687 Y-24.422
N4770 X-24.77 Y-24.069
N4775 X-24.839 Y-23.713
N4780 X-24.896 Y-23.354
N4785 X-24.943 Y-22.994
N4790 X-24.982 Y-22.634
N4795 X-25.014 Y-22.272
N4800 X-25.04 Y-21.91
N4805 X-25.061 Y-21.548
N4810 X-25.079 Y-21.185
N4815 X-25.094 Y-20.823
N4820 X-25.106 Y-20.46
N4825 X-25.115 Y-20.097
N4830 X-25.123 Y-19.734
N4835 X-25.13 Y-19.372
N4840 X-25.135 Y-19.009
N4845 X-25.14 Y-18.646
N4850 X-25.143 Y-18.283
N4855 X-25.146 Y-17.92
N4860 X-25.148 Y-17.557
N4865 X-25.15 Y-17.194
N4870 X-25.152 Y-16.831
N4875 X-25.153 Y-16.468
N4880 X-25.154 Y-16.058
N4885 X-25.17 Y-15.891
N4890 X-25.215 Y-15.729
N4895 X-25.289 Y-15.577
N4900 X-26.153 Y-14.147
N4905 X-26.256 Y-13.976
N4910 X-26.297 Y-13.907
N4915 X-26.361 Y-13.787
N4920 X-26.376 Y-13.758
N4925 X-26.418 Y-13.668
N4930 X-26.84 Y-12.73
N4935 G3 X-27.558 Y-13.083 I-0.359 J-0.177 F1257.88
N4940 G1 X-27.524 Y-13.153 Z-1.992
N4945 X-27.49 Y-13.221 Z-1.97
N4950 X-27.46 Y-13.283 Z-1.933
N4955 X-27.433 Y-13.337 Z-1.883
N4960 X-27.411 Y-13.382 Z-1.822
N4965 X-27.395 Y-13.415 Z-1.753
N4970 X-27.385 Y-13.435 Z-1.678
N4975 X-27.381 Y-13.442 Z-1.6
N4980 G0 Z5.
N4985 X-9.726 Y-28.805
N4990 Z-1.2
N4995 G1 Z-1.6 F1257.88
N5000 X-9.731 Y-28.798 Z-1.678
N5005 X-9.744 Y-28.78 Z-1.753
N5010 X-9.765 Y-28.75 Z-1.822
N5015 X-9.794 Y-28.709 Z-1.883
N5020 X-9.828 Y-28.659 Z-1.933
N5025 X-9.868 Y-28.603 Z-1.97
N5030 X-9.911 Y-28.541 Z-1.992
N5035 X-9.956 Y-28.477 Z-2.
N5040 G3 X-10.91 Y-27.659 I-2.073 J-1.454
N5045 G1 X-13.668 Y-26.418 F500.
N5050 X-13.758 Y-26.376
N5055 X-13.787 Y-26.361
N5060 X-13.907 Y-26.297
N5065 X-13.976 Y-26.256
N5070 X-14.271 Y-26.098
N5075 X-14.601 Y-25.954
N5080 X-14.944 Y-25.836
N5085 X-15.294 Y-25.74
N5090 X-15.648 Y-25.661
N5095 X-16.006 Y-25.597
N5100 X-16.365 Y-25.544
N5105 X-16.725 Y-25.501
N5110 X-17.086 Y-25.466
N5115 X-17.448 Y-25.437
N5120 X-17.81 Y-25.413
N5125 X-18.172 Y-25.393
N5130 X-18.535 Y-25.377
N5135 X-18.898 Y-25.364
N5140 X-19.26 Y-25.353
N5145 X-19.623 Y-25.344
N5150 X-19.986 Y-25.337
N5155 X-20.349 Y-25.33
N5160 X-20.712 Y-25.325
N5165 X-21.067 Y-25.25
N5170 X-21.399 Y-25.104
N5175 X-21.701 Y-24.903
N5180 X-21.969 Y-24.659
N5185 X-22.205 Y-24.383
N5190 X-22.41 Y-24.083
N5195 X-22.586 Y-23.766
N5200 X-22.738 Y-23.436
N5205 X-22.867 Y-23.097
N5210 X-22.977 Y-22.751
N5215 X-23.071 Y-22.401
N5220 X-23.15 Y-22.046
N5225 X-23.216 Y-21.69
N5230 X-23.272 Y-21.331
N5235 X-23.319 Y-20.971
N5240 X-23.359 Y-20.61
N5245 X-23.392 Y-20.249
N5250 X-23.42 Y-19.887
N5255 X-23.443 Y-19.525
N5260 X-23.462 Y-19.163
N5265 X-23.479 Y-18.8
N5270 X-23.491 Y-18.463
N5275 X-23.519 Y-18.27
N5280 X-23.586 Y-18.087
N5285 X-23.689 Y-17.922
N5290 X-24.218 Y-17.247
N5295 X-24.298 Y-17.144
N5300 X-24.48 Y-16.905
N5305 X-24.631 Y-16.665
N5310 X-24.704 Y-16.545
N5315 X-25.289 Y-15.577
N5320 G3 X-25.968 Y-15.999 I-0.335 J-0.219 F1257.88
N5325 X-25.958 Y-16.015 I0.345 J0.203
N5330 G1 X-25.916 Y-16.08 Z-1.992
N5335 X-25.875 Y-16.143 Z-1.97
N5340 X-25.837 Y-16.201 Z-1.933
N5345 X-25.804 Y-16.252 Z-1.883
N5350 X-25.776 Y-16.293 Z-1.822
N5355 X-25.756 Y-16.324 Z-1.753
N5360 X-25.744 Y-16.343 Z-1.678
N5365 X-25.74 Y-16.35 Z-1.6
N5370 G0 Z5.
N5375 X-12.937 Y-27.534
N5380 Z-1.2
N5385 G1 Z-1.6 F1257.88
N5390 X-12.941 Y-27.527 Z-1.678
N5395 X-12.952 Y-27.507 Z-1.753
N5400 X-12.969 Y-27.475 Z-1.822
N5405 X-12.993 Y-27.431 Z-1.883
N5410 X-13.021 Y-27.377 Z-1.933
N5415 X-13.054 Y-27.316 Z-1.97
N5420 X-13.089 Y-27.25 Z-1.992
N5425 X-13.126 Y-27.182 Z-2.
N5430 G3 X-13.976 Y-26.256 I-2.232 J-1.196
N5435 G1 X-14.267 Y-26.081 F500.
N5440 X-16.545 Y-24.704
N5445 X-16.864 Y-24.532
N5450 X-17.197 Y-24.386
N5455 X-17.539 Y-24.266
N5460 X-17.889 Y-24.168
N5465 X-18.243 Y-24.087
N5470 X-18.599 Y-24.021
N5475 X-18.958 Y-23.964
N5480 X-19.305 Y-23.858
N5485 X-19.632 Y-23.701
N5490 X-19.933 Y-23.498
N5495 X-20.204 Y-23.257
N5500 X-20.446 Y-22.986
N5505 X-20.659 Y-22.693
N5510 X-20.846 Y-22.381
N5515 X-21.008 Y-22.057
N5520 X-21.149 Y-21.722
N5525 X-21.27 Y-21.38
N5530 X-21.374 Y-21.032
N5535 X-21.447 Y-20.742
N5540 X-21.502 Y-20.584
N5545 X-21.585 Y-20.439
N5550 X-21.692 Y-20.311
N5555 G3 X-22.238 Y-20.896 I-0.273 J-0.293 F1257.88
N5560 G1 X-22.181 Y-20.949 Z-1.992
N5565 X-22.126 Y-21. Z-1.97
N5570 X-22.075 Y-21.047 Z-1.933
N5575 X-22.031 Y-21.089 Z-1.883
N5580 X-21.994 Y-21.122 Z-1.822
N5585 X-21.967 Y-21.148 Z-1.753
N5590 X-21.951 Y-21.163 Z-1.678
N5595 X-21.945 Y-21.168 Z-1.6
N5600 G0 Z5.
N5605 X-15.508 Y-25.983
N5610 Z-1.2
N5615 G1 Z-1.6 F1257.88
N5620 X-15.511 Y-25.977 Z-1.678
N5625 X-15.522 Y-25.956 Z-1.753
N5630 X-15.54 Y-25.924 Z-1.822
N5635 X-15.563 Y-25.88 Z-1.883
N5640 X-15.592 Y-25.827 Z-1.933
N5645 X-15.624 Y-25.766 Z-1.97
N5650 X-15.66 Y-25.699 Z-1.992
N5655 X-15.696 Y-25.631 Z-2.
N5660 G3 X-16.545 Y-24.704 I-2.233 J-1.193
N5665 G1 X-16.665 Y-24.631 F500.
N5670 X-16.905 Y-24.48
N5675 X-17.144 Y-24.298
N5680 X-17.264 Y-24.204
N5685 X-19.542 Y-22.419
N5690 X-19.662 Y-22.324
N5695 X-19.69 Y-22.3
N5700 X-19.819 Y-22.18
N5705 X-19.902 Y-22.101
N5710 X-22.101 Y-19.902
N5715 X-22.18 Y-19.819
N5720 X-22.3 Y-19.69
N5725 X-22.324 Y-19.662
N5730 X-22.42 Y-19.542
N5735 X-23.689 Y-17.922
N5740 G3 X-24.313 Y-18.422 I-0.306 J-0.258 F1257.88
N5745 X-24.301 Y-18.437 I0.318 J0.243
N5750 G1 X-24.251 Y-18.496 Z-1.992
N5755 X-24.203 Y-18.554 Z-1.97
N5760 X-24.158 Y-18.607 Z-1.933
N5765 X-24.119 Y-18.653 Z-1.883
N5770 X-24.087 Y-18.691 Z-1.822
N5775 X-24.063 Y-18.719 Z-1.753
N5780 X-24.049 Y-18.737 Z-1.678
N5785 X-24.044 Y-18.743 Z-1.6
N5790 G0 Z5.
N5795 X-28.805 Y9.726
N5800 Z-1.2
N5805 G1 Z-1.6 F1257.88
N5810 X-28.798 Y9.731 Z-1.678
N5815 X-28.78 Y9.744 Z-1.753
N5820 X-28.75 Y9.765 Z-1.822
N5825 X-28.709 Y9.794 Z-1.883
N5830 X-28.659 Y9.828 Z-1.933
N5835 X-28.603 Y9.868 Z-1.97
N5840 X-28.541 Y9.911 Z-1.992
N5845 X-28.477 Y9.956 Z-2.
N5850 G3 X-27.659 Y10.91 I-1.454 J2.073
N5855 G1 X-26.418 Y13.668 F500.
N5860 X-26.376 Y13.758
N5865 X-26.361 Y13.787
N5870 X-26.297 Y13.907
N5875 X-26.256 Y13.976
N5880 X-26.098 Y14.271
N5885 X-25.954 Y14.601
N5890 X-25.836 Y14.944
N5895 X-25.74 Y15.294
N5900 X-25.661 Y15.648
N5905 X-25.597 Y16.006
N5910 X-25.544 Y16.365
N5915 X-25.501 Y16.725
N5920 X-25.466 Y17.086
N5925 X-25.437 Y17.448
N5930 X-25.413 Y17.81
N5935 X-25.393 Y18.172
N5940 X-25.377 Y18.535
N5945 X-25.364 Y18.898
N5950 X-25.353 Y19.26
N5955 X-25.344 Y19.623
N5960 X-25.337 Y19.986
N5965 X-25.33 Y20.349
N5970 X-25.325 Y20.712
N5975 X-25.321 Y21.075
N5980 X-25.318 Y21.438
N5985 X-25.315 Y21.8
N5990 X-25.313 Y22.163
N5995 X-25.273 Y22.524
N6000 X-25.163 Y22.87
N6005 X-24.992 Y23.19
N6010 X-24.773 Y23.479
N6015 X-24.517 Y23.737
N6020 X-24.233 Y23.963
N6025 X-23.929 Y24.16
N6030 X-23.608 Y24.331
N6035 X-23.276 Y24.478
N6040 X-22.936 Y24.604
N6045 X-22.59 Y24.711
N6050 X-22.238 Y24.803
N6055 X-21.884 Y24.881
N6060 X-21.527 Y24.947
N6065 X-21.169 Y25.003
N6070 X-20.809 Y25.051
N6075 X-20.448 Y25.091
N6080 X-20.087 Y25.125
N6085 X-19.725 Y25.153
N6090 X-19.363 Y25.177
N6095 X-19.001 Y25.197
N6100 X-18.638 Y25.214
N6105 X-18.275 Y25.229
N6110 X-17.913 Y25.241
N6115 X-17.55 Y25.251
N6120 X-17.187 Y25.259
N6125 X-16.824 Y25.266
N6130 X-16.461 Y25.272
N6135 X-16.098 Y25.277
N6140 X-15.842 Y25.28
N6145 X-15.677 Y25.296
N6150 X-15.518 Y25.342
N6155 X-15.369 Y25.414
N6160 X-14.147 Y26.153
N6165 X-13.976 Y26.256
N6170 X-13.907 Y26.297
N6175 X-13.787 Y26.361
N6180 X-13.758 Y26.376
N6185 X-13.668 Y26.418
N6190 X-12.413 Y26.983
N6195 G3 X-12.767 Y27.701 I-0.177 J0.359 F1257.88
N6200 G1 X-12.837 Y27.666 Z-1.992
N6205 X-12.904 Y27.633 Z-1.97
N6210 X-12.966 Y27.602 Z-1.933
N6215 X-13.021 Y27.576 Z-1.883
N6220 X-13.065 Y27.554 Z-1.822
N6225 X-13.098 Y27.537 Z-1.753
N6230 X-13.119 Y27.527 Z-1.678
N6235 X-13.126 Y27.524 Z-1.6
N6240 G0 Z5.
N6245 X-27.534 Y12.937
N6250 Z-1.2
N6255 G1 Z-1.6 F1257.88
N6260 X-27.527 Y12.941 Z-1.678
N6265 X-27.507 Y12.952 Z-1.753
N6270 X-27.475 Y12.969 Z-1.822
N6275 X-27.431 Y12.993 Z-1.883
N6280 X-27.377 Y13.021 Z-1.933
N6285 X-27.316 Y13.054 Z-1.97
N6290 X-27.25 Y13.089 Z-1.992
N6295 X-27.182 Y13.126 Z-2.
N6300 G3 X-26.256 Y13.976 I-1.196 J2.232
N6305 G1 X-26.081 Y14.267 F500.
N6310 X-24.704 Y16.545
N6315 X-24.532 Y16.864
N6320 X-24.386 Y17.197
N6325 X-24.266 Y17.539
N6330 X-24.168 Y17.889
N6335 X-24.087 Y18.243
N6340 X-24.021 Y18.599
N6345 X-23.966 Y18.958
N6350 X-23.92 Y19.318
N6355 X-23.883 Y19.679
N6360 X-23.852 Y20.041
N6365 X-23.826 Y20.403
N6370 X-23.772 Y20.761
N6375 X-23.66 Y21.107
N6380 X-23.494 Y21.429
N6385 X-23.283 Y21.725
N6390 X-23.035 Y21.99
N6395 X-22.759 Y22.226
N6400 X-22.461 Y22.433
N6405 X-22.147 Y22.614
N6410 X-21.82 Y22.772
N6415 X-21.484 Y22.908
N6420 X-21.14 Y23.026
N6425 X-20.792 Y23.126
N6430 X-20.439 Y23.213
N6435 X-20.084 Y23.287
N6440 X-19.726 Y23.35
N6445 X-19.367 Y23.404
N6450 X-19.007 Y23.45
N6455 X-18.647 Y23.488
N6460 X-18.39 Y23.512
N6465 X-18.215 Y23.545
N6470 X-18.049 Y23.611
N6475 X-17.899 Y23.707
N6480 X-17.247 Y24.218
N6485 X-17.144 Y24.298
N6490 X-16.905 Y24.48
N6495 X-16.785 Y24.559
N6500 X-15.369 Y25.414
N6505 G3 X-15.791 Y26.094 I-0.219 J0.335 F1257.88
N6510 X-15.807 Y26.084 I0.203 J-0.345
N6515 G1 X-15.872 Y26.041 Z-1.992
N6520 X-15.935 Y26. Z-1.97
N6525 X-15.993 Y25.963 Z-1.933
N6530 X-16.044 Y25.929 Z-1.883
N6535 X-16.085 Y25.902 Z-1.822
N6540 X-16.116 Y25.882 Z-1.753
N6545 X-16.135 Y25.87 Z-1.678
N6550 X-16.142 Y25.865 Z-1.6
N6555 G0 Z5.
N6560 X-25.983 Y15.508
N6565 Z-1.2
N6570 G1 Z-1.6 F1257.88
N6575 X-25.977 Y15.511 Z-1.678
N6580 X-25.956 Y15.522 Z-1.753
N6585 X-25.924 Y15.54 Z-1.822
N6590 X-25.88 Y15.563 Z-1.883
N6595 X-25.827 Y15.592 Z-1.933
N6600 X-25.766 Y15.624 Z-1.97
N6605 X-25.699 Y15.66 Z-1.992
N6610 X-25.631 Y15.696 Z-2.
N6615 G3 X-24.704 Y16.545 I-1.193 J2.233
N6620 G1 X-24.631 Y16.665 F500.
N6625 X-24.48 Y16.905
N6630 X-24.298 Y17.144
N6635 X-24.204 Y17.264
N6640 X-23.379 Y18.318
N6645 X-23.186 Y18.59
N6650 X-23.002 Y18.903
N6655 X-22.833 Y19.224
N6660 X-22.643 Y19.533
N6665 X-22.427 Y19.825
N6670 X-22.185 Y20.096
N6675 X-21.919 Y20.342
N6680 X-21.633 Y20.565
N6685 X-21.33 Y20.765
N6690 X-21.234 Y20.818
N6695 X-21.161 Y20.864
N6700 X-21.093 Y20.915
N6705 X-21.03 Y20.973
N6710 G3 X-21.615 Y21.519 I-0.293 J0.273 F1257.88
N6715 X-21.622 Y21.511 I0.293 J-0.273
N6720 G1 X-23.984 Y18.84
N6725 X-23.991 Y18.833
N6730 G3 X-23.942 Y18.269 I0.306 J-0.258
N6735 X-23.379 Y18.318 I0.258 J0.306
N6740 G1 X-22.419 Y19.542 F500.
N6745 X-22.324 Y19.662
N6750 X-22.3 Y19.69
N6755 X-22.18 Y19.819
N6760 X-22.101 Y19.902
N6765 X-19.902 Y22.101
N6770 X-19.819 Y22.18
N6775 X-19.69 Y22.3
N6780 X-19.662 Y22.324
N6785 X-19.542 Y22.42
N6790 X-17.899 Y23.707
N6795 G3 X-18.4 Y24.33 I-0.258 J0.306 F1257.88
N6800 X-18.414 Y24.319 I0.243 J-0.318
N6805 G1 X-18.474 Y24.269 Z-1.992
N6810 X-18.531 Y24.22 Z-1.97
N6815 X-18.584 Y24.176 Z-1.933
N6820 X-18.631 Y24.137 Z-1.883
N6825 X-18.669 Y24.105 Z-1.822
N6830 X-18.697 Y24.081 Z-1.753
N6835 X-18.714 Y24.066 Z-1.678
N6840 X-18.72 Y24.061 Z-1.6
N6845 G0 Z5.
N6850 X9.726 Y28.805
N6855 Z-1.2
N6860 G1 Z-1.6 F1257.88
N6865 X9.731 Y28.798 Z-1.678
N6870 X9.744 Y28.78 Z-1.753
N6875 X9.765 Y28.75 Z-1.822
N6880 X9.794 Y28.709 Z-1.883
N6885 X9.828 Y28.659 Z-1.933
N6890 X9.868 Y28.603 Z-1.97
N6895 X9.911 Y28.541 Z-1.992
N6900 X9.956 Y28.477 Z-2.
N6905 G3 X10.91 Y27.659 I2.073 J1.454
N6910 G1 X13.668 Y26.418 F500.
N6915 X13.758 Y26.376
N6920 X13.787 Y26.361
N6925 X13.907 Y26.297
N6930 X13.976 Y26.256
N6935 X14.271 Y26.098
N6940 X14.601 Y25.954
N6945 X14.944 Y25.836
N6950 X15.294 Y25.74
N6955 X15.648 Y25.661
N6960 X16.006 Y25.597
N6965 X16.365 Y25.544
N6970 X16.725 Y25.501
N6975 X17.086 Y25.466
N6980 X17.448 Y25.437
N6985 X17.81 Y25.413
N6990 X18.172 Y25.393
N6995 X18.535 Y25.377
N7000 X18.898 Y25.364
N7005 X19.26 Y25.353
N7010 X19.623 Y25.344
N7015 X19.986 Y25.337
N7020 X20.349 Y25.33
N7025 X20.712 Y25.325
N7030 X21.075 Y25.321
N7035 X21.438 Y25.318
N7040 X21.8 Y25.315
N7045 X22.163 Y25.313
N7050 X22.524 Y25.273
N7055 X22.87 Y25.163
N7060 X23.19 Y24.992
N7065 X23.479 Y24.773
N7070 X23.737 Y24.517
N7075 X23.963 Y24.233
N7080 X24.16 Y23.929
N7085 X24.331 Y23.608
N7090 X24.478 Y23.276
N7095 X24.604 Y22.936
N7100 X24.711 Y22.59
N7105 X24.803 Y22.238
N7110 X24.881 Y21.884
N7115 X24.947 Y21.527
N7120 X25.003 Y21.169
N7125 X25.051 Y20.809
N7130 X25.091 Y20.448
N7135 X25.125 Y20.087
N7140 X25.153 Y19.725
N7145 X25.177 Y19.363
N7150 X25.197 Y19.001
N7155 X25.214 Y18.638
N7160 X25.229 Y18.275
N7165 X25.241 Y17.913
N7170 X25.251 Y17.55
N7175 X25.259 Y17.187
N7180 X25.266 Y16.824
N7185 X25.272 Y16.461
N7190 X25.277 Y16.098
N7195 X25.28 Y15.842
N7200 X25.296 Y15.677
N7205 X25.342 Y15.518
N7210 X25.414 Y15.369
N7215 X26.153 Y14.147
N7220 X26.256 Y13.976
N7225 X26.297 Y13.907
N7230 X26.361 Y13.787
N7235 X26.376 Y13.758
N7240 X26.418 Y13.668
N7245 X26.983 Y12.413
N7250 G3 X27.701 Y12.767 I0.359 J0.177 F1257.88
N7255 G1 X27.666 Y12.837 Z-1.992
N7260 X27.633 Y12.904 Z-1.97
N7265 X27.602 Y12.966 Z-1.933
N7270 X27.576 Y13.021 Z-1.883
N7275 X27.554 Y13.065 Z-1.822
N7280 X27.537 Y13.098 Z-1.753
N7285 X27.527 Y13.119 Z-1.678
N7290 X27.524 Y13.126 Z-1.6
N7295 G0 Z5.
N7300 X12.937 Y27.534
N7305 Z-1.2
N7310 G1 Z-1.6 F1257.88
N7315 X12.941 Y27.527 Z-1.678
N7320 X12.952 Y27.507 Z-1.753
N7325 X12.969 Y27.475 Z-1.822
N7330 X12.993 Y27.431 Z-1.883
N7335 X13.021 Y27.377 Z-1.933
N7340 X13.054 Y27.316 Z-1.97
N7345 X13.089 Y27.25 Z-1.992
N7350 X13.126 Y27.182 Z-2.
N7355 G3 X13.976 Y26.256 I2.232 J1.196
N7360 G1 X14.267 Y26.081 F500.
N7365 X16.545 Y24.704
N7370 X16.864 Y24.532
N7375 X17.197 Y24.386
N7380 X17.539 Y24.266
N7385 X17.889 Y24.168
N7390 X18.243 Y24.087
N7395 X18.599 Y24.021
N7400 X18.958 Y23.966
N7405 X19.318 Y23.92
N7410 X19.679 Y23.883
N7415 X20.041 Y23.852
N7420 X20.403 Y23.826
N7425 X20.761 Y23.772
N7430 X21.107 Y23.66
N7435 X21.429 Y23.494
N7440 X21.725 Y23.283
N7445 X21.99 Y23.035
N7450 X22.226 Y22.759
N7455 X22.433 Y22.461
N7460 X22.614 Y22.147
N7465 X22.772 Y21.82
N7470 X22.908 Y21.484
N7475 X23.026 Y21.14
N7480 X23.126 Y20.792
N7485 X23.213 Y20.439
N7490 X23.287 Y20.084
N7495 X23.35 Y19.726
N7500 X23.404 Y19.367
N7505 X23.45 Y19.007
N7510 X23.488 Y18.647
N7515 X23.512 Y18.39
N7520 X23.545 Y18.215
N7525 X23.611 Y18.049
N7530 X23.707 Y17.899
N7535 X24.392 Y17.024
N7540 X24.458 Y16.936
N7545 X24.48 Y16.905
N7550 X24.559 Y16.785
N7555 X24.631 Y16.665
N7560 X25.414 Y15.369
N7565 G3 X26.094 Y15.791 I0.335 J0.219 F1257.88
N7570 X26.084 Y15.807 I-0.345 J-0.203
N7575 G1 X26.041 Y15.872 Z-1.992
N7580 X26. Y15.935 Z-1.97
N7585 X25.963 Y15.993 Z-1.933
N7590 X25.929 Y16.044 Z-1.883
N7595 X25.902 Y16.085 Z-1.822
N7600 X25.882 Y16.116 Z-1.753
N7605 X25.87 Y16.135 Z-1.678
N7610 X25.865 Y16.142 Z-1.6
N7615 G0 Z5.
N7620 X15.508 Y25.983
N7625 Z-1.2
N7630 G1 Z-1.6 F1257.88
N7635 X15.511 Y25.977 Z-1.678
N7640 X15.522 Y25.956 Z-1.753
N7645 X15.54 Y25.924 Z-1.822
N7650 X15.563 Y25.88 Z-1.883
N7655 X15.592 Y25.827 Z-1.933
N7660 X15.624 Y25.766 Z-1.97
N7665 X15.66 Y25.699 Z-1.992
N7670 X15.696 Y25.631 Z-2.
N7675 G3 X16.545 Y24.704 I2.233 J1.193
N7680 G1 X16.665 Y24.631 F500.
N7685 X16.905 Y24.48
N7690 X17.144 Y24.298
N7695 X17.264 Y24.204
N7700 X18.318 Y23.379
N7705 X18.59 Y23.186
N7710 X18.903 Y23.002
N7715 X19.224 Y22.833
N7720 X19.533 Y22.643
N7725 X19.825 Y22.427
N7730 X20.096 Y22.185
N7735 X20.342 Y21.919
N7740 X20.565 Y21.633
N7745 X20.765 Y21.33
N7750 X20.818 Y21.234
N7755 X20.864 Y21.161
N7760 X20.915 Y21.093
N7765 X20.973 Y21.03
N7770 G3 X21.519 Y21.615 I0.273 J0.293 F1257.88
N7775 X21.511 Y21.622 I-0.273 J-0.293
N7780 G1 X18.84 Y23.984
N7785 X18.833 Y23.991
N7790 G3 X18.269 Y23.942 I-0.258 J-0.306
N7795 X18.318 Y23.379 I0.306 J-0.258
N7800 G1 X19.542 Y22.419 F500.
N7805 X19.662 Y22.324
N7810 X19.691 Y22.3
N7815 X19.782 Y22.219
N7820 X19.823 Y22.18
N7825 X21.022 Y20.981
N7830 X22.101 Y19.902
N7835 X22.18 Y19.819
N7840 X22.3 Y19.69
N7845 X22.324 Y19.662
N7850 X22.42 Y19.542
N7855 X23.707 Y17.899
N7860 G3 X24.33 Y18.4 I0.306 J0.258 F1257.88
N7865 X24.319 Y18.414 I-0.318 J-0.243
N7870 G1 X24.269 Y18.474 Z-1.992
N7875 X24.22 Y18.531 Z-1.97
N7880 X24.176 Y18.584 Z-1.933
N7885 X24.137 Y18.631 Z-1.883
N7890 X24.105 Y18.669 Z-1.822
N7895 X24.081 Y18.697 Z-1.753
N7900 X24.066 Y18.714 Z-1.678
N7905 X24.061 Y18.72 Z-1.6
N7910 G0 Z5.
N7915 X28.805 Y-9.726
N7920 Z-1.2
N7925 G1 Z-1.6 F1257.88
N7930 X28.798 Y-9.731 Z-1.678
N7935 X28.78 Y-9.744 Z-1.753
N7940 X28.75 Y-9.765 Z-1.822
N7945 X28.709 Y-9.794 Z-1.883
N7950 X28.659 Y-9.828 Z-1.933
N7955 X28.603 Y-9.868 Z-1.97
N7960 X28.541 Y-9.911 Z-1.992
N7965 X28.477 Y-9.956 Z-2.
N7970 G3 X27.659 Y-10.91 I1.454 J-2.073
N7975 G1 X26.418 Y-13.668 F500.
N7980 X26.376 Y-13.758
N7985 X26.361 Y-13.787
N7990 X26.297 Y-13.907
N7995 X26.256 Y-13.976
N8000 X26.098 Y-14.271
N8005 X25.954 Y-14.601
N8010 X25.836 Y-14.944
N8015 X25.74 Y-15.294
N8020 X25.661 Y-15.648
N8025 X25.597 Y-16.006
N8030 X25.544 Y-16.365
N8035 X25.501 Y-16.725
N8040 X25.466 Y-17.086
N8045 X25.437 Y-17.448
N8050 X25.413 Y-17.81
N8055 X25.393 Y-18.172
N8060 X25.377 Y-18.535
N8065 X25.364 Y-18.898
N8070 X25.353 Y-19.26
N8075 X25.344 Y-19.623
N8080 X25.337 Y-19.986
N8085 X25.33 Y-20.349
N8090 X25.325 Y-20.712
N8095 X25.321 Y-21.075
N8100 X25.318 Y-21.438
N8105 X25.315 Y-21.8
N8110 X25.313 Y-22.163
N8115 X25.273 Y-22.524
N8120 X25.163 Y-22.87
N8125 X24.992 Y-23.19
N8130 X24.773 Y-23.479
N8135 X24.517 Y-23.737
N8140 X24.233 Y-23.963
N8145 X23.929 Y-24.16
N8150 X23.608 Y-24.331
N8155 X23.276 Y-24.478
N8160 X22.936 Y-24.604
N8165 X22.59 Y-24.711
N8170 X22.238 Y-24.803
N8175 X21.884 Y-24.881
N8180 X21.527 Y-24.947
N8185 X21.169 Y-25.003
N8190 X20.809 Y-25.051
N8195 X20.448 Y-25.091
N8200 X20.087 Y-25.125
N8205 X19.725 Y-25.153
N8210 X19.363 Y-25.177
N8215 X19.001 Y-25.197
N8220 X18.638 Y-25.214
N8225 X18.275 Y-25.229
N8230 X17.913 Y-25.241
N8235 X17.55 Y-25.251
N8240 X17.187 Y-25.259
N8245 X16.824 Y-25.266
N8250 X16.461 Y-25.272
N8255 X16.098 Y-25.277
N8260 X15.842 Y-25.28
N8265 X15.677 Y-25.296
N8270 X15.518 Y-25.342
N8275 X15.369 Y-25.414
N8280 X14.147 Y-26.153
N8285 X13.976 Y-26.256
N8290 X13.907 Y-26.297
N8295 X13.787 Y-26.361
N8300 X13.758 Y-26.376
N8305 X13.668 Y-26.418
N8310 X12.413 Y-26.983
N8315 G3 X12.767 Y-27.701 I0.177 J-0.359 F1257.88
N8320 G1 X12.837 Y-27.666 Z-1.992
N8325 X12.904 Y-27.633 Z-1.97
N8330 X12.966 Y-27.602 Z-1.933
N8335 X13.021 Y-27.576 Z-1.883
N8340 X13.065 Y-27.554 Z-1.822
N8345 X13.098 Y-27.537 Z-1.753
N8350 X13.119 Y-27.527 Z-1.678
N8355 X13.126 Y-27.524 Z-1.6
N8360 G0 Z5.
N8365 X27.534 Y-12.937
N8370 Z-1.2
N8375 G1 Z-1.6 F1257.88
N8380 X27.527 Y-12.941 Z-1.678
N8385 X27.507 Y-12.952 Z-1.753
N8390 X27.475 Y-12.969 Z-1.822
N8395 X27.431 Y-12.993 Z-1.883
N8400 X27.377 Y-13.021 Z-1.933
N8405 X27.316 Y-13.054 Z-1.97
N8410 X27.25 Y-13.089 Z-1.992
N8415 X27.182 Y-13.126 Z-2.
N8420 G3 X26.256 Y-13.976 I1.196 J-2.232
N8425 G1 X26.081 Y-14.267 F500.
N8430 X24.704 Y-16.545
N8435 X24.532 Y-16.864
N8440 X24.386 Y-17.197
N8445 X24.266 Y-17.539
N8450 X24.168 Y-17.889
N8455 X24.087 Y-18.243
N8460 X24.021 Y-18.599
N8465 X23.966 Y-18.958
N8470 X23.92 Y-19.318
N8475 X23.883 Y-19.679
N8480 X23.852 Y-20.041
N8485 X23.826 Y-20.403
N8490 X23.772 Y-20.761
N8495 X23.66 Y-21.107
N8500 X23.494 Y-21.429
N8505 X23.283 Y-21.725
N8510 X23.035 Y-21.99
N8515 X22.759 Y-22.226
N8520 X22.461 Y-22.433
N8525 X22.147 Y-22.614
N8530 X21.82 Y-22.772
N8535 X21.484 Y-22.908
N8540 X21.14 Y-23.026
N8545 X20.792 Y-23.126
N8550 X20.439 Y-23.213
N8555 X20.084 Y-23.287
N8560 X19.726 Y-23.35
N8565 X19.367 Y-23.404
N8570 X19.007 Y-23.45
N8575 X18.647 Y-23.488
N8580 X18.39 Y-23.512
N8585 X18.215 Y-23.545
N8590 X18.049 Y-23.611
N8595 X17.899 Y-23.707
N8600 X17.024 Y-24.392
N8605 X16.936 Y-24.458
N8610 X16.905 Y-24.48
N8615 X16.665 Y-24.631
N8620 X16.545 Y-24.704
N8625 X15.369 Y-25.414
N8630 G3 X15.791 Y-26.094 I0.219 J-0.335 F1257.88
N8635 X15.807 Y-26.084 I-0.203 J0.345
N8640 G1 X15.872 Y-26.041 Z-1.992
N8645 X15.935 Y-26. Z-1.97
N8650 X15.993 Y-25.963 Z-1.933
N8655 X16.044 Y-25.929 Z-1.883
N8660 X16.085 Y-25.902 Z-1.822
N8665 X16.116 Y-25.882 Z-1.753
N8670 X16.135 Y-25.87 Z-1.678
N8675 X16.142 Y-25.865 Z-1.6
N8680 G0 Z5.
N8685 X25.983 Y-15.508
N8690 Z-1.2
N8695 G1 Z-1.6 F1257.88
N8700 X25.977 Y-15.511 Z-1.678
N8705 X25.956 Y-15.522 Z-1.753
N8710 X25.924 Y-15.54 Z-1.822
N8715 X25.88 Y-15.563 Z-1.883
N8720 X25.827 Y-15.592 Z-1.933
N8725 X25.766 Y-15.624 Z-1.97
N8730 X25.699 Y-15.66 Z-1.992
N8735 X25.631 Y-15.696 Z-2.
N8740 G3 X24.704 Y-16.545 I1.193 J-2.233
N8745 G1 X24.631 Y-16.665 F500.
N8750 X24.48 Y-16.905
N8755 X24.298 Y-17.144
N8760 X24.204 Y-17.264
N8765 X23.379 Y-18.318
N8770 X23.186 Y-18.59
N8775 X23.002 Y-18.903
N8780 X22.833 Y-19.224
N8785 X22.643 Y-19.533
N8790 X22.427 Y-19.825
N8795 X22.185 Y-20.096
N8800 X21.919 Y-20.342
N8805 X21.633 Y-20.565
N8810 X21.33 Y-20.765
N8815 X21.234 Y-20.818
N8820 X21.161 Y-20.864
N8825 X21.093 Y-20.915
N8830 X21.03 Y-20.973
N8835 G3 X21.615 Y-21.519 I0.293 J-0.273 F1257.88
N8840 X21.622 Y-21.511 I-0.293 J0.273
N8845 G1 X23.984 Y-18.84
N8850 X23.991 Y-18.833
N8855 G3 X23.942 Y-18.269 I-0.306 J0.258
N8860 X23.379 Y-18.318 I-0.258 J-0.306
N8865 G1 X22.419 Y-19.542 F500.
N8870 X22.324 Y-19.662
N8875 X22.3 Y-19.692
N8880 X22.218 Y-19.782
N8885 X22.18 Y-19.822
N8890 X22.101 Y-19.902
N8895 X19.902 Y-22.101
N8900 X19.819 Y-22.18
N8905 X19.69 Y-22.3
N8910 X19.662 Y-22.324
N8915 X19.542 Y-22.42
N8920 X17.899 Y-23.707
N8925 G3 X18.038 Y-24.395 I0.258 J-0.306 F1257.88
N8930 G1 X18.098 Y-24.404 Z-1.995
N8935 X18.157 Y-24.413 Z-1.982
N8940 X18.22 Y-24.398 Z-1.954
N8945 X18.278 Y-24.385 Z-1.915
N8950 X18.329 Y-24.374 Z-1.867
N8955 X18.358 Y-24.356 Z-1.822
N8960 X18.382 Y-24.341 Z-1.772
N8965 X18.4 Y-24.33 Z-1.72
N8970 X18.411 Y-24.322 Z-1.661
N8975 X18.414 Y-24.319 Z-1.6
N8980 G0 Z5.
N8985 X-0.683 Y-1.773
N8990 Z2.9
N8995 G1 Z2.5 F1257.88
N9000 G3 X0.683 Y1.773 Z1.978 I0.683 J1.773
N9005 X-0.683 Y-1.773 Z1.456 I-0.683 J-1.773
N9010 X0.683 Y1.773 Z0.933 I0.683 J1.773
N9015 X-0.683 Y-1.773 Z0.411 I-0.683 J-1.773
N9020 X0.683 Y1.773 Z-0.111 I0.683 J1.773
N9025 X-0.683 Y-1.773 Z-0.633 I-0.683 J-1.773
N9030 X0.683 Y1.773 Z-1.156 I0.683 J1.773
N9035 X-0.683 Y-1.773 Z-1.678 I-0.683 J-1.773
N9040 X1.9 Y0. Z-2. I0.683 J1.773
N9045 X-1.9 I-1.9 J0.
N9050 X1.9 I1.9 J0.
N9055 G1 X1.901 Y0.181 F500.
N9060 X1.937 Y0.359
N9065 X2.071 Y0.681
N9070 X2.094 Y0.752
N9075 X2.113 Y0.831
N9080 X2.127 Y0.919
N9085 X2.134 Y1.014
N9090 X2.133 Y1.118
N9095 X2.123 Y1.228
N9100 X2.104 Y1.344
N9105 X2.073 Y1.466
N9110 X2.03 Y1.591
N9115 X1.974 Y1.72
N9120 X1.905 Y1.849
N9125 X1.822 Y1.979
N9130 X1.725 Y2.107
N9135 X1.614 Y2.231
N9140 X1.488 Y2.351
N9145 X1.349 Y2.464
N9150 X1.196 Y2.568
N9155 X1.03 Y2.663
N9160 X0.853 Y2.746
N9165 X0.666 Y2.816
N9170 X0.469 Y2.872
N9175 X0.264 Y2.913
N9180 X0.053 Y2.938
N9185 X-0.163 Y2.946
N9190 X-0.382 Y2.937
N9195 X-0.602 Y2.91
N9200 X-0.822 Y2.864
N9205 X-1.04 Y2.801
N9210 X-1.253 Y2.719
N9215 X-1.462 Y2.62
N9220 X-1.663 Y2.504
N9225 X-1.855 Y2.371
N9230 X-2.037 Y2.222
N9235 X-2.207 Y2.058
N9240 X-2.364 Y1.88
N9245 X-2.507 Y1.69
N9250 X-2.635 Y1.488
N9255 X-2.746 Y1.276
N9260 X-2.84 Y1.055
N9265 X-2.916 Y0.827
N9270 X-2.974 Y0.593
N9275 X-3.013 Y0.354
N9280 X-3.033 Y0.113
N9285 Y-0.129
N9290 X-3.014 Y-0.371
N9295 X-2.976 Y-0.61
N9300 X-2.918 Y-0.846
N9305 X-2.841 Y-1.077
N9310 X-2.747 Y-1.301
N9315 X-2.634 Y-1.517
N9320 X-2.504 Y-1.723
N9325 X-2.359 Y-1.919
N9330 X-2.198 Y-2.101
N9335 X-2.022 Y-2.271
N9340 X-1.834 Y-2.426
N9345 X-1.634 Y-2.565
N9350 X-1.423 Y-2.688
N9355 X-1.203 Y-2.794
N9360 X-0.975 Y-2.881
N9365 X-0.741 Y-2.95
N9370 X-0.502 Y-3.
N9375 X-0.259 Y-3.031
N9380 X-0.016 Y-3.042
N9385 X0.229 Y-3.033
N9390 X0.471 Y-3.005
N9395 X0.711 Y-2.958
N9400 X0.946 Y-2.891
N9405 X1.175 Y-2.806
N9410 X1.396 Y-2.703
N9415 X1.609 Y-2.582
N9420 X1.811 Y-2.445
N9425 X2.001 Y-2.292
N9430 X2.178 Y-2.124
N9435 X2.342 Y-1.942
N9440 X2.49 Y-1.748
N9445 X2.687 Y-1.443
N9450 X2.861 Y-1.125
N9455 X3.02 Y-0.798
N9460 X3.155 Y-0.466
N9465 X3.251 Y-0.161
N9470 X3.318 Y0.131
N9475 X3.359 Y0.411
N9480 X3.376 Y0.683
N9485 X3.372 Y0.951
N9490 X3.347 Y1.214
N9495 X3.301 Y1.473
N9500 X3.234 Y1.727
N9505 X3.147 Y1.975
N9510 X3.039 Y2.217
N9515 X2.912 Y2.452
N9520 X2.764 Y2.678
N9525 X2.597 Y2.894
N9530 X2.411 Y3.098
N9535 X2.207 Y3.289
N9540 X1.986 Y3.464
N9545 X1.748 Y3.624
N9550 X1.496 Y3.765
N9555 X1.229 Y3.888
N9560 X0.95 Y3.989
N9565 X0.66 Y4.069
N9570 X0.361 Y4.127
N9575 X0.054 Y4.16
N9580 X-0.258 Y4.169
N9585 X-0.572 Y4.153
N9590 X-0.887 Y4.111
N9595 X-1.201 Y4.043
N9600 X-1.51 Y3.95
N9605 X-1.814 Y3.831
N9610 X-2.108 Y3.687
N9615 X-2.392 Y3.52
N9620 X-2.663 Y3.328
N9625 X-2.919 Y3.115
N9630 X-3.158 Y2.881
N9635 X-3.378 Y2.628
N9640 X-3.578 Y2.356
N9645 X-3.756 Y2.069
N9650 X-3.911 Y1.767
N9655 X-4.042 Y1.453
N9660 X-4.147 Y1.129
N9665 X-4.226 Y0.797
N9670 X-4.278 Y0.459
N9675 X-4.303 Y0.117
N9680 X-4.3 Y-0.226
N9685 X-4.27 Y-0.568
N9690 X-4.213 Y-0.907
N9695 X-4.128 Y-1.241
N9700 X-4.016 Y-1.567
N9705 X-3.879 Y-1.883
N9710 X-3.717 Y-2.188
N9715 X-3.531 Y-2.479
N9720 X-3.321 Y-2.754
N9725 X-3.091 Y-3.011
N9730 X-2.84 Y-3.249
N9735 X-2.571 Y-3.467
N9740 X-2.285 Y-3.662
N9745 X-1.984 Y-3.833
N9750 X-1.671 Y-3.98
N9755 X-1.346 Y-4.102
N9760 X-1.013 Y-4.197
N9765 X-0.674 Y-4.265
N9770 X-0.329 Y-4.305
N9775 X0.017 Y-4.318
N9780 X0.363 Y-4.303
N9785 X0.707 Y-4.26
N9790 X1.047 Y-4.189
N9795 X1.379 Y-4.092
N9800 X1.703 Y-3.968
N9805 X2.016 Y-3.819
N9810 X2.316 Y-3.645
N9815 X2.61 Y-3.441
N9820 X2.89 Y-3.211
N9825 X3.153 Y-2.96
N9830 X3.397 Y-2.692
N9835 X3.623 Y-2.408
N9840 X3.831 Y-2.111
N9845 X4.02 Y-1.801
N9850 X4.188 Y-1.479
N9855 X4.334 Y-1.147
N9860 X4.456 Y-0.805
N9865 X4.555 Y-0.456
N9870 X4.628 Y-0.1
N9875 X4.674 Y0.26
N9880 X4.694 Y0.622
N9885 X4.686 Y0.985
N9890 X4.65 Y1.346
N9895 X4.587 Y1.703
N9900 X4.496 Y2.055
N9905 X4.379 Y2.398
N9910 X4.235 Y2.731
N9915 X4.066 Y3.053
N9920 X3.873 Y3.36
N9925 X3.657 Y3.652
N9930 X3.42 Y3.926
N9935 X3.162 Y4.182
N9940 X2.887 Y4.418
N9945 X2.594 Y4.633
N9950 X2.286 Y4.825
N9955 X1.965 Y4.994
N9960 X1.632 Y5.138
N9965 X1.29 Y5.259
N9970 X0.94 Y5.354
N9975 X0.584 Y5.424
N9980 X0.223 Y5.47
N9985 X-0.139 Y5.49
N9990 X-0.502 Y5.484
N9995 X-0.863 Y5.453
N10000 X-1.222 Y5.397
N10005 X-1.576 Y5.316
N10010 X-1.923 Y5.212
N10015 X-2.263 Y5.085
N10020 X-2.594 Y4.935
N10025 X-2.913 Y4.763
N10030 X-3.22 Y4.57
N10035 X-3.514 Y4.357
N10040 X-3.793 Y4.125
N10045 X-4.057 Y3.875
N10050 X-4.302 Y3.608
N10055 X-4.53 Y3.325
N10060 X-4.738 Y3.028
N10065 X-4.927 Y2.718
N10070 X-5.096 Y2.397
N10075 X-5.242 Y2.065
N10080 X-5.367 Y1.724
N10085 X-5.469 Y1.376
N10090 X-5.548 Y1.022
N10095 X-5.605 Y0.663
N10100 X-5.638 Y0.302
N10105 X-5.648 Y-0.061
N10110 X-5.633 Y-0.424
N10115 X-5.596 Y-0.785
N10120 X-5.536 Y-1.143
N10125 X-5.452 Y-1.496
N10130 X-5.346 Y-1.843
N10135 X-5.217 Y-2.182
N10140 X-5.067 Y-2.513
N10145 X-4.897 Y-2.833
N10150 X-4.706 Y-3.142
N10155 X-4.495 Y-3.437
N10160 X-4.266 Y-3.718
N10165 X-4.019 Y-3.984
N10170 X-3.756 Y-4.234
N10175 X-3.477 Y-4.467
N10180 X-3.184 Y-4.681
N10185 X-2.878 Y-4.875
N10190 X-2.559 Y-5.05
N10195 X-2.231 Y-5.204
N10200 X-1.893 Y-5.336
N10205 X-1.547 Y-5.447
N10210 X-1.195 Y-5.535
N10215 X-0.838 Y-5.6
N10220 X-0.478 Y-5.643
N10225 X-0.116 Y-5.662
N10230 X0.247 Y-5.658
N10235 X0.609 Y-5.63
N10240 X0.969 Y-5.58
N10245 X1.324 Y-5.507
N10250 X1.674 Y-5.411
N10255 X2.017 Y-5.292
N10260 X2.352 Y-5.152
N10265 X2.677 Y-4.991
N10270 X2.992 Y-4.811
N10275 X3.295 Y-4.611
N10280 X3.586 Y-4.394
N10285 X3.864 Y-4.16
N10290 X4.128 Y-3.912
N10295 X4.378 Y-3.649
N10300 X4.614 Y-3.373
N10305 X4.834 Y-3.084
N10310 X5.037 Y-2.784
N10315 X5.225 Y-2.473
N10320 X5.395 Y-2.152
N10325 X5.547 Y-1.823
N10330 X5.68 Y-1.485
N10335 X5.794 Y-1.141
N10340 X5.889 Y-0.791
N10345 X5.964 Y-0.435
N10350 X6.018 Y-0.077
N10355 X6.051 Y0.285
N10360 X6.063 Y0.648
N10365 X6.054 Y1.01
N10370 X6.024 Y1.372
N10375 X5.972 Y1.731
N10380 X5.899 Y2.087
N10385 X5.805 Y2.437
N10390 X5.691 Y2.782
N10395 X5.556 Y3.119
N10400 X5.401 Y3.447
N10405 X5.227 Y3.766
N10410 X5.036 Y4.074
N10415 X4.826 Y4.37
N10420 X4.598 Y4.652
N10425 X4.355 Y4.922
N10430 X4.096 Y5.176
N10435 X3.823 Y5.416
N10440 X3.537 Y5.638
N10445 X3.238 Y5.844
N10450 X2.927 Y6.032
N10455 X2.607 Y6.202
N10460 X2.277 Y6.353
N10465 X1.939 Y6.485
N10470 X1.594 Y6.598
N10475 X1.243 Y6.691
N10480 X0.888 Y6.765
N10485 X0.529 Y6.819
N10490 X0.167 Y6.852
N10495 X-0.195 Y6.865
N10500 X-0.558 Y6.858
N10505 X-0.92 Y6.832
N10510 X-1.28 Y6.785
N10515 X-1.637 Y6.719
N10520 X-1.989 Y6.633
N10525 X-2.337 Y6.529
N10530 X-2.679 Y6.406
N10535 X-3.013 Y6.265
N10540 X-3.339 Y6.106
N10545 X-3.656 Y5.929
N10550 X-3.964 Y5.737
N10555 X-4.261 Y5.528
N10560 X-4.546 Y5.303
N10565 X-4.818 Y5.064
N10570 X-5.078 Y4.81
N10575 X-5.324 Y4.544
N10580 X-5.556 Y4.265
N10585 X-5.773 Y3.973
N10590 X-5.973 Y3.671
N10595 X-6.158 Y3.359
N10600 X-6.327 Y3.037
N10605 X-6.478 Y2.707
N10610 X-6.612 Y2.37
N10615 X-6.727 Y2.026
N10620 X-6.825 Y1.676
N10625 X-6.905 Y1.322
N10630 X-6.966 Y0.965
N10635 X-7.008 Y0.604
N10640 X-7.032 Y0.242
N10645 X-7.036 Y-0.121
N10650 X-7.022 Y-0.483
N10655 X-6.99 Y-0.845
N10660 X-6.938 Y-1.204
N10665 X-6.867 Y-1.56
N10670 X-6.779 Y-1.912
N10675 X-6.672 Y-2.259
N10680 X-6.548 Y-2.6
N10685 X-6.407 Y-2.934
N10690 X-6.247 Y-3.26
N10695 X-6.072 Y-3.578
N10700 X-5.88 Y-3.886
N10705 X-5.673 Y-4.184
N10710 X-5.451 Y-4.471
N10715 X-5.214 Y-4.746
N10720 X-4.963 Y-5.008
N10725 X-4.699 Y-5.257
N10730 X-4.422 Y-5.492
N10735 X-4.134 Y-5.713
N10740 X-3.835 Y-5.918
N10745 X-3.525 Y-6.108
N10750 X-3.207 Y-6.281
N10755 X-2.88 Y-6.438
N10760 X-2.545 Y-6.578
N10765 X-2.203 Y-6.7
N10770 X-1.855 Y-6.805
N10775 X-1.503 Y-6.891
N10780 X-1.147 Y-6.96
N10785 X-0.787 Y-7.01
N10790 X-0.426 Y-7.041
N10795 X-0.063 Y-7.054
N10800 X0.3 Y-7.048
N10805 X0.662 Y-7.024
N10810 X1.022 Y-6.98
N10815 X1.38 Y-6.918
N10820 X1.734 Y-6.838
N10825 X2.083 Y-6.74
N10830 X2.427 Y-6.625
N10835 X2.765 Y-6.492
N10840 X3.096 Y-6.342
N10845 X3.418 Y-6.176
N10850 X3.732 Y-5.994
N10855 X4.038 Y-5.798
N10860 X4.333 Y-5.587
N10865 X4.618 Y-5.363
N10870 X4.892 Y-5.125
N10875 X5.155 Y-4.874
N10880 X5.406 Y-4.612
N10885 X5.645 Y-4.339
N10890 X5.871 Y-4.055
N10895 X6.084 Y-3.761
N10900 X6.283 Y-3.458
N10905 X6.467 Y-3.145
N10910 X6.638 Y-2.825
N10915 X6.794 Y-2.497
N10920 X6.934 Y-2.163
N10925 X7.059 Y-1.822
N10930 X7.168 Y-1.476
N10935 X7.26 Y-1.125
N10940 X7.336 Y-0.77
N10945 X7.396 Y-0.412
N10950 X7.438 Y-0.051
N10955 X7.463 Y0.311
N10960 X7.471 Y0.674
N10965 X7.461 Y1.036
N10970 X7.435 Y1.398
N10975 X7.391 Y1.759
N10980 X7.33 Y2.116
N10985 X7.251 Y2.471
N10990 X7.156 Y2.821
N10995 X7.045 Y3.166
N11000 X6.916 Y3.506
N11005 X6.772 Y3.839
N11010 X6.611 Y4.164
N11015 X6.435 Y4.481
N11020 X6.245 Y4.79
N11025 X6.04 Y5.09
N11030 X5.82 Y5.379
N11035 X5.587 Y5.657
N11040 X5.341 Y5.923
N11045 X5.082 Y6.178
N11050 X4.812 Y6.42
N11055 X4.531 Y6.649
N11060 X4.239 Y6.865
N11065 X3.937 Y7.066
N11070 X3.625 Y7.253
N11075 X3.306 Y7.425
N11080 X2.979 Y7.583
N11085 X2.645 Y7.724
N11090 X2.304 Y7.85
N11095 X1.959 Y7.96
N11100 X1.608 Y8.054
N11105 X1.253 Y8.131
N11110 X0.896 Y8.193
N11115 X0.536 Y8.238
N11120 X0.174 Y8.266
N11125 X-0.189 Y8.277
N11130 X-0.552 Y8.272
N11135 X-0.914 Y8.251
N11140 X-1.275 Y8.214
N11145 X-1.634 Y8.16
N11150 X-1.99 Y8.09
N11155 X-2.343 Y8.004
N11160 X-2.691 Y7.902
N11165 X-3.035 Y7.786
N11170 X-3.373 Y7.653
N11175 X-3.704 Y7.506
N11180 X-4.029 Y7.344
N11185 X-4.346 Y7.168
N11190 X-4.656 Y6.978
N11195 X-4.957 Y6.775
N11200 X-5.248 Y6.559
N11205 X-5.529 Y6.33
N11210 X-5.8 Y6.089
N11215 X-6.061 Y5.836
N11220 X-6.31 Y5.572
N11225 X-6.547 Y5.297
N11230 X-6.772 Y5.013
N11235 X-6.985 Y4.718
N11240 X-7.184 Y4.415
N11245 X-7.37 Y4.103
N11250 X-7.542 Y3.784
N11255 X-7.7 Y3.457
N11260 X-7.844 Y3.124
N11265 X-7.973 Y2.785
N11270 X-8.087 Y2.44
N11275 X-8.187 Y2.091
N11280 X-8.271 Y1.738
N11285 X-8.34 Y1.382
N11290 X-8.393 Y1.023
N11295 X-8.431 Y0.662
N11300 X-8.453 Y0.3
N11305 X-8.459 Y-0.063
N11310 X-8.45 Y-0.426
N11315 X-8.426 Y-0.788
N11320 X-8.385 Y-1.149
N11325 X-8.329 Y-1.507
N11330 X-8.258 Y-1.863
N11335 X-8.171 Y-2.215
N11340 X-8.07 Y-2.564
N11345 X-7.954 Y-2.908
N11350 X-7.822 Y-3.246
N11355 X-7.677 Y-3.578
N11360 X-7.517 Y-3.904
N11365 X-7.343 Y-4.223
N11370 X-7.156 Y-4.534
N11375 X-6.956 Y-4.837
N11380 X-6.743 Y-5.13
N11385 X-6.517 Y-5.415
N11390 X-6.28 Y-5.689
N11395 X-6.031 Y-5.953
N11400 X-5.771 Y-6.206
N11405 X-5.5 Y-6.448
N11410 X-5.219 Y-6.678
N11415 X-4.929 Y-6.895
N11420 X-4.629 Y-7.1
N11425 X-4.321 Y-7.292
N11430 X-4.005 Y-7.471
N11435 X-3.682 Y-7.635
N11440 X-3.352 Y-7.786
N11445 X-3.015 Y-7.922
N11450 X-2.674 Y-8.044
N11455 X-2.327 Y-8.152
N11460 X-1.976 Y-8.244
N11465 X-1.621 Y-8.321
N11470 X-1.264 Y-8.383
N11475 X-0.904 Y-8.43
N11480 X-0.542 Y-8.461
N11485 X-0.18 Y-8.476
N11490 X0.183 Y-8.477
N11495 X0.546 Y-8.461
N11500 X0.907 Y-8.43
N11505 X1.267 Y-8.383
N11510 X1.625 Y-8.322
N11515 X1.98 Y-8.245
N11520 X2.331 Y-8.153
N11525 X2.678 Y-8.047
N11530 X3.02 Y-7.926
N11535 X3.356 Y-7.79
N11540 X3.687 Y-7.641
N11545 X4.012 Y-7.478
N11550 X4.329 Y-7.303
N11555 X4.64 Y-7.114
N11560 X4.942 Y-6.913
N11565 X5.236 Y-6.7
N11570 X5.521 Y-6.476
N11575 X5.797 Y-6.24
N11580 X6.063 Y-5.994
N11585 X6.32 Y-5.738
N11590 X6.567 Y-5.471
N11595 X6.802 Y-5.195
N11600 X7.027 Y-4.91
N11605 X7.24 Y-4.617
N11610 X7.442 Y-4.315
N11615 X7.633 Y-4.006
N11620 X7.811 Y-3.69
N11625 X7.976 Y-3.367
N11630 X8.128 Y-3.037
N11635 X8.268 Y-2.702
N11640 X8.394 Y-2.362
N11645 X8.507 Y-2.017
N11650 X8.606 Y-1.668
N11655 X8.692 Y-1.316
N11660 X8.763 Y-0.96
N11665 X8.82 Y-0.601
N11670 X8.862 Y-0.241
N11675 X8.891 Y0.121
N11680 X8.905 Y0.484
N11685 Y0.846
N11690 X8.89 Y1.209
N11695 X8.86 Y1.571
N11700 X8.815 Y1.931
N11705 X8.757 Y2.289
N11710 X8.684 Y2.645
N11715 X8.597 Y2.997
N11720 X8.496 Y3.345
N11725 X8.38 Y3.69
N11730 X8.251 Y4.029
N11735 X8.108 Y4.362
N11740 X7.953 Y4.69
N11745 X7.784 Y5.011
N11750 X7.602 Y5.325
N11755 X7.408 Y5.632
N11760 X7.201 Y5.93
N11765 X6.982 Y6.22
N11770 X6.753 Y6.501
N11775 X6.512 Y6.772
N11780 X6.26 Y7.034
N11785 X5.998 Y7.285
N11790 X5.727 Y7.526
N11795 X5.445 Y7.755
N11800 X5.155 Y7.973
N11805 X4.857 Y8.18
N11810 X4.551 Y8.375
N11815 X4.237 Y8.557
N11820 X3.916 Y8.726
N11825 X3.589 Y8.883
N11830 X3.256 Y9.027
N11835 X2.917 Y9.158
N11840 X2.574 Y9.275
N11845 X2.226 Y9.379
N11850 X1.874 Y9.469
N11855 X1.519 Y9.545
N11860 X1.162 Y9.607
N11865 X0.802 Y9.656
N11870 X0.441 Y9.691
N11875 X0.079 Y9.711
N11880 X-0.284 Y9.718
N11885 X-0.647 Y9.71
N11890 X-1.009 Y9.689
N11895 X-1.37 Y9.653
N11900 X-1.73 Y9.604
N11905 X-2.087 Y9.542
N11910 X-2.442 Y9.466
N11915 X-2.794 Y9.376
N11920 X-3.142 Y9.272
N11925 X-3.486 Y9.156
N11930 X-3.825 Y9.027
N11935 X-4.159 Y8.885
N11940 X-4.487 Y8.731
N11945 X-4.81 Y8.564
N11950 X-5.125 Y8.385
N11955 X-5.434 Y8.195
N11960 X-5.736 Y7.992
N11965 X-6.029 Y7.779
N11970 X-6.315 Y7.555
N11975 X-6.592 Y7.321
N11980 X-6.86 Y7.076
N11985 X-7.118 Y6.821
N11990 X-7.367 Y6.557
N11995 X-7.606 Y6.284
N12000 X-7.834 Y6.002
N12005 X-8.053 Y5.712
N12010 X-8.26 Y5.414
N12015 X-8.455 Y5.108
N12020 X-8.639 Y4.796
N12025 X-8.812 Y4.476
N12030 X-8.972 Y4.151
N12035 X-9.121 Y3.82
N12040 X-9.257 Y3.483
N12045 X-9.381 Y3.142
N12050 X-9.491 Y2.796
N12055 X-9.589 Y2.447
N12060 X-9.674 Y2.094
N12065 X-9.746 Y1.738
N12070 X-9.805 Y1.38
N12075 X-9.85 Y1.02
N12080 X-9.883 Y0.659
N12085 X-9.901 Y0.296
N12090 X-9.907 Y-0.067
N12095 X-9.899 Y-0.429
N12100 X-9.877 Y-0.792
N12105 X-9.843 Y-1.153
N12110 X-9.796 Y-1.513
N12115 X-9.735 Y-1.871
N12120 X-9.66 Y-2.226
N12125 X-9.573 Y-2.578
N12130 X-9.473 Y-2.927
N12135 X-9.36 Y-3.272
N12140 X-9.235 Y-3.612
N12145 X-9.098 Y-3.948
N12150 X-8.948 Y-4.279
N12155 X-8.785 Y-4.603
N12160 X-8.612 Y-4.922
N12165 X-8.426 Y-5.234
N12170 X-8.229 Y-5.539
N12175 X-8.022 Y-5.837
N12180 X-7.804 Y-6.127
N12185 X-7.575 Y-6.408
N12190 X-7.335 Y-6.681
N12195 X-7.086 Y-6.945
N12200 X-6.828 Y-7.2
N12205 X-6.56 Y-7.445
N12210 X-6.284 Y-7.68
N12215 X-5.999 Y-7.905
N12220 X-5.706 Y-8.119
N12225 X-5.406 Y-8.323
N12230 X-5.098 Y-8.515
N12235 X-4.783 Y-8.696
N12240 X-4.462 Y-8.865
N12245 X-4.135 Y-9.023
N12250 X-3.803 Y-9.168
N12255 X-3.465 Y-9.301
N12260 X-3.123 Y-9.422
N12265 X-2.776 Y-9.529
N12270 X-2.426 Y-9.625
N12275 X-2.073 Y-9.707
N12280 X-1.716 Y-9.777
N12285 X-1.358 Y-9.833
N12290 X-0.998 Y-9.876
N12295 X-0.636 Y-9.906
N12300 X-0.273 Y-9.923
N12305 X0.09 Y-9.926
N12310 X0.452 Y-9.917
N12315 X0.814 Y-9.894
N12320 X1.176 Y-9.858
N12325 X1.535 Y-9.808
N12330 X1.893 Y-9.746
N12335 X2.248 Y-9.671
N12340 X2.6 Y-9.582
N12345 X2.948 Y-9.482
N12350 X3.293 Y-9.369
N12355 X3.634 Y-9.244
N12360 X3.97 Y-9.106
N12365 X4.301 Y-8.957
N12370 X4.626 Y-8.796
N12375 X4.945 Y-8.624
N12380 X5.259 Y-8.441
N12385 X5.565 Y-8.247
N12390 X5.865 Y-8.042
N12395 X6.158 Y-7.827
N12400 X6.443 Y-7.603
N12405 X6.72 Y-7.368
N12410 X6.988 Y-7.124
N12415 X7.249 Y-6.872
N12420 X7.501 Y-6.61
N12425 X7.743 Y-6.341
N12430 X7.977 Y-6.063
N12435 X8.2 Y-5.777
N12440 X8.414 Y-5.484
N12445 X8.618 Y-5.183
N12450 X8.812 Y-4.877
N12455 X8.995 Y-4.563
N12460 X9.168 Y-4.244
N12465 X9.329 Y-3.919
N12470 X9.48 Y-3.589
N12475 X9.619 Y-3.254
N12480 X9.747 Y-2.914
N12485 X9.863 Y-2.57
N12490 X9.967 Y-2.222
N12495 X10.059 Y-1.872
N12500 X10.14 Y-1.518
N12505 X10.208 Y-1.161
N12510 X10.264 Y-0.803
N12515 X10.307 Y-0.442
N12520 X10.339 Y-0.081
N12525 X10.357 Y0.282
N12530 X10.364 Y0.645
N12535 X10.358 Y1.007
N12540 X10.339 Y1.37
N12545 X10.308 Y1.731
N12550 X10.264 Y2.092
N12555 X10.208 Y2.45
N12560 X10.139 Y2.807
N12565 X10.059 Y3.16
N12570 X9.966 Y3.511
N12575 X9.861 Y3.859
N12580 X9.743 Y4.202
N12585 X9.614 Y4.541
N12590 X9.474 Y4.876
N12595 X9.322 Y5.205
N12600 X9.158 Y5.529
N12605 X8.984 Y5.848
N12610 X8.798 Y6.159
N12615 X8.602 Y6.465
N12620 X8.395 Y6.763
N12625 X8.179 Y7.054
N12630 X7.952 Y7.337
N12635 X7.715 Y7.613
N12640 X7.47 Y7.88
N12645 X7.215 Y8.138
N12650 X6.951 Y8.388
N12655 X6.679 Y8.628
N12660 X6.399 Y8.859
N12665 X6.111 Y9.08
N12670 X5.816 Y9.291
N12675 X5.514 Y9.491
N12680 X5.205 Y9.682
N12685 X4.889 Y9.861
N12690 X4.568 Y10.03
N12695 X4.241 Y10.188
N12700 X3.909 Y10.334
N12705 X3.572 Y10.47
N12710 X3.231 Y10.594
N12715 X2.886 Y10.706
N12720 X2.537 Y10.806
N12725 X2.185 Y10.894
N12730 X1.831 Y10.971
N12735 X1.474 Y11.036
N12740 X1.115 Y11.088
N12745 X0.754 Y11.129
N12750 X0.392 Y11.158
N12755 X0.03 Y11.174
N12760 X-0.333 Y11.178
N12765 X-0.696 Y11.17
N12770 X-1.058 Y11.15
N12775 X-1.42 Y11.118
N12780 X-1.78 Y11.074
N12785 X-2.139 Y11.018
N12790 X-2.495 Y10.951
N12795 X-2.849 Y10.871
N12800 X-3.201 Y10.78
N12805 X-3.549 Y10.677
N12810 X-3.893 Y10.563
N12815 X-4.234 Y10.438
N12820 X-4.57 Y10.301
N12825 X-4.902 Y10.154
N12830 X-5.228 Y9.996
N12835 X-5.55 Y9.827
N12840 X-5.865 Y9.648
N12845 X-6.175 Y9.458
N12850 X-6.478 Y9.259
N12855 X-6.774 Y9.049
N12860 X-7.064 Y8.831
N12865 X-7.346 Y8.603
N12870 X-7.621 Y8.365
N12875 X-7.888 Y8.119
N12880 X-8.146 Y7.865
N12885 X-8.396 Y7.602
N12890 X-8.638 Y7.331
N12895 X-8.871 Y7.053
N12900 X-9.094 Y6.767
N12905 X-9.309 Y6.474
N12910 X-9.513 Y6.174
N12915 X-9.708 Y5.868
N12920 X-9.893 Y5.555
N12925 X-10.067 Y5.237
N12930 X-10.232 Y4.914
N12935 X-10.386 Y4.585
N12940 X-10.529 Y4.252
N12945 X-10.661 Y3.914
N12950 X-10.782 Y3.572
N12955 X-10.893 Y3.226
N12960 X-10.992 Y2.877
N12965 X-11.079 Y2.525
N12970 X-11.156 Y2.17
N12975 X-11.221 Y1.813
N12980 X-11.275 Y1.454
N12985 X-11.317 Y1.093
N12990 X-11.347 Y0.732
N12995 X-11.366 Y0.369
N13000 X-11.373 Y0.007
N13005 X-11.368 Y-0.356
N13010 X-11.352 Y-0.719
N13015 X-11.325 Y-1.081
N13020 X-11.286 Y-1.442
N13025 X-11.235 Y-1.801
N13030 X-11.172 Y-2.158
N13035 X-11.098 Y-2.514
N13040 X-11.013 Y-2.867
N13045 X-10.917 Y-3.216
N13050 X-10.81 Y-3.563
N13055 X-10.691 Y-3.906
N13060 X-10.562 Y-4.245
N13065 X-10.422 Y-4.58
N13070 X-10.271 Y-4.91
N13075 X-10.11 Y-5.235
N13080 X-9.938 Y-5.555
N13085 X-9.757 Y-5.869
N13090 X-9.565 Y-6.177
N13095 X-9.364 Y-6.479
N13100 X-9.153 Y-6.775
N13105 X-8.933 Y-7.063
N13110 X-8.703 Y-7.344
N13115 X-8.465 Y-7.618
N13120 X-8.218 Y-7.884
N13125 X-7.963 Y-8.142
N13130 X-7.7 Y-8.392
N13135 X-7.429 Y-8.634
N13140 X-7.15 Y-8.866
N13145 X-6.864 Y-9.09
N13150 X-6.571 Y-9.304
N13155 X-6.272 Y-9.509
N13160 X-5.966 Y-9.704
N13165 X-5.654 Y-9.889
N13170 X-5.336 Y-10.065
N13175 X-5.013 Y-10.23
N13180 X-4.685 Y-10.384
N13185 X-4.352 Y-10.528
N13190 X-4.014 Y-10.662
N13195 X-3.672 Y-10.784
N13200 X-3.327 Y-10.896
N13205 X-2.978 Y-10.997
N13210 X-2.627 Y-11.086
N13215 X-2.272 Y-11.164
N13220 X-1.916 Y-11.231
N13225 X-1.557 Y-11.286
N13230 X-1.197 Y-11.33
N13235 X-0.835 Y-11.363
N13240 X-0.473 Y-11.384
N13245 X-0.11 Y-11.393
N13250 X0.253 Y-11.391
N13255 X0.615 Y-11.378
N13260 X0.977 Y-11.353
N13265 X1.338 Y-11.316
N13270 X1.698 Y-11.268
N13275 X2.056 Y-11.208
N13280 X2.412 Y-11.138
N13285 X2.766 Y-11.056
N13290 X3.117 Y-10.963
N13295 X3.464 Y-10.86
N13300 X3.809 Y-10.745
N13305 X4.149 Y-10.619
N13310 X4.486 Y-10.483
N13315 X4.818 Y-10.337
N13320 X5.145 Y-10.181
N13325 X5.468 Y-10.015
N13330 X5.785 Y-9.839
N13335 X6.097 Y-9.653
N13340 X6.403 Y-9.457
N13345 X6.703 Y-9.253
N13350 X6.996 Y-9.039
N13355 X7.283 Y-8.817
N13360 X7.563 Y-8.586
N13365 X7.836 Y-8.347
N13370 X8.102 Y-8.1
N13375 X8.36 Y-7.845
N13380 X8.61 Y-7.582
N13385 X8.853 Y-7.312
N13390 X9.087 Y-7.035
N13395 X9.312 Y-6.75
N13400 X9.53 Y-6.46
N13405 X9.738 Y-6.163
N13410 X9.938 Y-5.86
N13415 X10.128 Y-5.551
N13420 X10.309 Y-5.236
N13425 X10.481 Y-4.917
N13430 X10.643 Y-4.592
N13435 X10.795 Y-4.262
N13440 X10.937 Y-3.928
N13445 X11.07 Y-3.59
N13450 X11.192 Y-3.249
N13455 X11.304 Y-2.904
N13460 X11.406 Y-2.555
N13465 X11.497 Y-2.204
N13470 X11.577 Y-1.85
N13475 X11.646 Y-1.494
N13480 X11.705 Y-1.136
N13485 X11.754 Y-0.776
N13490 X11.791 Y-0.415
N13495 X11.818 Y-0.053
N13500 X11.833 Y0.309
N13505 X11.838 Y0.672
N13510 X11.831 Y1.035
N13515 X11.814 Y1.398
N13520 X11.786 Y1.759
N13525 X11.746 Y2.12
N13530 X11.696 Y2.48
N13535 X11.635 Y2.837
N13540 X11.564 Y3.193
N13545 X11.481 Y3.547
N13550 X11.387 Y3.897
N13555 X11.283 Y4.245
N13560 X11.169 Y4.589
N13565 X11.044 Y4.93
N13570 X10.909 Y5.267
N13575 X10.764 Y5.6
N13580 X10.609 Y5.928
N13585 X10.443 Y6.251
N13590 X10.268 Y6.569
N13595 X10.084 Y6.881
N13600 X9.89 Y7.188
N13605 X9.687 Y7.488
N13610 X9.474 Y7.783
N13615 X9.254 Y8.071
N13620 X9.024 Y8.352
N13625 X8.786 Y8.626
N13630 X8.54 Y8.893
N13635 X8.286 Y9.152
N13640 X8.024 Y9.403
N13645 X7.754 Y9.646
N13650 X7.478 Y9.881
N13655 X7.195 Y10.108
N13660 X6.905 Y10.326
N13665 X6.608 Y10.535
N13670 X6.305 Y10.735
N13675 X5.996 Y10.926
N13680 X5.682 Y11.108
N13685 X5.363 Y11.28
N13690 X5.038 Y11.442
N13695 X4.709 Y11.595
N13700 X4.376 Y11.738
N13705 X4.038 Y11.871
N13710 X3.696 Y11.994
N13715 X3.351 Y12.106
N13720 X3.003 Y12.208
N13725 X2.652 Y12.3
N13730 X2.298 Y12.381
N13735 X1.942 Y12.452
N13740 X1.584 Y12.513
N13745 X1.225 Y12.563
N13750 X0.864 Y12.602
N13755 X0.502 Y12.63
N13760 X0.14 Y12.647
N13765 X-0.223 Y12.654
N13770 X-0.586 Y12.651
N13775 X-0.949 Y12.637
N13780 X-1.311 Y12.612
N13785 X-1.672 Y12.577
N13790 X-2.032 Y12.531
N13795 X-2.39 Y12.474
N13800 X-2.747 Y12.407
N13805 X-3.102 Y12.33
N13810 X-3.454 Y12.242
N13815 X-3.803 Y12.145
N13820 X-4.15 Y12.037
N13825 X-4.493 Y11.919
N13830 X-4.833 Y11.791
N13835 X-5.169 Y11.654
N13840 X-5.5 Y11.506
N13845 X-5.827 Y11.349
N13850 X-6.15 Y11.183
N13855 X-6.468 Y11.008
N13860 X-6.78 Y10.823
N13865 X-7.087 Y10.63
N13870 X-7.389 Y10.428
N13875 X-7.684 Y10.217
N13880 X-7.973 Y9.997
N13885 X-8.256 Y9.77
N13890 X-8.532 Y9.534
N13895 X-8.801 Y9.291
N13900 X-9.063 Y9.04
N13905 X-9.318 Y8.782
N13910 X-9.566 Y8.516
N13915 X-9.805 Y8.244
N13920 X-10.037 Y7.964
N13925 X-10.26 Y7.678
N13930 X-10.476 Y7.386
N13935 X-10.683 Y7.088
N13940 X-10.881 Y6.784
N13945 X-11.07 Y6.475
N13950 X-11.251 Y6.16
N13955 X-11.423 Y5.84
N13960 X-11.585 Y5.516
N13965 X-11.739 Y5.187
N13970 X-11.882 Y4.853
N13975 X-12.016 Y4.516
N13980 X-12.14 Y4.175
N13985 X-12.255 Y3.831
N13990 X-12.36 Y3.483
N13995 X-12.455 Y3.133
N14000 X-12.54 Y2.78
N14005 X-12.615 Y2.425
N14010 X-12.68 Y2.068
N14015 X-12.734 Y1.709
N14020 X-12.779 Y1.349
N14025 X-12.813 Y0.988
N14030 X-12.837 Y0.626
N14035 X-12.851 Y0.263
N14040 X-12.854 Y-0.1
N14045 X-12.847 Y-0.463
N14050 X-12.83 Y-0.825
N14055 X-12.802 Y-1.187
N14060 X-12.764 Y-1.548
N14065 X-12.716 Y-1.908
N14070 X-12.658 Y-2.266
N14075 X-12.59 Y-2.622
N14080 X-12.512 Y-2.977
N14085 X-12.424 Y-3.329
N14090 X-12.326 Y-3.678
N14095 X-12.218 Y-4.025
N14100 X-12.1 Y-4.368
N14105 X-11.972 Y-4.707
N14110 X-11.835 Y-5.044
N14115 X-11.688 Y-5.376
N14120 X-11.533 Y-5.703
N14125 X-11.368 Y-6.027
N14130 X-11.194 Y-6.345
N14135 X-11.011 Y-6.659
N14140 X-10.819 Y-6.967
N14145 X-10.619 Y-7.269
N14150 X-10.41 Y-7.566
N14155 X-10.192 Y-7.857
N14160 X-9.967 Y-8.141
N14165 X-9.734 Y-8.419
N14170 X-9.493 Y-8.691
N14175 X-9.245 Y-8.955
N14180 X-8.989 Y-9.212
N14185 X-8.725 Y-9.462
N14190 X-8.455 Y-9.705
N14195 X-8.178 Y-9.939
N14200 X-7.895 Y-10.166
N14205 X-7.606 Y-10.385
N14210 X-7.31 Y-10.595
N14215 X-7.009 Y-10.798
N14220 X-6.702 Y-10.991
N14225 X-6.389 Y-11.176
N14230 X-6.072 Y-11.352
N14235 X-5.749 Y-11.518
N14240 X-5.422 Y-11.676
N14245 X-5.091 Y-11.824
N14250 X-4.756 Y-11.963
N14255 X-4.417 Y-12.093
N14260 X-4.075 Y-12.213
N14265 X-3.729 Y-12.323
N14270 X-3.38 Y-12.423
N14275 X-3.028 Y-12.513
N14280 X-2.675 Y-12.594
N14285 X-2.319 Y-12.664
N14290 X-1.961 Y-12.725
N14295 X-1.601 Y-12.775
N14300 X-1.241 Y-12.816
N14305 X-0.879 Y-12.846
N14310 X-0.517 Y-12.865
N14315 X-0.154 Y-12.875
N14320 X0.209 Y-12.874
N14325 X0.572 Y-12.863
N14330 X0.934 Y-12.842
N14335 X1.296 Y-12.811
N14340 X1.656 Y-12.77
N14345 X2.016 Y-12.719
N14350 X2.373 Y-12.658
N14355 X2.729 Y-12.586
N14360 X3.083 Y-12.505
N14365 X3.434 Y-12.414
N14370 X3.783 Y-12.313
N14375 X4.128 Y-12.203
N14380 X4.471 Y-12.083
N14385 X4.81 Y-11.954
N14390 X5.146 Y-11.816
N14395 X5.477 Y-11.668
N14400 X5.805 Y-11.511
N14405 X6.127 Y-11.346
N14410 X6.446 Y-11.171
N14415 X6.759 Y-10.988
N14420 X7.067 Y-10.797
N14425 X7.37 Y-10.597
N14430 X7.668 Y-10.389
N14435 X7.96 Y-10.174
N14440 X8.246 Y-9.95
N14445 X8.526 Y-9.719
N14450 X8.799 Y-9.481
N14455 X9.066 Y-9.235
N14460 X9.326 Y-8.982
N14465 X9.58 Y-8.722
N14470 X9.826 Y-8.456
N14475 X10.066 Y-8.183
N14480 X10.298 Y-7.904
N14485 X10.522 Y-7.619
N14490 X10.739 Y-7.328
N14495 X10.948 Y-7.031
N14500 X11.148 Y-6.728
N14505 X11.341 Y-6.421
N14510 X11.526 Y-6.108
N14515 X11.702 Y-5.791
N14520 X11.869 Y-5.469
N14525 X12.029 Y-5.143
N14530 X12.179 Y-4.813
N14535 X12.321 Y-4.479
N14540 X12.453 Y-4.141
N14545 X12.576 Y-3.799
N14550 X12.691 Y-3.455
N14555 X12.796 Y-3.108
N14560 X12.891 Y-2.758
N14565 X12.978 Y-2.405
N14570 X13.055 Y-2.05
N14575 X13.122 Y-1.694
N14580 X13.18 Y-1.336
N14585 X13.228 Y-0.976
N14590 X13.267 Y-0.615
N14595 X13.296 Y-0.253
N14600 X13.315 Y0.109
N14605 X13.324 Y0.472
N14610 Y0.835
N14615 X13.314 Y1.198
N14620 X13.294 Y1.56
N14625 X13.264 Y1.922
N14630 X13.225 Y2.282
N14635 X13.176 Y2.642
N14640 X13.117 Y3.
N14645 X13.048 Y3.357
N14650 X12.97 Y3.711
N14655 X12.883 Y4.063
N14660 X12.786 Y4.413
N14665 X12.68 Y4.76
N14670 X12.564 Y5.104
N14675 X12.439 Y5.445
N14680 X12.305 Y5.782
N14685 X12.162 Y6.115
N14690 X12.01 Y6.445
N14695 X11.849 Y6.77
N14700 X11.679 Y7.091
N14705 X11.501 Y7.407
N14710 X11.314 Y7.718
N14715 X11.119 Y8.024
N14720 X10.916 Y8.325
N14725 X10.705 Y8.62
N14730 X10.486 Y8.909
N14735 X10.259 Y9.192
N14740 X10.024 Y9.47
N14745 X9.782 Y9.74
N14750 X9.534 Y10.004
N14755 X9.278 Y10.262
N14760 X9.015 Y10.512
N14765 X8.746 Y10.755
N14770 X8.47 Y10.991
N14775 X8.188 Y11.219
N14780 X7.899 Y11.44
N14785 X7.605 Y11.653
N14790 X7.306 Y11.858
N14795 X7.001 Y12.055
N14800 X6.691 Y12.244
N14805 X6.376 Y12.424
N14810 X6.057 Y12.596
N14815 X5.733 Y12.759
N14820 X5.404 Y12.914
N14825 X5.072 Y13.06
N14830 X4.736 Y13.196
N14835 X4.396 Y13.324
N14840 X4.054 Y13.444
N14845 X3.708 Y13.554
N14850 X3.359 Y13.654
N14855 X3.008 Y13.746
N14860 X2.654 Y13.828
N14865 X2.299 Y13.9
N14870 X1.941 Y13.963
N14875 X1.582 Y14.017
N14880 X1.222 Y14.062
N14885 X0.861 Y14.096
N14890 X0.499 Y14.122
N14895 X0.136 Y14.138
N14900 X-0.226 Y14.144
N14905 X-0.589 Y14.141
N14910 X-0.952 Y14.128
N14915 X-1.314 Y14.106
N14920 X-1.676 Y14.074
N14925 X-2.036 Y14.033
N14930 X-2.396 Y13.983
N14935 X-2.754 Y13.923
N14940 X-3.11 Y13.854
N14945 X-3.464 Y13.776
N14950 X-3.817 Y13.688
N14955 X-4.166 Y13.592
N14960 X-4.513 Y13.486
N14965 X-4.858 Y13.371
N14970 X-5.199 Y13.247
N14975 X-5.537 Y13.115
N14980 X-5.871 Y12.974
N14985 X-6.202 Y12.824
N14990 X-6.529 Y12.666
N14995 X-6.851 Y12.5
N15000 X-7.169 Y12.325
N15005 X-7.482 Y12.142
N15010 X-7.791 Y11.95
N15015 X-8.094 Y11.751
N15020 X-8.393 Y11.545
N15025 X-8.685 Y11.33
N15030 X-8.973 Y11.109
N15035 X-9.254 Y10.88
N15040 X-9.53 Y10.644
N15045 X-9.799 Y10.4
N15050 X-10.062 Y10.15
N15055 X-10.319 Y9.893
N15060 X-10.568 Y9.63
N15065 X-10.811 Y9.36
N15070 X-11.047 Y9.085
N15075 X-11.276 Y8.803
N15080 X-11.498 Y8.516
N15085 X-11.712 Y8.223
N15090 X-11.919 Y7.925
N15095 X-12.118 Y7.621
N15100 X-12.309 Y7.312
N15105 X-12.492 Y6.999
N15110 X-12.667 Y6.681
N15115 X-12.833 Y6.359
N15120 X-12.992 Y6.032
N15125 X-13.142 Y5.702
N15130 X-13.284 Y5.368
N15135 X-13.418 Y5.031
N15140 X-13.542 Y4.69
N15145 X-13.658 Y4.346
N15150 X-13.765 Y3.999
N15155 X-13.863 Y3.65
N15160 X-13.952 Y3.298
N15165 X-14.032 Y2.944
N15170 X-14.104 Y2.588
N15175 X-14.166 Y2.23
N15180 X-14.219 Y1.871
N15185 X-14.263 Y1.511
N15190 X-14.298 Y1.15
N15195 X-14.323 Y0.788
N15200 X-14.34 Y0.425
N15205 X-14.347 Y0.063
N15210 X-14.345 Y-0.3
N15215 X-14.333 Y-0.663
N15220 X-14.313 Y-1.025
N15225 X-14.283 Y-1.387
N15230 X-14.245 Y-1.748
N15235 X-14.197 Y-2.108
N15240 X-14.139 Y-2.466
N15245 X-14.073 Y-2.823
N15250 X-13.998 Y-3.178
N15255 X-13.914 Y-3.531
N15260 X-13.821 Y-3.882
N15265 X-13.719 Y-4.23
N15270 X-13.608 Y-4.576
N15275 X-13.489 Y-4.918
N15280 X-13.361 Y-5.258
N15285 X-13.224 Y-5.594
N15290 X-13.079 Y-5.927
N15295 X-12.925 Y-6.255
N15300 X-12.763 Y-6.58
N15305 X-12.593 Y-6.901
N15310 X-12.415 Y-7.217
N15315 X-12.229 Y-7.529
N15320 X-12.036 Y-7.836
N15325 X-11.834 Y-8.138
N15330 X-11.625 Y-8.434
N15335 X-11.408 Y-8.725
N15340 X-11.185 Y-9.011
N15345 X-10.954 Y-9.291
N15350 X-10.716 Y-9.565
N15355 X-10.471 Y-9.833
N15360 X-10.219 Y-10.094
N15365 X-9.961 Y-10.35
N15370 X-9.697 Y-10.598
N15375 X-9.426 Y-10.84
N15380 X-9.149 Y-11.075
N15385 X-8.867 Y-11.302
N15390 X-8.579 Y-11.523
N15395 X-8.285 Y-11.736
N15400 X-7.986 Y-11.942
N15405 X-7.682 Y-12.14
N15410 X-7.373 Y-12.33
N15415 X-7.059 Y-12.513
N15420 X-6.741 Y-12.687
N15425 X-6.418 Y-12.854
N15430 X-6.092 Y-13.012
N15435 X-5.761 Y-13.162
N15440 X-5.427 Y-13.303
N15445 X-5.089 Y-13.436
N15450 X-4.748 Y-13.56
N15455 X-4.404 Y-13.676
N15460 X-4.058 Y-13.783
N15465 X-3.708 Y-13.882
N15470 X-3.357 Y-13.971
N15475 X-3.003 Y-14.051
N15480 X-2.647 Y-14.123
N15485 X-2.289 Y-14.185
N15490 X-1.93 Y-14.238
N15495 X-1.57 Y-14.283
N15500 X-1.209 Y-14.318
N15505 X-0.847 Y-14.344
N15510 X-0.485 Y-14.361
N15515 X-0.122 Y-14.369
N15520 X0.241 Y-14.368
N15525 X0.604 Y-14.357
N15530 X0.966 Y-14.338
N15535 X1.328 Y-14.309
N15540 X1.689 Y-14.271
N15545 X2.049 Y-14.225
N15550 X2.408 Y-14.169
N15555 X2.765 Y-14.104
N15560 X3.12 Y-14.031
N15565 X3.473 Y-13.948
N15570 X3.825 Y-13.857
N15575 X4.174 Y-13.757
N15580 X4.52 Y-13.648
N15585 X4.863 Y-13.531
N15590 X5.204 Y-13.405
N15595 X5.541 Y-13.271
N15600 X5.875 Y-13.129
N15605 X6.205 Y-12.979
N15610 X6.532 Y-12.82
N15615 X6.854 Y-12.654
N15620 X7.172 Y-12.479
N15625 X7.486 Y-12.297
N15630 X7.796 Y-12.108
N15635 X8.1 Y-11.91
N15640 X8.4 Y-11.706
N15645 X8.695 Y-11.494
N15650 X8.984 Y-11.275
N15655 X9.268 Y-11.049
N15660 X9.547 Y-10.817
N15665 X9.82 Y-10.577
N15670 X10.087 Y-10.332
N15675 X10.348 Y-10.079
N15680 X10.602 Y-9.821
N15685 X10.851 Y-9.556
N15690 X11.093 Y-9.286
N15695 X11.328 Y-9.01
N15700 X11.557 Y-8.728
N15705 X11.779 Y-8.441
N15710 X11.994 Y-8.149
N15715 X12.202 Y-7.851
N15720 X12.403 Y-7.549
N15725 X12.596 Y-7.242
N15730 X12.782 Y-6.93
N15735 X12.96 Y-6.614
N15740 X13.131 Y-6.294
N15745 X13.294 Y-5.97
N15750 X13.45 Y-5.642
N15755 X13.597 Y-5.31
N15760 X13.737 Y-4.975
N15765 X13.868 Y-4.637
N15770 X13.991 Y-4.295
N15775 X14.106 Y-3.951
N15780 X14.212 Y-3.604
N15785 X14.31 Y-3.255
N15790 X14.4 Y-2.903
N15795 X14.481 Y-2.549
N15800 X14.554 Y-2.194
N15805 X14.618 Y-1.836
N15810 X14.674 Y-1.478
N15815 X14.72 Y-1.118
N15820 X14.758 Y-0.757
N15825 X14.788 Y-0.395
N15830 X14.808 Y-0.033
N15835 X14.82 Y0.33
N15840 X14.823 Y0.693
N15845 X14.817 Y1.056
N15850 X14.803 Y1.418
N15855 X14.78 Y1.78
N15860 X14.748 Y2.142
N15865 X14.707 Y2.502
N15870 X14.657 Y2.862
N15875 X14.599 Y3.22
N15880 X14.532 Y3.577
N15885 X14.457 Y3.932
N15890 X14.372 Y4.285
N15895 X14.28 Y4.636
N15900 X14.179 Y4.984
N15905 X14.069 Y5.33
N15910 X13.951 Y5.673
N15915 X13.825 Y6.014
N15920 X13.691 Y6.351
N15925 X13.548 Y6.684
N15930 X13.397 Y7.015
N15935 X13.238 Y7.341
N15940 X13.072 Y7.663
N15945 X12.898 Y7.982
N15950 X12.716 Y8.296
N15955 X12.526 Y8.605
N15960 X12.329 Y8.91
N15965 X12.125 Y9.21
N15970 X11.913 Y9.505
N15975 X11.695 Y9.794
N15980 X11.469 Y10.079
N15985 X11.236 Y10.357
N15990 X10.997 Y10.63
N15995 X10.752 Y10.897
N16000 X10.5 Y11.159
N16005 X10.241 Y11.414
N16010 X9.977 Y11.662
N16015 X9.707 Y11.905
N16020 X9.431 Y12.14
N16025 X9.149 Y12.369
N16030 X8.862 Y12.591
N16035 X8.57 Y12.806
N16040 X8.272 Y13.014
N16045 X7.97 Y13.214
N16050 X7.663 Y13.408
N16055 X7.351 Y13.594
N16060 X7.035 Y13.772
N16065 X6.715 Y13.943
N16070 X6.391 Y14.106
N16075 X6.062 Y14.261
N16080 X5.731 Y14.408
N16085 X5.396 Y14.547
N16090 X5.057 Y14.679
N16095 X4.716 Y14.802
N16100 X4.372 Y14.917
N16105 X4.025 Y15.023
N16110 X3.675 Y15.122
N16115 X3.324 Y15.212
N16120 X2.97 Y15.293
N16125 X2.615 Y15.366
N16130 X2.258 Y15.431
N16135 X1.899 Y15.487
N16140 X1.539 Y15.535
N16145 X1.178 Y15.574
N16150 X0.817 Y15.604
N16155 X0.455 Y15.626
N16160 X0.092 Y15.64
N16165 X-0.271 Y15.644
N16170 X-0.634 Y15.641
N16175 X-0.997 Y15.628
N16180 X-1.359 Y15.607
N16185 X-1.721 Y15.578
N16190 X-2.081 Y15.539
N16195 X-2.441 Y15.493
N16200 X-2.8 Y15.438
N16205 X-3.157 Y15.374
N16210 X-3.513 Y15.303
N16215 X-3.867 Y15.223
N16220 X-4.219 Y15.134
N16225 X-4.569 Y15.038
N16230 X-4.916 Y14.933
N16235 X-5.261 Y14.82
N16240 X-5.603 Y14.698
N16245 X-5.942 Y14.569
N16250 X-6.279 Y14.433
N16255 X-6.611 Y14.288
N16260 X-6.941 Y14.135
N16265 X-7.266 Y13.975
N16270 X-7.588 Y13.808
N16275 X-7.906 Y13.633
N16280 X-8.22 Y13.45
N16285 X-8.529 Y13.26
N16290 X-8.834 Y13.063
N16295 X-9.134 Y12.859
N16300 X-9.429 Y12.648
N16305 X-9.72 Y12.431
N16310 X-10.005 Y12.206
N16315 X-10.285 Y11.975
N16320 X-10.56 Y11.738
N16325 X-10.828 Y11.494
N16330 X-11.092 Y11.244
N16335 X-11.349 Y10.988
N16340 X-11.6 Y10.726
N16345 X-11.845 Y10.459
N16350 X-12.084 Y10.185
N16355 X-12.316 Y9.907
N16360 X-12.542 Y9.623
N16365 X-12.762 Y9.334
N16370 X-12.974 Y9.04
N16375 X-13.18 Y8.741
N16380 X-13.379 Y8.437
N16385 X-13.571 Y8.129
N16390 X-13.755 Y7.816
N16395 X-13.932 Y7.5
N16400 X-14.102 Y7.179
N16405 X-14.264 Y6.854
N16410 X-14.419 Y6.526
N16415 X-14.567 Y6.195
N16420 X-14.706 Y5.86
N16425 X-14.838 Y5.522
N16430 X-14.962 Y5.18
N16435 X-15.078 Y4.837
N16440 X-15.187 Y4.49
N16445 X-15.287 Y4.141
N16450 X-15.379 Y3.79
N16455 X-15.463 Y3.437
N16460 X-15.539 Y3.082
N16465 X-15.606 Y2.726
N16470 X-15.666 Y2.368
N16475 X-15.717 Y2.008
N16480 X-15.76 Y1.648
N16485 X-15.795 Y1.287
N16490 X-15.821 Y0.925
N16495 X-15.839 Y0.562
N16500 X-15.848 Y0.2
N16505 X-15.849 Y-0.163
N16510 X-15.842 Y-0.526
N16515 X-15.827 Y-0.889
N16520 X-15.803 Y-1.251
N16525 X-15.772 Y-1.612
N16530 X-15.731 Y-1.973
N16535 X-15.683 Y-2.333
N16540 X-15.626 Y-2.691
N16545 X-15.561 Y-3.048
N16550 X-15.487 Y-3.404
N16555 X-15.406 Y-3.757
N16560 X-15.317 Y-4.109
N16565 X-15.219 Y-4.458
N16570 X-15.114 Y-4.806
N16575 X-15. Y-5.151
N16580 X-14.879 Y-5.493
N16585 X-14.75 Y-5.832
N16590 X-14.613 Y-6.168
N16595 X-14.469 Y-6.501
N16600 X-14.317 Y-6.83
N16605 X-14.157 Y-7.156
N16610 X-13.99 Y-7.478
N16615 X-13.815 Y-7.797
N16620 X-13.634 Y-8.111
N16625 X-13.445 Y-8.421
N16630 X-13.249 Y-8.726
N16635 X-13.047 Y-9.027
N16640 X-12.837 Y-9.324
N16645 X-12.621 Y-9.615
N16650 X-12.398 Y-9.901
N16655 X-12.168 Y-10.182
N16660 X-11.932 Y-10.458
N16665 X-11.69 Y-10.729
N16670 X-11.442 Y-10.993
N16675 X-11.188 Y-11.252
N16680 X-10.928 Y-11.505
N16685 X-10.662 Y-11.753
N16690 X-10.391 Y-11.994
N16695 X-10.114 Y-12.228
N16700 X-9.831 Y-12.456
N16705 X-9.544 Y-12.678
N16710 X-9.252 Y-12.893
N16715 X-8.955 Y-13.101
N16720 X-8.653 Y-13.303
N16725 X-8.346 Y-13.497
N16730 X-8.036 Y-13.685
N16735 X-7.721 Y-13.865
N16740 X-7.402 Y-14.039
N16745 X-7.079 Y-14.204
N16750 X-6.752 Y-14.363
N16755 X-6.422 Y-14.513
N16760 X-6.089 Y-14.656
N16765 X-5.752 Y-14.792
N16770 X-5.412 Y-14.92
N16775 X-5.07 Y-15.04
N16780 X-4.725 Y-15.152
N16785 X-4.377 Y-15.256
N16790 X-4.027 Y-15.352
N16795 X-3.675 Y-15.441
N16800 X-3.321 Y-15.521
N16805 X-2.966 Y-15.593
N16810 X-2.608 Y-15.656
N16815 X-2.25 Y-15.712
N16820 X-1.89 Y-15.759
N16825 X-1.529 Y-15.799
N16830 X-1.167 Y-15.83
N16835 X-0.805 Y-15.852
N16840 X-0.443 Y-15.867
N16845 X-0.08 Y-15.873
N16850 X0.283 Y-15.871
N16855 X0.646 Y-15.861
N16860 X1.008 Y-15.842
N16865 X1.37 Y-15.815
N16870 X1.731 Y-15.78
N16875 X2.092 Y-15.737
N16880 X2.451 Y-15.685
N16885 X2.809 Y-15.626
N16890 X3.166 Y-15.558
N16895 X3.52 Y-15.483
N16900 X3.874 Y-15.399
N16905 X4.225 Y-15.307
N16910 X4.574 Y-15.208
N16915 X4.92 Y-15.1
N16920 X5.265 Y-14.985
N16925 X5.606 Y-14.862
N16930 X5.945 Y-14.732
N16935 X6.28 Y-14.594
N16940 X6.613 Y-14.448
N16945 X6.942 Y-14.295
N16950 X7.268 Y-14.135
N16955 X7.59 Y-13.968
N16960 X7.908 Y-13.793
N16965 X8.222 Y-13.612
N16970 X8.532 Y-13.423
N16975 X8.838 Y-13.228
N16980 X9.139 Y-13.026
N16985 X9.436 Y-12.817
N16990 X9.729 Y-12.602
N16995 X10.016 Y-12.381
N17000 X10.299 Y-12.153
N17005 X10.576 Y-11.919
N17010 X10.848 Y-11.679
N17015 X11.115 Y-11.433
N17020 X11.377 Y-11.181
N17025 X11.632 Y-10.924
N17030 X11.882 Y-10.661
N17035 X12.127 Y-10.392
N17040 X12.365 Y-10.119
N17045 X12.597 Y-9.84
N17050 X12.824 Y-9.556
N17055 X13.044 Y-9.267
N17060 X13.257 Y-8.974
N17065 X13.464 Y-8.676
N17070 X13.665 Y-8.374
N17075 X13.859 Y-8.067
N17080 X14.046 Y-7.756
N17085 X14.226 Y-7.441
N17090 X14.399 Y-7.122
N17095 X14.566 Y-6.799
N17100 X14.725 Y-6.473
N17105 X14.877 Y-6.144
N17110 X15.022 Y-5.811
N17115 X15.16 Y-5.475
N17120 X15.29 Y-5.137
N17125 X15.413 Y-4.795
N17130 X15.528 Y-4.451
N17135 X15.636 Y-4.105
N17140 X15.736 Y-3.756
N17145 X15.829 Y-3.405
N17150 X15.913 Y-3.052
N17155 X15.991 Y-2.697
N17160 X16.06 Y-2.341
N17165 X16.121 Y-1.983
N17170 X16.175 Y-1.625
N17175 X16.221 Y-1.265
N17180 X16.259 Y-0.904
N17185 X16.288 Y-0.542
N17190 X16.31 Y-0.18
N17195 X16.324 Y0.183
N17200 X16.33 Y0.546
N17205 X16.328 Y0.909
N17210 X16.318 Y1.272
N17215 X16.3 Y1.634
N17220 X16.274 Y1.996
N17225 X16.241 Y2.357
N17230 X16.199 Y2.718
N17235 X16.149 Y3.077
N17240 X16.091 Y3.436
N17245 X16.026 Y3.793
N17250 X15.952 Y4.148
N17255 X15.871 Y4.502
N17260 X15.782 Y4.853
N17265 X15.685 Y5.203
N17270 X15.581 Y5.551
N17275 X15.469 Y5.896
N17280 X15.349 Y6.239
N17285 X15.222 Y6.579
N17290 X15.088 Y6.916
N17295 X14.945 Y7.25
N17300 X14.796 Y7.58
N17305 X14.639 Y7.908
N17310 X14.475 Y8.231
N17315 X14.305 Y8.552
N17320 X14.127 Y8.868
N17325 X13.942 Y9.18
N17330 X13.75 Y9.488
N17335 X13.552 Y9.792
N17340 X13.347 Y10.092
N17345 X13.135 Y10.387
N17350 X12.917 Y10.677
N17355 X12.693 Y10.962
N17360 X12.462 Y11.242
N17365 X12.225 Y11.517
N17370 X11.983 Y11.787
N17375 X11.734 Y12.051
N17380 X11.48 Y12.31
N17385 X11.22 Y12.563
N17390 X10.954 Y12.811
N17395 X10.684 Y13.053
N17400 X10.407 Y13.288
N17405 X10.126 Y13.518
N17410 X9.84 Y13.741
N17415 X9.549 Y13.958
N17420 X9.253 Y14.168
N17425 X8.953 Y14.372
N17430 X8.649 Y14.569
N17435 X8.34 Y14.76
N17440 X8.027 Y14.944
N17445 X7.71 Y15.121
N17450 X7.39 Y15.291
N17455 X7.065 Y15.454
N17460 X6.738 Y15.61
N17465 X6.407 Y15.759
N17470 X6.072 Y15.9
N17475 X5.735 Y16.034
N17480 X5.395 Y16.161
N17485 X5.052 Y16.28
N17490 X4.707 Y16.392
N17495 X4.36 Y16.496
N17500 X4.01 Y16.593
N17505 X3.658 Y16.683
N17510 X3.304 Y16.764
N17515 X2.949 Y16.838
N17520 X2.592 Y16.904
N17525 X2.234 Y16.962
N17530 X1.875 Y17.013
N17535 X1.514 Y17.056
N17540 X1.153 Y17.091
N17545 X0.791 Y17.118
N17550 X0.429 Y17.138
N17555 X0.066 Y17.149
N17560 X-0.297 Y17.153
N17565 X-0.66 Y17.149
N17570 X-1.022 Y17.137
N17575 X-1.385 Y17.118
N17580 X-1.747 Y17.09
N17585 X-2.108 Y17.055
N17590 X-2.468 Y17.012
N17595 X-2.828 Y16.961
N17600 X-3.186 Y16.903
N17605 X-3.543 Y16.837
N17610 X-3.898 Y16.764
N17615 X-4.252 Y16.683
N17620 X-4.604 Y16.594
N17625 X-4.954 Y16.498
N17630 X-5.301 Y16.394
N17635 X-5.647 Y16.283
N17640 X-5.99 Y16.164
N17645 X-6.33 Y16.038
N17650 X-6.668 Y15.905
N17655 X-7.003 Y15.765
N17660 X-7.334 Y15.618
N17665 X-7.663 Y15.464
N17670 X-7.988 Y15.302
N17675 X-8.31 Y15.134
N17680 X-8.628 Y14.959
N17685 X-8.942 Y14.778
N17690 X-9.252 Y14.589
N17695 X-9.558 Y14.394
N17700 X-9.86 Y14.193
N17705 X-10.157 Y13.985
N17710 X-10.451 Y13.771
N17715 X-10.739 Y13.551
N17720 X-11.023 Y13.325
N17725 X-11.302 Y13.093
N17730 X-11.576 Y12.855
N17735 X-11.845 Y12.611
N17740 X-12.109 Y12.362
N17745 X-12.367 Y12.107
N17750 X-12.62 Y11.846
N17755 X-12.867 Y11.581
N17760 X-13.108 Y11.31
N17765 X-13.344 Y11.034
N17770 X-13.574 Y10.753
N17775 X-13.798 Y10.468
N17780 X-14.016 Y10.178
N17785 X-14.228 Y9.883
N17790 X-14.434 Y9.584
N17795 X-14.633 Y9.281
N17800 X-14.825 Y8.973
N17805 X-15.011 Y8.661
N17810 X-15.191 Y8.346
N17815 X-15.364 Y8.027
N17820 X-15.53 Y7.704
N17825 X-15.689 Y7.378
N17830 X-15.841 Y7.049
N17835 X-15.987 Y6.716
N17840 X-16.125 Y6.381
N17845 X-16.257 Y6.042
N17850 X-16.381 Y5.701
N17855 X-16.498 Y5.358
N17860 X-16.607 Y5.012
N17865 X-16.71 Y4.664
N17870 X-16.805 Y4.313
N17875 X-16.892 Y3.961
N17880 X-16.972 Y3.607
N17885 X-17.045 Y3.252
N17890 X-17.111 Y2.895
N17895 X-17.169 Y2.537
N17900 X-17.219 Y2.177
N17905 X-17.262 Y1.817
N17910 X-17.297 Y1.456
N17915 X-17.324 Y1.094
N17920 X-17.344 Y0.731
N17925 X-17.356 Y0.369
N17930 X-17.361 Y0.006
N17935 X-17.358 Y-0.357
N17940 X-17.348 Y-0.72
N17945 X-17.33 Y-1.082
N17950 X-17.304 Y-1.444
N17955 X-17.271 Y-1.806
N17960 X-17.23 Y-2.166
N17965 X-17.182 Y-2.526
N17970 X-17.126 Y-2.885
N17975 X-17.062 Y-3.242
N17980 X-16.991 Y-3.598
N17985 X-16.913 Y-3.952
N17990 X-16.827 Y-4.305
N17995 X-16.734 Y-4.656
N18000 X-16.634 Y-5.004
N18005 X-16.526 Y-5.351
N18010 X-16.411 Y-5.695
N18015 X-16.289 Y-6.037
N18020 X-16.16 Y-6.376
N18025 X-16.024 Y-6.712
N18030 X-15.88 Y-7.046
N18035 X-15.73 Y-7.376
N18040 X-15.573 Y-7.703
N18045 X-15.409 Y-8.027
N18050 X-15.238 Y-8.347
N18055 X-15.061 Y-8.664
N18060 X-14.877 Y-8.977
N18065 X-14.687 Y-9.286
N18070 X-14.49 Y-9.591
N18075 X-14.287 Y-9.891
N18080 X-14.077 Y-10.188
N18085 X-13.862 Y-10.48
N18090 X-13.64 Y-10.767
N18095 X-13.412 Y-11.05
N18100 X-13.179 Y-11.327
N18105 X-12.94 Y-11.6
N18110 X-12.695 Y-11.868
N18115 X-12.444 Y-12.131
N18120 X-12.189 Y-12.388
N18125 X-11.927 Y-12.64
N18130 X-11.661 Y-12.887
N18135 X-11.39 Y-13.128
N18140 X-11.113 Y-13.363
N18145 X-10.832 Y-13.592
N18150 X-10.546 Y-13.815
N18155 X-10.255 Y-14.033
N18160 X-9.96 Y-14.244
N18165 X-9.66 Y-14.449
N18170 X-9.357 Y-14.648
N18175 X-9.049 Y-14.84
N18180 X-8.737 Y-15.026
N18185 X-8.422 Y-15.205
N18190 X-8.103 Y-15.378
N18195 X-7.78 Y-15.544
N18200 X-7.454 Y-15.703
N18205 X-7.124 Y-15.855
N18210 X-6.792 Y-16.
N18215 X-6.456 Y-16.139
N18220 X-6.118 Y-16.27
N18225 X-5.777 Y-16.395
N18230 X-5.434 Y-16.512
N18235 X-5.088 Y-16.622
N18240 X-4.74 Y-16.725
N18245 X-4.39 Y-16.82
N18250 X-4.037 Y-16.908
N18255 X-3.684 Y-16.989
N18260 X-3.328 Y-17.062
N18265 X-2.971 Y-17.128
N18270 X-2.613 Y-17.186
N18275 X-2.254 Y-17.237
N18280 X-1.893 Y-17.281
N18285 X-1.532 Y-17.316
N18290 X-1.171 Y-17.345
N18295 X-0.808 Y-17.366
N18300 X-0.446 Y-17.379
N18305 X-0.083 Y-17.385
N18310 X0.28 Y-17.383
N18315 X0.643 Y-17.374
N18320 X1.005 Y-17.357
N18325 X1.368 Y-17.332
N18330 X1.729 Y-17.3
N18335 X2.09 Y-17.261
N18340 X2.45 Y-17.214
N18345 X2.809 Y-17.16
N18350 X3.166 Y-17.098
N18355 X3.522 Y-17.029
N18360 X3.877 Y-16.953
N18365 X4.23 Y-16.869
N18370 X4.582 Y-16.778
N18375 X4.931 Y-16.679
N18380 X5.278 Y-16.574
N18385 X5.623 Y-16.461
N18390 X5.966 Y-16.341
N18395 X6.306 Y-16.215
N18400 X6.643 Y-16.081
N18405 X6.978 Y-15.941
N18410 X7.31 Y-15.794
N18415 X7.638 Y-15.64
N18420 X7.964 Y-15.479
N18425 X8.286 Y-15.312
N18430 X8.604 Y-15.138
N18435 X8.919 Y-14.958
N18440 X9.231 Y-14.771
N18445 X9.538 Y-14.578
N18450 X9.841 Y-14.379
N18455 X10.141 Y-14.174
N18460 X10.436 Y-13.963
N18465 X10.727 Y-13.746
N18470 X11.013 Y-13.523
N18475 X11.295 Y-13.294
N18480 X11.572 Y-13.06
N18485 X11.844 Y-12.82
N18490 X12.112 Y-12.575
N18495 X12.374 Y-12.324
N18500 X12.632 Y-12.068
N18505 X12.884 Y-11.807
N18510 X13.131 Y-11.541
N18515 X13.372 Y-11.27
N18520 X13.608 Y-10.994
N18525 X13.839 Y-10.714
N18530 X14.064 Y-10.429
N18535 X14.283 Y-10.14
N18540 X14.496 Y-9.846
N18545 X14.703 Y-9.549
N18550 X14.905 Y-9.247
N18555 X15.1 Y-8.941
N18560 X15.289 Y-8.631
N18565 X15.471 Y-8.317
N18570 X15.648 Y-8.
N18575 X15.818 Y-7.679
N18580 X15.981 Y-7.355
N18585 X16.139 Y-7.028
N18590 X16.289 Y-6.698
N18595 X16.433 Y-6.365
N18600 X16.571 Y-6.029
N18605 X16.701 Y-5.69
N18610 X16.825 Y-5.349
N18615 X16.941 Y-5.006
N18620 X17.051 Y-4.66
N18625 X17.154 Y-4.312
N18630 X17.25 Y-3.962
N18635 X17.339 Y-3.61
N18640 X17.42 Y-3.256
N18645 X17.495 Y-2.901
N18650 X17.563 Y-2.545
N18655 X17.623 Y-2.187
N18660 X17.676 Y-1.828
N18665 X17.722 Y-1.468
N18670 X17.761 Y-1.107
N18675 X17.792 Y-0.745
N18680 X17.816 Y-0.383
N18685 X17.833 Y-0.021
N18690 X17.843 Y0.342
N18695 X17.845 Y0.705
N18700 X17.84 Y1.068
N18705 X17.828 Y1.431
N18710 X17.808 Y1.793
N18715 X17.781 Y2.155
N18720 X17.747 Y2.516
N18725 X17.705 Y2.877
N18730 X17.657 Y3.236
N18735 X17.6 Y3.595
N18740 X17.537 Y3.952
N18745 X17.466 Y4.308
N18750 X17.389 Y4.663
N18755 X17.304 Y5.016
N18760 X17.212 Y5.367
N18765 X17.113 Y5.716
N18770 X17.007 Y6.063
N18775 X16.895 Y6.408
N18780 X16.775 Y6.75
N18785 X16.648 Y7.091
N18790 X16.514 Y7.428
N18795 X16.374 Y7.763
N18800 X16.227 Y8.094
N18805 X16.073 Y8.423
N18810 X15.912 Y8.748
N18815 X15.745 Y9.071
N18820 X15.572 Y9.389
N18825 X15.392 Y9.705
N18830 X15.206 Y10.016
N18835 X15.014 Y10.324
N18840 X14.815 Y10.628
N18845 X14.611 Y10.928
N18850 X14.4 Y11.223
N18855 X14.183 Y11.514
N18860 X13.961 Y11.801
N18865 X13.732 Y12.083
N18870 X13.499 Y12.361
N18875 X13.259 Y12.633
N18880 X13.015 Y12.901
N18885 X12.765 Y13.165
N18890 X12.509 Y13.422
N18895 X12.249 Y13.675
N18900 X11.983 Y13.923
N18905 X11.713 Y14.165
N18910 X11.438 Y14.401
N18915 X11.158 Y14.632
N18920 X10.873 Y14.857
N18925 X10.584 Y15.077
N18930 X10.291 Y15.29
N18935 X9.993 Y15.498
N18940 X9.692 Y15.7
N18945 X9.386 Y15.896
N18950 X9.076 Y16.085
N18955 X8.763 Y16.269
N18960 X8.446 Y16.446
N18965 X8.126 Y16.616
N18970 X7.802 Y16.78
N18975 X7.475 Y16.938
N18980 X7.145 Y17.089
N18985 X6.812 Y17.233
N18990 X6.477 Y17.371
N18995 X6.138 Y17.502
N19000 X5.797 Y17.626
N19005 X5.454 Y17.744
N19010 X5.108 Y17.854
N19015 X4.761 Y17.958
N19020 X4.411 Y18.055
N19025 X4.059 Y18.145
N19030 X3.706 Y18.228
N19035 X3.351 Y18.303
N19040 X2.995 Y18.372
N19045 X2.637 Y18.433
N19050 X2.278 Y18.488
N19055 X1.918 Y18.535
N19060 X1.558 Y18.575
N19065 X1.196 Y18.608
N19070 X0.834 Y18.635
N19075 X0.472 Y18.653
N19080 X0.109 Y18.665
N19085 X-0.254 Y18.669
N19090 X-0.617 Y18.666
N19095 X-0.979 Y18.656
N19100 X-1.342 Y18.639
N19105 X-1.704 Y18.615
N19110 X-2.066 Y18.583
N19115 X-2.426 Y18.545
N19120 X-2.786 Y18.499
N19125 X-3.146 Y18.447
N19130 X-3.504 Y18.387
N19135 X-3.86 Y18.321
N19140 X-4.216 Y18.247
N19145 X-4.569 Y18.166
N19150 X-4.922 Y18.078
N19155 X-5.272 Y17.984
N19160 X-5.62 Y17.882
N19165 X-5.967 Y17.774
N19170 X-6.311 Y17.659
N19175 X-6.653 Y17.537
N19180 X-6.992 Y17.409
N19185 X-7.329 Y17.274
N19190 X-7.663 Y17.132
N19195 X-7.995 Y16.984
N19200 X-8.323 Y16.83
N19205 X-8.648 Y16.669
N19210 X-8.97 Y16.501
N19215 X-9.289 Y16.328
N19220 X-9.604 Y16.148
N19225 X-9.916 Y15.962
N19230 X-10.224 Y15.77
N19235 X-10.528 Y15.572
N19240 X-10.828 Y15.368
N19245 X-11.125 Y15.159
N19250 X-11.417 Y14.943
N19255 X-11.705 Y14.723
N19260 X-11.988 Y14.496
N19265 X-12.267 Y14.264
N19270 X-12.542 Y14.027
N19275 X-12.812 Y13.784
N19280 X-13.077 Y13.536
N19285 X-13.337 Y13.283
N19290 X-13.592 Y13.025
N19295 X-13.842 Y12.762
N19300 X-14.087 Y12.494
N19305 X-14.327 Y12.222
N19310 X-14.561 Y11.945
N19315 X-14.79 Y11.663
N19320 X-15.014 Y11.377
N19325 X-15.232 Y11.087
N19330 X-15.444 Y10.793
N19335 X-15.65 Y10.494
N19340 X-15.851 Y10.192
N19345 X-16.046 Y9.885
N19350 X-16.234 Y9.575
N19355 X-16.417 Y9.262
N19360 X-16.594 Y8.945
N19365 X-16.764 Y8.624
N19370 X-16.928 Y8.301
N19375 X-17.086 Y7.974
N19380 X-17.238 Y7.644
N19385 X-17.383 Y7.312
N19390 X-17.522 Y6.976
N19395 X-17.654 Y6.638
N19400 X-17.78 Y6.298
N19405 X-17.899 Y5.955
N19410 X-18.011 Y5.61
N19415 X-18.117 Y5.263
N19420 X-18.215 Y4.914
N19425 X-18.308 Y4.563
N19430 X-18.393 Y4.21
N19435 X-18.472 Y3.856
N19440 X-18.544 Y3.5
N19445 X-18.609 Y3.143
N19450 X-18.667 Y2.785
N19455 X-18.718 Y2.425
N19460 X-18.762 Y2.065
N19465 X-18.799 Y1.704
N19470 X-18.829 Y1.342
N19475 X-18.852 Y0.98
N19480 X-18.868 Y0.618
N19485 X-18.877 Y0.255
N19490 X-18.879 Y-0.108
N19495 X-18.874 Y-0.471
N19500 X-18.863 Y-0.834
N19505 X-18.844 Y-1.196
N19510 X-18.818 Y-1.558
N19515 X-18.786 Y-1.92
N19520 X-18.746 Y-2.28
N19525 X-18.699 Y-2.64
N19530 X-18.645 Y-2.999
N19535 X-18.585 Y-3.357
N19540 X-18.517 Y-3.713
N19545 X-18.443 Y-4.069
N19550 X-18.362 Y-4.422
N19555 X-18.274 Y-4.775
N19560 X-18.18 Y-5.125
N19565 X-18.078 Y-5.474
N19570 X-17.971 Y-5.82
N19575 X-17.856 Y-6.164
N19580 X-17.734 Y-6.506
N19585 X-17.607 Y-6.846
N19590 X-17.472 Y-7.183
N19595 X-17.331 Y-7.517
N19600 X-17.184 Y-7.849
N19605 X-17.03 Y-8.178
N19610 X-16.87 Y-8.504
N19615 X-16.704 Y-8.826
N19620 X-16.532 Y-9.146
N19625 X-16.354 Y-9.462
N19630 X-16.169 Y-9.775
N19635 X-15.979 Y-10.083
N19640 X-15.783 Y-10.389
N19645 X-15.58 Y-10.69
N19650 X-15.372 Y-10.987
N19655 X-15.159 Y-11.281
N19660 X-14.939 Y-11.57
N19665 X-14.715 Y-11.855
N19670 X-14.484 Y-12.135
N19675 X-14.249 Y-12.411
N19680 X-14.008 Y-12.683
N19685 X-13.762 Y-12.95
N19690 X-13.511 Y-13.212
N19695 X-13.255 Y-13.469
N19700 X-12.994 Y-13.722
N19705 X-12.729 Y-13.969
N19710 X-12.458 Y-14.211
N19715 X-12.183 Y-14.447
N19720 X-11.903 Y-14.679
N19725 X-11.619 Y-14.905
N19730 X-11.331 Y-15.125
N19735 X-11.039 Y-15.34
N19740 X-10.742 Y-15.549
N19745 X-10.442 Y-15.753
N19750 X-10.138 Y-15.951
N19755 X-9.83 Y-16.143
N19760 X-9.518 Y-16.329
N19765 X-9.203 Y-16.509
N19770 X-8.884 Y-16.682
N19775 X-8.562 Y-16.85
N19780 X-8.237 Y-17.011
N19785 X-7.909 Y-17.166
N19790 X-7.578 Y-17.315
N19795 X-7.244 Y-17.457
N19800 X-6.908 Y-17.593
N19805 X-6.569 Y-17.723
N19810 X-6.227 Y-17.846
N19815 X-5.884 Y-17.963
N19820 X-5.538 Y-18.072
N19825 X-5.19 Y-18.175
N19830 X-4.84 Y-18.272
N19835 X-4.488 Y-18.361
N19840 X-4.135 Y-18.444
N19845 X-3.78 Y-18.52
N19850 X-3.424 Y-18.589
N19855 X-3.066 Y-18.652
N19860 X-2.708 Y-18.707
N19865 X-2.348 Y-18.756
N19870 X-1.987 Y-18.798
N19875 X-1.626 Y-18.833
N19880 X-1.264 Y-18.861
N19885 X-0.902 Y-18.882
N19890 X-0.539 Y-18.896
N19895 X-0.177 Y-18.903
N19900 X0.186
N19905 X0.549 Y-18.896
N19910 X0.912 Y-18.882
N19915 X1.274 Y-18.862
N19920 X1.636 Y-18.834
N19925 X1.997 Y-18.8
N19930 X2.358 Y-18.758
N19935 X2.718 Y-18.71
N19940 X3.076 Y-18.655
N19945 X3.434 Y-18.594
N19950 X3.79 Y-18.525
N19955 X4.145 Y-18.449
N19960 X4.499 Y-18.367
N19965 X4.851 Y-18.278
N19970 X5.201 Y-18.183
N19975 X5.549 Y-18.08
N19980 X5.895 Y-17.972
N19985 X6.239 Y-17.856
N19990 X6.581 Y-17.735
N19995 X6.921 Y-17.607
N20000 X7.258 Y-17.472
N20005 X7.592 Y-17.331
N20010 X7.924 Y-17.184
N20015 X8.253 Y-17.031
N20020 X8.579 Y-16.871
N20025 X8.902 Y-16.706
N20030 X9.221 Y-16.534
N20035 X9.538 Y-16.356
N20040 X9.851 Y-16.173
N20045 X10.161 Y-15.983
N20050 X10.467 Y-15.788
N20055 X10.769 Y-15.587
N20060 X11.067 Y-15.381
N20065 X11.362 Y-15.169
N20070 X11.653 Y-14.952
N20075 X11.939 Y-14.729
N20080 X12.222 Y-14.501
N20085 X12.5 Y-14.268
N20090 X12.773 Y-14.03
N20095 X13.042 Y-13.786
N20100 X13.307 Y-13.538
N20105 X13.567 Y-13.284
N20110 X13.822 Y-13.026
N20115 X14.072 Y-12.764
N20120 X14.318 Y-12.496
N20125 X14.558 Y-12.225
N20130 X14.794 Y-11.949
N20135 X15.024 Y-11.668
N20140 X15.249 Y-11.383
N20145 X15.469 Y-11.095
N20150 X15.683 Y-10.802
N20155 X15.892 Y-10.505
N20160 X16.095 Y-10.204
N20165 X16.293 Y-9.9
N20170 X16.485 Y-9.592
N20175 X16.672 Y-9.281
N20180 X16.852 Y-8.966
N20185 X17.027 Y-8.648
N20190 X17.196 Y-8.327
N20195 X17.359 Y-8.002
N20200 X17.516 Y-7.675
N20205 X17.667 Y-7.345
N20210 X17.812 Y-7.012
N20215 X17.95 Y-6.677
N20220 X18.082 Y-6.339
N20225 X18.208 Y-5.999
N20230 X18.328 Y-5.656
N20235 X18.441 Y-5.311
N20240 X18.548 Y-4.964
N20245 X18.649 Y-4.616
N20250 X18.743 Y-4.265
N20255 X18.831 Y-3.913
N20260 X18.912 Y-3.559
N20265 X18.986 Y-3.204
N20270 X19.054 Y-2.848
N20275 X19.115 Y-2.49
N20280 X19.17 Y-2.131
N20285 X19.218 Y-1.771
N20290 X19.259 Y-1.411
N20295 X19.294 Y-1.05
N20300 X19.321 Y-0.688
N20305 X19.343 Y-0.325
N20310 X19.357 Y0.037
N20315 X19.365 Y0.4
N20320 X19.366 Y0.763
N20325 X19.36 Y1.126
N20330 X19.348 Y1.489
N20335 X19.329 Y1.851
N20340 X19.303 Y2.213
N20345 X19.27 Y2.574
N20350 X19.23 Y2.935
N20355 X19.184 Y3.295
N20360 X19.131 Y3.654
N20365 X19.072 Y4.012
N20370 X19.006 Y4.369
N20375 X18.933 Y4.724
N20380 X18.854 Y5.079
N20385 X18.768 Y5.431
N20390 X18.676 Y5.782
N20395 X18.577 Y6.131
N20400 X18.471 Y6.479
N20405 X18.359 Y6.824
N20410 X18.241 Y7.167
N20415 X18.116 Y7.508
N20420 X17.985 Y7.846
N20425 X17.848 Y8.182
N20430 X17.704 Y8.515
N20435 X17.555 Y8.846
N20440 X17.399 Y9.174
N20445 X17.237 Y9.499
N20450 X17.069 Y9.82
N20455 X16.896 Y10.139
N20460 X16.716 Y10.454
N20465 X16.53 Y10.766
N20470 X16.339 Y11.075
N20475 X16.142 Y11.379
N20480 X15.939 Y11.68
N20485 X15.731 Y11.977
N20490 X15.517 Y12.271
N20495 X15.298 Y12.56
N20500 X15.073 Y12.845
N20505 X14.844 Y13.126
N20510 X14.609 Y13.403
N20515 X14.369 Y13.675
N20520 X14.124 Y13.943
N20525 X13.874 Y14.206
N20530 X13.619 Y14.464
N20535 X13.36 Y14.718
N20540 X13.095 Y14.967
N20545 X12.826 Y15.21
N20550 X12.553 Y15.449
N20555 X12.275 Y15.683
N20560 X11.993 Y15.911
N20565 X11.707 Y16.135
N20570 X11.417 Y16.353
N20575 X11.123 Y16.565
N20580 X10.825 Y16.772
N20585 X10.523 Y16.974
N20590 X10.218 Y17.17
N20595 X9.909 Y17.36
N20600 X9.596 Y17.545
N20605 X9.28 Y17.723
N20610 X8.961 Y17.896
N20615 X8.639 Y18.063
N20620 X8.314 Y18.224
N20625 X7.985 Y18.378
N20630 X7.654 Y18.527
N20635 X7.321 Y18.67
N20640 X6.984 Y18.807
N20645 X6.646 Y18.937
N20650 X6.305 Y19.061
N20655 X5.962 Y19.179
N20660 X5.616 Y19.29
N20665 X5.269 Y19.395
N20670 X4.92 Y19.494
N20675 X4.569 Y19.586
N20680 X4.216 Y19.672
N20685 X3.862 Y19.751
N20690 X3.506 Y19.824
N20695 X3.149 Y19.89
N20700 X2.791 Y19.95
N20705 X2.432 Y20.003
N20710 X2.073 Y20.05
N20715 X1.712 Y20.09
N20720 X1.35 Y20.123
N20725 X0.989 Y20.15
N20730 X0.626 Y20.17
N20735 X0.264 Y20.184
N20740 X-0.099 Y20.191
N20745 X-0.462
N20750 X-0.825 Y20.184
N20755 X-1.188 Y20.171
N20760 X-1.55 Y20.152
N20765 X-1.912 Y20.126
N20770 X-2.274 Y20.093
N20775 X-2.634 Y20.054
N20780 X-2.994 Y20.008
N20785 X-3.353 Y19.956
N20790 X-3.712 Y19.897
N20795 X-4.069 Y19.831
N20800 X-4.424 Y19.759
N20805 X-4.779 Y19.681
N20810 X-5.131 Y19.596
N20815 X-5.483 Y19.505
N20820 X-5.832 Y19.407
N20825 X-6.18 Y19.303
N20830 X-6.526 Y19.193
N20835 X-6.87 Y19.077
N20840 X-7.211 Y18.955
N20845 X-7.551 Y18.826
N20850 X-7.887 Y18.691
